; imgcode generated code 
; developed by M. "Vidmo" Widomski 
;  github.com/vidmo91 
;  hackaday.io/vidmo91 
 
H5 S0 
F111
G0 Z0 ; for some grbl senders compatibility 
 
G0 X0.0 Y0.0
M3 S1000
G1 X2.0 Y0.0
M3 S0
G0 X5.0 Y0.0
M3 S1000
G1 X5.0 Y0.0
M3 S1000
G1 X6.0 Y0.0
M3 S0
G0 X11.0 Y0.0
M3 S1000
G1 X11.0 Y0.0
M3 S1000
G1 X41.0 Y0.0
M3 S0
G0 X43.0 Y0.0
M3 S1000
G1 X43.0 Y0.0
M3 S1000
G1 X44.0 Y0.0
M3 S0
G0 X74.0 Y0.0
M3 S1000
G1 X74.0 Y0.0
M3 S1000
G1 X79.0 Y0.0
M3 S0
G0 X80.0 Y0.0
M3 S1000
G1 X80.0 Y0.0
M3 S1000
G1 X82.0 Y0.0
M3 S0
G0 X83.0 Y0.0
M3 S1000
G1 X83.0 Y0.0
M3 S1000
G1 X92.0 Y0.0
M3 S0
G0 X93.0 Y0.0
M3 S1000
G1 X93.0 Y0.0
M3 S1000
M5 S0
G0 X99.0 Y1.0
M3 S1000
G1 X72.0 Y1.0
M3 S0
G0 X42.0 Y1.0
M3 S1000
G1 X42.0 Y1.0
M3 S1000
G1 X40.0 Y1.0
M3 S0
G0 X39.0 Y1.0
M3 S1000
G1 X39.0 Y1.0
M3 S1000
G1 X10.0 Y1.0
M3 S0
G0 X5.0 Y1.0
M3 S1000
G1 X5.0 Y1.0
M3 S1000
G1 X4.0 Y1.0
M3 S0
G0 X1.0 Y1.0
M3 S1000
G1 X1.0 Y1.0
M3 S1000
M5 S0
G0 X0.0 Y2.0
M3 S1000
G1 X2.0 Y2.0
M3 S0
G0 X5.0 Y2.0
M3 S1000
G1 X5.0 Y2.0
M3 S1000
G1 X6.0 Y2.0
M3 S0
G0 X11.0 Y2.0
M3 S1000
G1 X11.0 Y2.0
M3 S1000
G1 X23.0 Y2.0
M3 S0
G0 X24.0 Y2.0
M3 S1000
G1 X24.0 Y2.0
M3 S1000
G1 X42.0 Y2.0
M3 S0
G0 X44.0 Y2.0
M3 S1000
G1 X44.0 Y2.0
M3 S1000
G1 X45.0 Y2.0
M3 S0
G0 X73.0 Y2.0
M3 S1000
G1 X73.0 Y2.0
M3 S1000
M5 S0
G0 X99.0 Y3.0
M3 S1000
G1 X72.0 Y3.0
M3 S0
G0 X42.0 Y3.0
M3 S1000
G1 X42.0 Y3.0
M3 S1000
G1 X10.0 Y3.0
M3 S0
G0 X5.0 Y3.0
M3 S1000
G1 X5.0 Y3.0
M3 S1000
G1 X4.0 Y3.0
M3 S0
G0 X1.0 Y3.0
M3 S1000
G1 X1.0 Y3.0
M3 S1000
M5 S0
G0 X0.0 Y4.0
M3 S1000
G1 X2.0 Y4.0
M3 S0
G0 X4.0 Y4.0
M3 S1000
G1 X4.0 Y4.0
M3 S1000
G1 X6.0 Y4.0
M3 S0
G0 X11.0 Y4.0
M3 S1000
G1 X11.0 Y4.0
M3 S1000
G1 X29.0 Y4.0
M3 S0
G0 X30.0 Y4.0
M3 S1000
G1 X30.0 Y4.0
M3 S1000
G1 X44.0 Y4.0
M3 S0
G0 X73.0 Y4.0
M3 S1000
G1 X73.0 Y4.0
M3 S1000
G1 X81.0 Y4.0
M3 S0
G0 X83.0 Y4.0
M3 S1000
G1 X83.0 Y4.0
M3 S1000
M5 S0
G0 X99.0 Y5.0
M3 S1000
G1 X84.0 Y5.0
M3 S0
G0 X80.0 Y5.0
M3 S1000
G1 X80.0 Y5.0
M3 S1000
G1 X71.0 Y5.0
M3 S0
G0 X43.0 Y5.0
M3 S1000
G1 X43.0 Y5.0
M3 S1000
G1 X10.0 Y5.0
M3 S0
G0 X5.0 Y5.0
M3 S1000
G1 X5.0 Y5.0
M3 S1000
G1 X3.0 Y5.0
M3 S0
G0 X0.0 Y5.0
M3 S1000
G1 X0.0 Y5.0
M3 S1000
M5 S0
G0 X0.0 Y6.0
M3 S1000
G1 X2.0 Y6.0
M3 S0
G0 X4.0 Y6.0
M3 S1000
G1 X4.0 Y6.0
M3 S1000
G1 X6.0 Y6.0
M3 S0
G0 X11.0 Y6.0
M3 S1000
G1 X11.0 Y6.0
M3 S1000
G1 X29.0 Y6.0
M3 S0
G0 X30.0 Y6.0
M3 S1000
G1 X30.0 Y6.0
M3 S1000
G1 X31.0 Y6.0
M3 S0
G0 X32.0 Y6.0
M3 S1000
G1 X32.0 Y6.0
M3 S1000
G1 X44.0 Y6.0
M3 S0
G0 X72.0 Y6.0
M3 S1000
G1 X72.0 Y6.0
M3 S1000
G1 X81.0 Y6.0
M3 S0
G0 X86.0 Y6.0
M3 S1000
G1 X86.0 Y6.0
M3 S1000
M5 S0
G0 X99.0 Y7.0
M3 S1000
G1 X85.0 Y7.0
M3 S0
G0 X80.0 Y7.0
M3 S1000
G1 X80.0 Y7.0
M3 S1000
G1 X71.0 Y7.0
M3 S0
G0 X44.0 Y7.0
M3 S1000
G1 X44.0 Y7.0
M3 S1000
G1 X29.0 Y7.0
M3 S0
G0 X27.0 Y7.0
M3 S1000
G1 X27.0 Y7.0
M3 S1000
G1 X10.0 Y7.0
M3 S0
G0 X5.0 Y7.0
M3 S1000
G1 X5.0 Y7.0
M3 S1000
G1 X3.0 Y7.0
M3 S0
G0 X1.0 Y7.0
M3 S1000
G1 X1.0 Y7.0
M3 S1000
M5 S0
G0 X0.0 Y8.0
M3 S1000
G1 X2.0 Y8.0
M3 S0
G0 X4.0 Y8.0
M3 S1000
G1 X4.0 Y8.0
M3 S1000
G1 X6.0 Y8.0
M3 S0
G0 X12.0 Y8.0
M3 S1000
G1 X12.0 Y8.0
M3 S1000
G1 X30.0 Y8.0
M3 S0
G0 X31.0 Y8.0
M3 S1000
G1 X31.0 Y8.0
M3 S1000
G1 X45.0 Y8.0
M3 S0
G0 X71.0 Y8.0
M3 S1000
G1 X71.0 Y8.0
M3 S1000
G1 X81.0 Y8.0
M3 S0
G0 X87.0 Y8.0
M3 S1000
G1 X87.0 Y8.0
M3 S1000
M5 S0
G0 X99.0 Y9.0
M3 S1000
G1 X86.0 Y9.0
M3 S0
G0 X77.0 Y9.0
M3 S1000
G1 X77.0 Y9.0
M3 S1000
G1 X70.0 Y9.0
M3 S0
G0 X44.0 Y9.0
M3 S1000
G1 X44.0 Y9.0
M3 S1000
G1 X11.0 Y9.0
M3 S0
G0 X5.0 Y9.0
M3 S1000
G1 X5.0 Y9.0
M3 S1000
G1 X3.0 Y9.0
M3 S0
G0 X1.0 Y9.0
M3 S1000
G1 X1.0 Y9.0
M3 S1000
M5 S0
G0 X0.0 Y10.0
M3 S1000
G1 X2.0 Y10.0
M3 S0
G0 X4.0 Y10.0
M3 S1000
G1 X4.0 Y10.0
M3 S1000
G1 X6.0 Y10.0
M3 S0
G0 X12.0 Y10.0
M3 S1000
G1 X12.0 Y10.0
M3 S1000
G1 X32.0 Y10.0
M3 S0
G0 X33.0 Y10.0
M3 S1000
G1 X33.0 Y10.0
M3 S1000
G1 X46.0 Y10.0
M3 S0
G0 X72.0 Y10.0
M3 S1000
G1 X72.0 Y10.0
M3 S1000
G1 X75.0 Y10.0
M3 S0
G0 X88.0 Y10.0
M3 S1000
G1 X88.0 Y10.0
M3 S1000
M5 S0
G0 X99.0 Y11.0
M3 S1000
G1 X87.0 Y11.0
M3 S0
G0 X45.0 Y11.0
M3 S1000
G1 X45.0 Y11.0
M3 S1000
G1 X43.0 Y11.0
M3 S0
G0 X42.0 Y11.0
M3 S1000
G1 X42.0 Y11.0
M3 S1000
G1 X11.0 Y11.0
M3 S0
G0 X5.0 Y11.0
M3 S1000
G1 X5.0 Y11.0
M3 S1000
G1 X3.0 Y11.0
M3 S0
G0 X0.0 Y11.0
M3 S1000
G1 X0.0 Y11.0
M3 S1000
M5 S0
G0 X0.0 Y12.0
M3 S1000
G1 X1.0 Y12.0
M3 S0
G0 X4.0 Y12.0
M3 S1000
G1 X4.0 Y12.0
M3 S1000
G1 X6.0 Y12.0
M3 S0
G0 X12.0 Y12.0
M3 S1000
G1 X12.0 Y12.0
M3 S1000
G1 X29.0 Y12.0
M3 S0
G0 X30.0 Y12.0
M3 S1000
G1 X30.0 Y12.0
M3 S1000
G1 X31.0 Y12.0
M3 S0
G0 X32.0 Y12.0
M3 S1000
G1 X32.0 Y12.0
M3 S1000
G1 X43.0 Y12.0
M3 S0
G0 X44.0 Y12.0
M3 S1000
G1 X44.0 Y12.0
M3 S1000
G1 X46.0 Y12.0
M3 S0
G0 X70.0 Y12.0
M3 S1000
G1 X70.0 Y12.0
M3 S1000
G1 X72.0 Y12.0
M3 S0
G0 X88.0 Y12.0
M3 S1000
G1 X88.0 Y12.0
M3 S1000
M5 S0
G0 X99.0 Y13.0
M3 S1000
G1 X88.0 Y13.0
M3 S0
G0 X81.0 Y13.0
M3 S1000
G1 X81.0 Y13.0
M3 S1000
G1 X80.0 Y13.0
M3 S0
G0 X70.0 Y13.0
M3 S1000
G1 X70.0 Y13.0
M3 S1000
G1 X69.0 Y13.0
M3 S0
G0 X46.0 Y13.0
M3 S1000
G1 X46.0 Y13.0
M3 S1000
G1 X43.0 Y13.0
M3 S0
G0 X42.0 Y13.0
M3 S1000
G1 X42.0 Y13.0
M3 S1000
G1 X34.0 Y13.0
M3 S0
G0 X31.0 Y13.0
M3 S1000
G1 X31.0 Y13.0
M3 S1000
G1 X29.0 Y13.0
M3 S0
G0 X28.0 Y13.0
M3 S1000
G1 X28.0 Y13.0
M3 S1000
G1 X11.0 Y13.0
M3 S0
G0 X5.0 Y13.0
M3 S1000
G1 X5.0 Y13.0
M3 S1000
G1 X2.0 Y13.0
M3 S0
G0 X0.0 Y13.0
M3 S1000
G1 X0.0 Y13.0
M3 S1000
M5 S0
G0 X0.0 Y14.0
M3 S1000
G1 X1.0 Y14.0
M3 S0
G0 X3.0 Y14.0
M3 S1000
G1 X3.0 Y14.0
M3 S1000
G1 X6.0 Y14.0
M3 S0
G0 X12.0 Y14.0
M3 S1000
G1 X12.0 Y14.0
M3 S1000
G1 X29.0 Y14.0
M3 S0
G0 X31.0 Y14.0
M3 S1000
G1 X31.0 Y14.0
M3 S1000
G1 X48.0 Y14.0
M3 S0
G0 X70.0 Y14.0
M3 S1000
G1 X70.0 Y14.0
M3 S1000
G1 X71.0 Y14.0
M3 S0
G0 X80.0 Y14.0
M3 S1000
G1 X80.0 Y14.0
M3 S1000
G1 X83.0 Y14.0
M3 S0
G0 X89.0 Y14.0
M3 S1000
G1 X89.0 Y14.0
M3 S1000
M5 S0
G0 X99.0 Y15.0
M3 S1000
G1 X89.0 Y15.0
M3 S0
G0 X82.0 Y15.0
M3 S1000
G1 X82.0 Y15.0
M3 S1000
G1 X81.0 Y15.0
M3 S0
G0 X70.0 Y15.0
M3 S1000
G1 X70.0 Y15.0
M3 S1000
G1 X69.0 Y15.0
M3 S0
G0 X46.0 Y15.0
M3 S1000
G1 X46.0 Y15.0
M3 S1000
G1 X33.0 Y15.0
M3 S0
G0 X32.0 Y15.0
M3 S1000
G1 X32.0 Y15.0
M3 S1000
G1 X29.0 Y15.0
M3 S0
G0 X28.0 Y15.0
M3 S1000
G1 X28.0 Y15.0
M3 S1000
G1 X19.0 Y15.0
M3 S0
G0 X18.0 Y15.0
M3 S1000
G1 X18.0 Y15.0
M3 S1000
G1 X11.0 Y15.0
M3 S0
G0 X5.0 Y15.0
M3 S1000
G1 X5.0 Y15.0
M3 S1000
G1 X2.0 Y15.0
M3 S0
G0 X0.0 Y15.0
M3 S1000
G1 X0.0 Y15.0
M3 S1000
M5 S0
G0 X0.0 Y16.0
M3 S1000
G1 X1.0 Y16.0
M3 S0
G0 X3.0 Y16.0
M3 S1000
G1 X3.0 Y16.0
M3 S1000
G1 X5.0 Y16.0
M3 S0
G0 X13.0 Y16.0
M3 S1000
G1 X13.0 Y16.0
M3 S1000
G1 X19.0 Y16.0
M3 S0
G0 X20.0 Y16.0
M3 S1000
G1 X20.0 Y16.0
M3 S1000
G1 X29.0 Y16.0
M3 S0
G0 X31.0 Y16.0
M3 S1000
G1 X31.0 Y16.0
M3 S1000
G1 X33.0 Y16.0
M3 S0
G0 X34.0 Y16.0
M3 S1000
G1 X34.0 Y16.0
M3 S1000
G1 X47.0 Y16.0
M3 S0
G0 X69.0 Y16.0
M3 S1000
G1 X69.0 Y16.0
M3 S1000
G1 X72.0 Y16.0
M3 S0
G0 X81.0 Y16.0
M3 S1000
G1 X81.0 Y16.0
M3 S1000
G1 X83.0 Y16.0
M3 S0
G0 X90.0 Y16.0
M3 S1000
G1 X90.0 Y16.0
M3 S1000
M5 S0
G0 X99.0 Y17.0
M3 S1000
G1 X89.0 Y17.0
M3 S0
G0 X83.0 Y17.0
M3 S1000
G1 X83.0 Y17.0
M3 S1000
G1 X82.0 Y17.0
M3 S0
G0 X71.0 Y17.0
M3 S1000
G1 X71.0 Y17.0
M3 S1000
G1 X68.0 Y17.0
M3 S0
G0 X46.0 Y17.0
M3 S1000
G1 X46.0 Y17.0
M3 S1000
G1 X30.0 Y17.0
M3 S0
G0 X28.0 Y17.0
M3 S1000
G1 X28.0 Y17.0
M3 S1000
G1 X12.0 Y17.0
M3 S0
G0 X5.0 Y17.0
M3 S1000
G1 X5.0 Y17.0
M3 S1000
G1 X2.0 Y17.0
M3 S0
G0 X0.0 Y17.0
M3 S1000
G1 X0.0 Y17.0
M3 S1000
M5 S0
G0 X0.0 Y18.0
M3 S1000
G1 X0.0 Y18.0
M3 S0
G0 X3.0 Y18.0
M3 S1000
G1 X3.0 Y18.0
M3 S1000
G1 X5.0 Y18.0
M3 S0
G0 X12.0 Y18.0
M3 S1000
G1 X12.0 Y18.0
M3 S1000
G1 X28.0 Y18.0
M3 S0
G0 X29.0 Y18.0
M3 S1000
G1 X29.0 Y18.0
M3 S1000
G1 X30.0 Y18.0
M3 S0
G0 X33.0 Y18.0
M3 S1000
G1 X33.0 Y18.0
M3 S1000
G1 X48.0 Y18.0
M3 S0
G0 X68.0 Y18.0
M3 S1000
G1 X68.0 Y18.0
M3 S1000
G1 X72.0 Y18.0
M3 S0
G0 X81.0 Y18.0
M3 S1000
G1 X81.0 Y18.0
M3 S1000
G1 X82.0 Y18.0
M3 S0
G0 X83.0 Y18.0
M3 S1000
G1 X83.0 Y18.0
M3 S1000
G1 X84.0 Y18.0
M3 S0
G0 X85.0 Y18.0
M3 S1000
G1 X85.0 Y18.0
M3 S1000
G1 X86.0 Y18.0
M3 S0
G0 X91.0 Y18.0
M3 S1000
G1 X91.0 Y18.0
M3 S1000
M5 S0
G0 X99.0 Y19.0
M3 S1000
G1 X90.0 Y19.0
M3 S0
G0 X85.0 Y19.0
M3 S1000
G1 X85.0 Y19.0
M3 S1000
G1 X84.0 Y19.0
M3 S0
G0 X83.0 Y19.0
M3 S1000
G1 X83.0 Y19.0
M3 S1000
G1 X81.0 Y19.0
M3 S0
G0 X71.0 Y19.0
M3 S1000
G1 X71.0 Y19.0
M3 S1000
G1 X66.0 Y19.0
M3 S0
G0 X48.0 Y19.0
M3 S1000
G1 X48.0 Y19.0
M3 S1000
G1 X33.0 Y19.0
M3 S0
G0 X32.0 Y19.0
M3 S1000
G1 X32.0 Y19.0
M3 S1000
G1 X30.0 Y19.0
M3 S0
G0 X27.0 Y19.0
M3 S1000
G1 X27.0 Y19.0
M3 S1000
G1 X23.0 Y19.0
M3 S0
G0 X22.0 Y19.0
M3 S1000
G1 X22.0 Y19.0
M3 S1000
G1 X12.0 Y19.0
M3 S0
G0 X4.0 Y19.0
M3 S1000
G1 X4.0 Y19.0
M3 S1000
G1 X2.0 Y19.0
M3 S0
M5 S0
G0 X2.0 Y20.0
M3 S1000
G1 X2.0 Y20.0
M3 S1000
G1 X5.0 Y20.0
M3 S0
G0 X12.0 Y20.0
M3 S1000
G1 X12.0 Y20.0
M3 S1000
G1 X17.0 Y20.0
M3 S0
G0 X19.0 Y20.0
M3 S1000
G1 X19.0 Y20.0
M3 S1000
G1 X28.0 Y20.0
M3 S0
G0 X30.0 Y20.0
M3 S1000
G1 X30.0 Y20.0
M3 S1000
G1 X31.0 Y20.0
M3 S0
G0 X32.0 Y20.0
M3 S1000
G1 X32.0 Y20.0
M3 S1000
G1 X48.0 Y20.0
M3 S0
G0 X49.0 Y20.0
M3 S1000
G1 X49.0 Y20.0
M3 S1000
G1 X50.0 Y20.0
M3 S0
G0 X66.0 Y20.0
M3 S1000
G1 X66.0 Y20.0
M3 S1000
G1 X72.0 Y20.0
M3 S0
G0 X81.0 Y20.0
M3 S1000
G1 X81.0 Y20.0
M3 S1000
G1 X84.0 Y20.0
M3 S0
G0 X85.0 Y20.0
M3 S1000
G1 X85.0 Y20.0
M3 S1000
G1 X86.0 Y20.0
M3 S0
G0 X92.0 Y20.0
M3 S1000
G1 X92.0 Y20.0
M3 S1000
M5 S0
G0 X99.0 Y21.0
M3 S1000
G1 X92.0 Y21.0
M3 S0
G0 X85.0 Y21.0
M3 S1000
G1 X85.0 Y21.0
M3 S1000
G1 X78.0 Y21.0
M3 S0
G0 X71.0 Y21.0
M3 S1000
G1 X71.0 Y21.0
M3 S1000
G1 X64.0 Y21.0
M3 S0
G0 X50.0 Y21.0
M3 S1000
G1 X50.0 Y21.0
M3 S1000
G1 X32.0 Y21.0
M3 S0
G0 X31.0 Y21.0
M3 S1000
G1 X31.0 Y21.0
M3 S1000
G1 X30.0 Y21.0
M3 S0
G0 X29.0 Y21.0
M3 S1000
G1 X29.0 Y21.0
M3 S1000
G1 X23.0 Y21.0
M3 S0
G0 X22.0 Y21.0
M3 S1000
G1 X22.0 Y21.0
M3 S1000
G1 X12.0 Y21.0
M3 S0
G0 X11.0 Y21.0
M3 S1000
G1 X11.0 Y21.0
M3 S1000
G1 X10.0 Y21.0
M3 S0
G0 X5.0 Y21.0
M3 S1000
G1 X5.0 Y21.0
M3 S1000
M5 S0
G0 X0.0 Y22.0
M3 S1000
G1 X5.0 Y22.0
M3 S0
G0 X12.0 Y22.0
M3 S1000
G1 X12.0 Y22.0
M3 S1000
G1 X23.0 Y22.0
M3 S0
G0 X24.0 Y22.0
M3 S1000
G1 X24.0 Y22.0
M3 S1000
G1 X25.0 Y22.0
M3 S0
G0 X26.0 Y22.0
M3 S1000
G1 X26.0 Y22.0
M3 S1000
G1 X28.0 Y22.0
M3 S0
G0 X29.0 Y22.0
M3 S1000
G1 X29.0 Y22.0
M3 S1000
G1 X30.0 Y22.0
M3 S0
G0 X32.0 Y22.0
M3 S1000
G1 X32.0 Y22.0
M3 S1000
G1 X50.0 Y22.0
M3 S0
G0 X63.0 Y22.0
M3 S1000
G1 X63.0 Y22.0
M3 S1000
G1 X72.0 Y22.0
M3 S0
G0 X76.0 Y22.0
M3 S1000
G1 X76.0 Y22.0
M3 S1000
G1 X86.0 Y22.0
M3 S0
G0 X94.0 Y22.0
M3 S1000
G1 X94.0 Y22.0
M3 S1000
M5 S0
G0 X99.0 Y23.0
M3 S1000
G1 X94.0 Y23.0
M3 S0
G0 X85.0 Y23.0
M3 S1000
G1 X85.0 Y23.0
M3 S1000
G1 X84.0 Y23.0
M3 S0
G0 X80.0 Y23.0
M3 S1000
G1 X80.0 Y23.0
M3 S1000
G1 X73.0 Y23.0
M3 S0
G0 X71.0 Y23.0
M3 S1000
G1 X71.0 Y23.0
M3 S1000
G1 X60.0 Y23.0
M3 S0
G0 X46.0 Y23.0
M3 S1000
G1 X46.0 Y23.0
M3 S1000
G1 X30.0 Y23.0
M3 S0
G0 X29.0 Y23.0
M3 S1000
G1 X29.0 Y23.0
M3 S1000
G1 X28.0 Y23.0
M3 S0
G0 X27.0 Y23.0
M3 S1000
G1 X27.0 Y23.0
M3 S1000
G1 X26.0 Y23.0
M3 S0
G0 X25.0 Y23.0
M3 S1000
G1 X25.0 Y23.0
M3 S1000
G1 X22.0 Y23.0
M3 S0
G0 X20.0 Y23.0
M3 S1000
G1 X20.0 Y23.0
M3 S1000
G1 X12.0 Y23.0
M3 S0
G0 X11.0 Y23.0
M3 S1000
G1 X11.0 Y23.0
M3 S1000
G1 X10.0 Y23.0
M3 S0
G0 X4.0 Y23.0
M3 S1000
G1 X4.0 Y23.0
M3 S1000
M5 S0
G0 X0.0 Y24.0
M3 S1000
G1 X5.0 Y24.0
M3 S0
G0 X11.0 Y24.0
M3 S1000
G1 X11.0 Y24.0
M3 S1000
G1 X13.0 Y24.0
M3 S0
G0 X14.0 Y24.0
M3 S1000
G1 X14.0 Y24.0
M3 S1000
G1 X21.0 Y24.0
M3 S0
G0 X22.0 Y24.0
M3 S1000
G1 X22.0 Y24.0
M3 S1000
G1 X27.0 Y24.0
M3 S0
G0 X30.0 Y24.0
M3 S1000
G1 X30.0 Y24.0
M3 S1000
G1 X52.0 Y24.0
M3 S0
G0 X59.0 Y24.0
M3 S1000
G1 X59.0 Y24.0
M3 S1000
G1 X72.0 Y24.0
M3 S0
G0 X74.0 Y24.0
M3 S1000
G1 X74.0 Y24.0
M3 S1000
G1 X76.0 Y24.0
M3 S0
G0 X85.0 Y24.0
M3 S1000
G1 X85.0 Y24.0
M3 S1000
G1 X87.0 Y24.0
M3 S0
G0 X96.0 Y24.0
M3 S1000
G1 X96.0 Y24.0
M3 S1000
M5 S0
G0 X86.0 Y25.0
M3 S1000
G1 X86.0 Y25.0
M3 S1000
G1 X85.0 Y25.0
M3 S0
G0 X71.0 Y25.0
M3 S1000
G1 X71.0 Y25.0
M3 S1000
G1 X59.0 Y25.0
M3 S0
G0 X49.0 Y25.0
M3 S1000
G1 X49.0 Y25.0
M3 S1000
G1 X27.0 Y25.0
M3 S0
G0 X26.0 Y25.0
M3 S1000
G1 X26.0 Y25.0
M3 S1000
G1 X25.0 Y25.0
M3 S0
G0 X24.0 Y25.0
M3 S1000
G1 X24.0 Y25.0
M3 S1000
G1 X10.0 Y25.0
M3 S0
G0 X3.0 Y25.0
M3 S1000
G1 X3.0 Y25.0
M3 S1000
M5 S0
G0 X0.0 Y26.0
M3 S1000
G1 X5.0 Y26.0
M3 S0
G0 X11.0 Y26.0
M3 S1000
G1 X11.0 Y26.0
M3 S1000
G1 X23.0 Y26.0
M3 S0
G0 X24.0 Y26.0
M3 S1000
G1 X24.0 Y26.0
M3 S1000
G1 X27.0 Y26.0
M3 S0
G0 X28.0 Y26.0
M3 S1000
G1 X28.0 Y26.0
M3 S1000
G1 X29.0 Y26.0
M3 S0
G0 X30.0 Y26.0
M3 S1000
G1 X30.0 Y26.0
M3 S1000
G1 X49.0 Y26.0
M3 S0
G0 X60.0 Y26.0
M3 S1000
G1 X60.0 Y26.0
M3 S1000
G1 X72.0 Y26.0
M3 S0
G0 X86.0 Y26.0
M3 S1000
G1 X86.0 Y26.0
M3 S1000
G1 X87.0 Y26.0
M3 S0
M5 S0
G0 X86.0 Y27.0
M3 S1000
G1 X86.0 Y27.0
M3 S1000
G1 X85.0 Y27.0
M3 S0
G0 X71.0 Y27.0
M3 S1000
G1 X71.0 Y27.0
M3 S1000
G1 X59.0 Y27.0
M3 S0
G0 X48.0 Y27.0
M3 S1000
G1 X48.0 Y27.0
M3 S1000
G1 X29.0 Y27.0
M3 S0
G0 X27.0 Y27.0
M3 S1000
G1 X27.0 Y27.0
M3 S1000
G1 X23.0 Y27.0
M3 S0
G0 X22.0 Y27.0
M3 S1000
G1 X22.0 Y27.0
M3 S1000
G1 X21.0 Y27.0
M3 S0
G0 X20.0 Y27.0
M3 S1000
G1 X20.0 Y27.0
M3 S1000
G1 X13.0 Y27.0
M3 S0
G0 X12.0 Y27.0
M3 S1000
G1 X12.0 Y27.0
M3 S1000
G1 X10.0 Y27.0
M3 S0
G0 X4.0 Y27.0
M3 S1000
G1 X4.0 Y27.0
M3 S1000
M5 S0
G0 X0.0 Y28.0
M3 S1000
G1 X5.0 Y28.0
M3 S0
G0 X11.0 Y28.0
M3 S1000
G1 X11.0 Y28.0
M3 S1000
G1 X13.0 Y28.0
M3 S0
G0 X14.0 Y28.0
M3 S1000
G1 X14.0 Y28.0
M3 S1000
G1 X21.0 Y28.0
M3 S0
G0 X22.0 Y28.0
M3 S1000
G1 X22.0 Y28.0
M3 S1000
G1 X28.0 Y28.0
M3 S0
G0 X31.0 Y28.0
M3 S1000
G1 X31.0 Y28.0
M3 S1000
G1 X48.0 Y28.0
M3 S0
G0 X55.0 Y28.0
M3 S1000
G1 X55.0 Y28.0
M3 S1000
G1 X58.0 Y28.0
M3 S0
G0 X61.0 Y28.0
M3 S1000
G1 X61.0 Y28.0
M3 S1000
G1 X72.0 Y28.0
M3 S0
G0 X86.0 Y28.0
M3 S1000
G1 X86.0 Y28.0
M3 S1000
G1 X87.0 Y28.0
M3 S0
M5 S0
G0 X86.0 Y29.0
M3 S1000
G1 X86.0 Y29.0
M3 S1000
G1 X85.0 Y29.0
M3 S0
G0 X71.0 Y29.0
M3 S1000
G1 X71.0 Y29.0
M3 S1000
G1 X60.0 Y29.0
M3 S0
G0 X53.0 Y29.0
M3 S1000
G1 X53.0 Y29.0
M3 S1000
G1 X52.0 Y29.0
M3 S0
G0 X48.0 Y29.0
M3 S1000
G1 X48.0 Y29.0
M3 S1000
G1 X47.0 Y29.0
M3 S0
G0 X46.0 Y29.0
M3 S1000
G1 X46.0 Y29.0
M3 S1000
G1 X31.0 Y29.0
M3 S0
G0 X30.0 Y29.0
M3 S1000
G1 X30.0 Y29.0
M3 S1000
G1 X29.0 Y29.0
M3 S0
G0 X26.0 Y29.0
M3 S1000
G1 X26.0 Y29.0
M3 S1000
G1 X22.0 Y29.0
M3 S0
G0 X20.0 Y29.0
M3 S1000
G1 X20.0 Y29.0
M3 S1000
G1 X11.0 Y29.0
M3 S0
G0 X4.0 Y29.0
M3 S1000
G1 X4.0 Y29.0
M3 S1000
M5 S0
G0 X0.0 Y30.0
M3 S1000
G1 X5.0 Y30.0
M3 S0
G0 X11.0 Y30.0
M3 S1000
G1 X11.0 Y30.0
M3 S1000
G1 X12.0 Y30.0
M3 S0
G0 X13.0 Y30.0
M3 S1000
G1 X13.0 Y30.0
M3 S1000
G1 X14.0 Y30.0
M3 S0
G0 X15.0 Y30.0
M3 S1000
G1 X15.0 Y30.0
M3 S1000
G1 X21.0 Y30.0
M3 S0
G0 X22.0 Y30.0
M3 S1000
G1 X22.0 Y30.0
M3 S1000
G1 X28.0 Y30.0
M3 S0
G0 X29.0 Y30.0
M3 S1000
G1 X29.0 Y30.0
M3 S1000
G1 X30.0 Y30.0
M3 S0
G0 X31.0 Y30.0
M3 S1000
G1 X31.0 Y30.0
M3 S1000
G1 X32.0 Y30.0
M3 S0
G0 X33.0 Y30.0
M3 S1000
G1 X33.0 Y30.0
M3 S1000
G1 X47.0 Y30.0
M3 S0
G0 X52.0 Y30.0
M3 S1000
G1 X52.0 Y30.0
M3 S1000
G1 X54.0 Y30.0
M3 S0
G0 X62.0 Y30.0
M3 S1000
G1 X62.0 Y30.0
M3 S1000
G1 X72.0 Y30.0
M3 S0
G0 X86.0 Y30.0
M3 S1000
G1 X86.0 Y30.0
M3 S1000
G1 X87.0 Y30.0
M3 S0
M5 S0
G0 X71.0 Y31.0
M3 S1000
G1 X71.0 Y31.0
M3 S1000
G1 X62.0 Y31.0
M3 S0
G0 X60.0 Y31.0
M3 S1000
G1 X60.0 Y31.0
M3 S1000
G1 X50.0 Y31.0
M3 S0
G0 X44.0 Y31.0
M3 S1000
G1 X44.0 Y31.0
M3 S1000
G1 X33.0 Y31.0
M3 S0
G0 X32.0 Y31.0
M3 S1000
G1 X32.0 Y31.0
M3 S1000
G1 X30.0 Y31.0
M3 S0
G0 X27.0 Y31.0
M3 S1000
G1 X27.0 Y31.0
M3 S1000
G1 X15.0 Y31.0
M3 S0
G0 X14.0 Y31.0
M3 S1000
G1 X14.0 Y31.0
M3 S1000
G1 X10.0 Y31.0
M3 S0
G0 X4.0 Y31.0
M3 S1000
G1 X4.0 Y31.0
M3 S1000
M5 S0
G0 X0.0 Y32.0
M3 S1000
G1 X5.0 Y32.0
M3 S0
G0 X11.0 Y32.0
M3 S1000
G1 X11.0 Y32.0
M3 S1000
G1 X29.0 Y32.0
M3 S0
G0 X32.0 Y32.0
M3 S1000
G1 X32.0 Y32.0
M3 S1000
G1 X46.0 Y32.0
M3 S0
G0 X61.0 Y32.0
M3 S1000
G1 X61.0 Y32.0
M3 S1000
G1 X62.0 Y32.0
M3 S0
G0 X63.0 Y32.0
M3 S1000
G1 X63.0 Y32.0
M3 S1000
G1 X72.0 Y32.0
M3 S0
G0 X73.0 Y32.0
M3 S1000
G1 X73.0 Y32.0
M3 S1000
G1 X74.0 Y32.0
M3 S0
M5 S0
G0 X73.0 Y33.0
M3 S1000
G1 X73.0 Y33.0
M3 S1000
G1 X72.0 Y33.0
M3 S0
G0 X71.0 Y33.0
M3 S1000
G1 X71.0 Y33.0
M3 S1000
G1 X62.0 Y33.0
M3 S0
G0 X44.0 Y33.0
M3 S1000
G1 X44.0 Y33.0
M3 S1000
G1 X34.0 Y33.0
M3 S0
G0 X33.0 Y33.0
M3 S1000
G1 X33.0 Y33.0
M3 S1000
G1 X32.0 Y33.0
M3 S0
G0 X30.0 Y33.0
M3 S1000
G1 X30.0 Y33.0
M3 S1000
G1 X27.0 Y33.0
M3 S0
G0 X24.0 Y33.0
M3 S1000
G1 X24.0 Y33.0
M3 S1000
G1 X14.0 Y33.0
M3 S0
G0 X13.0 Y33.0
M3 S1000
G1 X13.0 Y33.0
M3 S1000
G1 X10.0 Y33.0
M3 S0
G0 X4.0 Y33.0
M3 S1000
G1 X4.0 Y33.0
M3 S1000
M5 S0
G0 X0.0 Y34.0
M3 S1000
G1 X5.0 Y34.0
M3 S0
G0 X11.0 Y34.0
M3 S1000
G1 X11.0 Y34.0
M3 S1000
G1 X15.0 Y34.0
M3 S0
G0 X16.0 Y34.0
M3 S1000
G1 X16.0 Y34.0
M3 S1000
G1 X31.0 Y34.0
M3 S0
G0 X33.0 Y34.0
M3 S1000
G1 X33.0 Y34.0
M3 S1000
G1 X35.0 Y34.0
M3 S0
G0 X36.0 Y34.0
M3 S1000
G1 X36.0 Y34.0
M3 S1000
G1 X45.0 Y34.0
M3 S0
G0 X64.0 Y34.0
M3 S1000
G1 X64.0 Y34.0
M3 S1000
G1 X72.0 Y34.0
M3 S0
G0 X73.0 Y34.0
M3 S1000
G1 X73.0 Y34.0
M3 S1000
G1 X74.0 Y34.0
M3 S0
M5 S0
G0 X87.0 Y35.0
M3 S1000
G1 X87.0 Y35.0
M3 S1000
G1 X86.0 Y35.0
M3 S0
G0 X74.0 Y35.0
M3 S1000
G1 X74.0 Y35.0
M3 S1000
G1 X72.0 Y35.0
M3 S0
G0 X71.0 Y35.0
M3 S1000
G1 X71.0 Y35.0
M3 S1000
G1 X63.0 Y35.0
M3 S0
G0 X44.0 Y35.0
M3 S1000
G1 X44.0 Y35.0
M3 S1000
G1 X35.0 Y35.0
M3 S0
G0 X34.0 Y35.0
M3 S1000
G1 X34.0 Y35.0
M3 S1000
G1 X33.0 Y35.0
M3 S0
G0 X32.0 Y35.0
M3 S1000
G1 X32.0 Y35.0
M3 S1000
G1 X25.0 Y35.0
M3 S0
G0 X23.0 Y35.0
M3 S1000
G1 X23.0 Y35.0
M3 S1000
G1 X10.0 Y35.0
M3 S0
G0 X4.0 Y35.0
M3 S1000
G1 X4.0 Y35.0
M3 S1000
M5 S0
G0 X0.0 Y36.0
M3 S1000
G1 X5.0 Y36.0
M3 S0
G0 X11.0 Y36.0
M3 S1000
G1 X11.0 Y36.0
M3 S1000
G1 X20.0 Y36.0
M3 S0
G0 X21.0 Y36.0
M3 S1000
G1 X21.0 Y36.0
M3 S1000
G1 X24.0 Y36.0
M3 S0
G0 X26.0 Y36.0
M3 S1000
G1 X26.0 Y36.0
M3 S1000
G1 X34.0 Y36.0
M3 S0
G0 X37.0 Y36.0
M3 S1000
G1 X37.0 Y36.0
M3 S1000
G1 X45.0 Y36.0
M3 S0
G0 X55.0 Y36.0
M3 S1000
G1 X55.0 Y36.0
M3 S1000
G1 X60.0 Y36.0
M3 S0
G0 X65.0 Y36.0
M3 S1000
G1 X65.0 Y36.0
M3 S1000
G1 X72.0 Y36.0
M3 S0
G0 X73.0 Y36.0
M3 S1000
G1 X73.0 Y36.0
M3 S1000
G1 X75.0 Y36.0
M3 S0
M5 S0
G0 X74.0 Y37.0
M3 S1000
G1 X74.0 Y37.0
M3 S1000
G1 X72.0 Y37.0
M3 S0
G0 X70.0 Y37.0
M3 S1000
G1 X70.0 Y37.0
M3 S1000
G1 X64.0 Y37.0
M3 S0
G0 X58.0 Y37.0
M3 S1000
G1 X58.0 Y37.0
M3 S1000
G1 X57.0 Y37.0
M3 S0
G0 X55.0 Y37.0
M3 S1000
G1 X55.0 Y37.0
M3 S1000
G1 X54.0 Y37.0
M3 S0
G0 X44.0 Y37.0
M3 S1000
G1 X44.0 Y37.0
M3 S1000
G1 X37.0 Y37.0
M3 S0
G0 X34.0 Y37.0
M3 S1000
G1 X34.0 Y37.0
M3 S1000
G1 X31.0 Y37.0
M3 S0
G0 X30.0 Y37.0
M3 S1000
G1 X30.0 Y37.0
M3 S1000
G1 X10.0 Y37.0
M3 S0
G0 X4.0 Y37.0
M3 S1000
G1 X4.0 Y37.0
M3 S1000
M5 S0
G0 X0.0 Y38.0
M3 S1000
G1 X5.0 Y38.0
M3 S0
G0 X11.0 Y38.0
M3 S1000
G1 X11.0 Y38.0
M3 S1000
G1 X15.0 Y38.0
M3 S0
G0 X16.0 Y38.0
M3 S1000
G1 X16.0 Y38.0
M3 S1000
G1 X21.0 Y38.0
M3 S0
G0 X22.0 Y38.0
M3 S1000
G1 X22.0 Y38.0
M3 S1000
G1 X23.0 Y38.0
M3 S0
G0 X24.0 Y38.0
M3 S1000
G1 X24.0 Y38.0
M3 S1000
G1 X36.0 Y38.0
M3 S0
G0 X38.0 Y38.0
M3 S1000
G1 X38.0 Y38.0
M3 S1000
G1 X45.0 Y38.0
M3 S0
G0 X55.0 Y38.0
M3 S1000
G1 X55.0 Y38.0
M3 S1000
G1 X56.0 Y38.0
M3 S0
G0 X57.0 Y38.0
M3 S1000
G1 X57.0 Y38.0
M3 S1000
G1 X59.0 Y38.0
M3 S0
G0 X65.0 Y38.0
M3 S1000
G1 X65.0 Y38.0
M3 S1000
G1 X71.0 Y38.0
M3 S0
G0 X73.0 Y38.0
M3 S1000
G1 X73.0 Y38.0
M3 S1000
G1 X75.0 Y38.0
M3 S0
G0 X88.0 Y38.0
M3 S1000
G1 X88.0 Y38.0
M3 S1000
G1 X89.0 Y38.0
M3 S0
M5 S0
G0 X75.0 Y39.0
M3 S1000
G1 X75.0 Y39.0
M3 S1000
G1 X72.0 Y39.0
M3 S0
G0 X70.0 Y39.0
M3 S1000
G1 X70.0 Y39.0
M3 S1000
G1 X64.0 Y39.0
M3 S0
G0 X58.0 Y39.0
M3 S1000
G1 X58.0 Y39.0
M3 S1000
G1 X56.0 Y39.0
M3 S0
G0 X45.0 Y39.0
M3 S1000
G1 X45.0 Y39.0
M3 S1000
G1 X38.0 Y39.0
M3 S0
G0 X35.0 Y39.0
M3 S1000
G1 X35.0 Y39.0
M3 S1000
G1 X32.0 Y39.0
M3 S0
G0 X31.0 Y39.0
M3 S1000
G1 X31.0 Y39.0
M3 S1000
G1 X29.0 Y39.0
M3 S0
G0 X28.0 Y39.0
M3 S1000
G1 X28.0 Y39.0
M3 S1000
G1 X24.0 Y39.0
M3 S0
G0 X23.0 Y39.0
M3 S1000
G1 X23.0 Y39.0
M3 S1000
G1 X14.0 Y39.0
M3 S0
G0 X13.0 Y39.0
M3 S1000
G1 X13.0 Y39.0
M3 S1000
G1 X10.0 Y39.0
M3 S0
G0 X4.0 Y39.0
M3 S1000
G1 X4.0 Y39.0
M3 S1000
M5 S0
G0 X0.0 Y40.0
M3 S1000
G1 X5.0 Y40.0
M3 S0
G0 X11.0 Y40.0
M3 S1000
G1 X11.0 Y40.0
M3 S1000
G1 X13.0 Y40.0
M3 S0
G0 X14.0 Y40.0
M3 S1000
G1 X14.0 Y40.0
M3 S1000
G1 X16.0 Y40.0
M3 S0
G0 X17.0 Y40.0
M3 S1000
G1 X17.0 Y40.0
M3 S1000
G1 X23.0 Y40.0
M3 S0
G0 X24.0 Y40.0
M3 S1000
G1 X24.0 Y40.0
M3 S1000
G1 X32.0 Y40.0
M3 S0
G0 X34.0 Y40.0
M3 S1000
G1 X34.0 Y40.0
M3 S1000
G1 X38.0 Y40.0
M3 S0
G0 X40.0 Y40.0
M3 S1000
G1 X40.0 Y40.0
M3 S1000
G1 X44.0 Y40.0
M3 S0
G0 X57.0 Y40.0
M3 S1000
G1 X57.0 Y40.0
M3 S1000
G1 X58.0 Y40.0
M3 S0
G0 X66.0 Y40.0
M3 S1000
G1 X66.0 Y40.0
M3 S1000
G1 X71.0 Y40.0
M3 S0
G0 X73.0 Y40.0
M3 S1000
G1 X73.0 Y40.0
M3 S1000
G1 X76.0 Y40.0
M3 S0
M5 S0
G0 X75.0 Y41.0
M3 S1000
G1 X75.0 Y41.0
M3 S1000
G1 X71.0 Y41.0
M3 S0
G0 X70.0 Y41.0
M3 S1000
G1 X70.0 Y41.0
M3 S1000
G1 X65.0 Y41.0
M3 S0
G0 X57.0 Y41.0
M3 S1000
G1 X57.0 Y41.0
M3 S1000
G1 X56.0 Y41.0
M3 S0
G0 X43.0 Y41.0
M3 S1000
G1 X43.0 Y41.0
M3 S1000
G1 X39.0 Y41.0
M3 S0
G0 X37.0 Y41.0
M3 S1000
G1 X37.0 Y41.0
M3 S1000
G1 X33.0 Y41.0
M3 S0
G0 X31.0 Y41.0
M3 S1000
G1 X31.0 Y41.0
M3 S1000
G1 X10.0 Y41.0
M3 S0
G0 X4.0 Y41.0
M3 S1000
G1 X4.0 Y41.0
M3 S1000
M5 S0
G0 X0.0 Y42.0
M3 S1000
G1 X5.0 Y42.0
M3 S0
G0 X11.0 Y42.0
M3 S1000
G1 X11.0 Y42.0
M3 S1000
G1 X14.0 Y42.0
M3 S0
G0 X17.0 Y42.0
M3 S1000
G1 X17.0 Y42.0
M3 S1000
G1 X24.0 Y42.0
M3 S0
G0 X25.0 Y42.0
M3 S1000
G1 X25.0 Y42.0
M3 S1000
G1 X32.0 Y42.0
M3 S0
G0 X33.0 Y42.0
M3 S1000
G1 X33.0 Y42.0
M3 S1000
G1 X39.0 Y42.0
M3 S0
G0 X41.0 Y42.0
M3 S1000
G1 X41.0 Y42.0
M3 S1000
G1 X44.0 Y42.0
M3 S0
G0 X58.0 Y42.0
M3 S1000
G1 X58.0 Y42.0
M3 S1000
G1 X59.0 Y42.0
M3 S0
G0 X65.0 Y42.0
M3 S1000
G1 X65.0 Y42.0
M3 S1000
G1 X71.0 Y42.0
M3 S0
G0 X72.0 Y42.0
M3 S1000
G1 X72.0 Y42.0
M3 S1000
G1 X77.0 Y42.0
M3 S0
M5 S0
G0 X76.0 Y43.0
M3 S1000
G1 X76.0 Y43.0
M3 S1000
G1 X71.0 Y43.0
M3 S0
G0 X70.0 Y43.0
M3 S1000
G1 X70.0 Y43.0
M3 S1000
G1 X64.0 Y43.0
M3 S0
G0 X44.0 Y43.0
M3 S1000
G1 X44.0 Y43.0
M3 S1000
G1 X41.0 Y43.0
M3 S0
G0 X38.0 Y43.0
M3 S1000
G1 X38.0 Y43.0
M3 S1000
G1 X31.0 Y43.0
M3 S0
G0 X30.0 Y43.0
M3 S1000
G1 X30.0 Y43.0
M3 S1000
G1 X23.0 Y43.0
M3 S0
G0 X22.0 Y43.0
M3 S1000
G1 X22.0 Y43.0
M3 S1000
G1 X19.0 Y43.0
M3 S0
G0 X17.0 Y43.0
M3 S1000
G1 X17.0 Y43.0
M3 S1000
G1 X10.0 Y43.0
M3 S0
G0 X4.0 Y43.0
M3 S1000
G1 X4.0 Y43.0
M3 S1000
M5 S0
G0 X0.0 Y44.0
M3 S1000
G1 X5.0 Y44.0
M3 S0
G0 X11.0 Y44.0
M3 S1000
G1 X11.0 Y44.0
M3 S1000
G1 X17.0 Y44.0
M3 S0
G0 X18.0 Y44.0
M3 S1000
G1 X18.0 Y44.0
M3 S1000
G1 X31.0 Y44.0
M3 S0
G0 X32.0 Y44.0
M3 S1000
G1 X32.0 Y44.0
M3 S1000
G1 X40.0 Y44.0
M3 S0
G0 X43.0 Y44.0
M3 S1000
G1 X43.0 Y44.0
M3 S1000
G1 X45.0 Y44.0
M3 S0
G0 X55.0 Y44.0
M3 S1000
G1 X55.0 Y44.0
M3 S1000
G1 X56.0 Y44.0
M3 S0
G0 X64.0 Y44.0
M3 S1000
G1 X64.0 Y44.0
M3 S1000
G1 X71.0 Y44.0
M3 S0
G0 X72.0 Y44.0
M3 S1000
G1 X72.0 Y44.0
M3 S1000
G1 X77.0 Y44.0
M3 S0
G0 X92.0 Y44.0
M3 S1000
G1 X92.0 Y44.0
M3 S1000
G1 X93.0 Y44.0
M3 S0
M5 S0
G0 X76.0 Y45.0
M3 S1000
G1 X76.0 Y45.0
M3 S1000
G1 X71.0 Y45.0
M3 S0
G0 X70.0 Y45.0
M3 S1000
G1 X70.0 Y45.0
M3 S1000
G1 X62.0 Y45.0
M3 S0
G0 X57.0 Y45.0
M3 S1000
G1 X57.0 Y45.0
M3 S1000
G1 X56.0 Y45.0
M3 S0
G0 X55.0 Y45.0
M3 S1000
G1 X55.0 Y45.0
M3 S1000
G1 X54.0 Y45.0
M3 S0
G0 X50.0 Y45.0
M3 S1000
G1 X50.0 Y45.0
M3 S1000
G1 X49.0 Y45.0
M3 S0
G0 X44.0 Y45.0
M3 S1000
G1 X44.0 Y45.0
M3 S1000
G1 X43.0 Y45.0
M3 S0
G0 X38.0 Y45.0
M3 S1000
G1 X38.0 Y45.0
M3 S1000
G1 X25.0 Y45.0
M3 S0
G0 X24.0 Y45.0
M3 S1000
G1 X24.0 Y45.0
M3 S1000
G1 X19.0 Y45.0
M3 S0
G0 X17.0 Y45.0
M3 S1000
G1 X17.0 Y45.0
M3 S1000
G1 X10.0 Y45.0
M3 S0
G0 X4.0 Y45.0
M3 S1000
G1 X4.0 Y45.0
M3 S1000
M5 S0
G0 X0.0 Y46.0
M3 S1000
G1 X5.0 Y46.0
M3 S0
G0 X11.0 Y46.0
M3 S1000
G1 X11.0 Y46.0
M3 S1000
G1 X20.0 Y46.0
M3 S0
G0 X22.0 Y46.0
M3 S1000
G1 X22.0 Y46.0
M3 S1000
G1 X31.0 Y46.0
M3 S0
G0 X32.0 Y46.0
M3 S1000
G1 X32.0 Y46.0
M3 S1000
G1 X41.0 Y46.0
M3 S0
G0 X45.0 Y46.0
M3 S1000
G1 X45.0 Y46.0
M3 S1000
G1 X47.0 Y46.0
M3 S0
G0 X48.0 Y46.0
M3 S1000
G1 X48.0 Y46.0
M3 S1000
G1 X50.0 Y46.0
M3 S0
G0 X56.0 Y46.0
M3 S1000
G1 X56.0 Y46.0
M3 S1000
G1 X57.0 Y46.0
M3 S0
G0 X61.0 Y46.0
M3 S1000
G1 X61.0 Y46.0
M3 S1000
G1 X62.0 Y46.0
M3 S0
G0 X65.0 Y46.0
M3 S1000
G1 X65.0 Y46.0
M3 S1000
G1 X71.0 Y46.0
M3 S0
G0 X72.0 Y46.0
M3 S1000
G1 X72.0 Y46.0
M3 S1000
G1 X78.0 Y46.0
M3 S0
M5 S0
G0 X77.0 Y47.0
M3 S1000
G1 X77.0 Y47.0
M3 S1000
G1 X71.0 Y47.0
M3 S0
G0 X70.0 Y47.0
M3 S1000
G1 X70.0 Y47.0
M3 S1000
G1 X64.0 Y47.0
M3 S0
G0 X63.0 Y47.0
M3 S1000
G1 X63.0 Y47.0
M3 S1000
G1 X60.0 Y47.0
M3 S0
G0 X56.0 Y47.0
M3 S1000
G1 X56.0 Y47.0
M3 S1000
G1 X53.0 Y47.0
M3 S0
G0 X51.0 Y47.0
M3 S1000
G1 X51.0 Y47.0
M3 S1000
G1 X45.0 Y47.0
M3 S0
G0 X40.0 Y47.0
M3 S1000
G1 X40.0 Y47.0
M3 S1000
G1 X22.0 Y47.0
M3 S0
G0 X20.0 Y47.0
M3 S1000
G1 X20.0 Y47.0
M3 S1000
G1 X10.0 Y47.0
M3 S0
G0 X4.0 Y47.0
M3 S1000
G1 X4.0 Y47.0
M3 S1000
M5 S0
G0 X0.0 Y48.0
M3 S1000
G1 X5.0 Y48.0
M3 S0
G0 X11.0 Y48.0
M3 S1000
G1 X11.0 Y48.0
M3 S1000
G1 X20.0 Y48.0
M3 S0
G0 X21.0 Y48.0
M3 S1000
G1 X21.0 Y48.0
M3 S1000
G1 X22.0 Y48.0
M3 S0
G0 X24.0 Y48.0
M3 S1000
G1 X24.0 Y48.0
M3 S1000
G1 X27.0 Y48.0
M3 S0
G0 X28.0 Y48.0
M3 S1000
G1 X28.0 Y48.0
M3 S1000
G1 X31.0 Y48.0
M3 S0
G0 X32.0 Y48.0
M3 S1000
G1 X32.0 Y48.0
M3 S1000
G1 X41.0 Y48.0
M3 S0
G0 X46.0 Y48.0
M3 S1000
G1 X46.0 Y48.0
M3 S1000
G1 X52.0 Y48.0
M3 S0
G0 X53.0 Y48.0
M3 S1000
G1 X53.0 Y48.0
M3 S1000
G1 X55.0 Y48.0
M3 S0
G0 X61.0 Y48.0
M3 S1000
G1 X61.0 Y48.0
M3 S1000
G1 X64.0 Y48.0
M3 S0
G0 X65.0 Y48.0
M3 S1000
G1 X65.0 Y48.0
M3 S1000
G1 X70.0 Y48.0
M3 S0
G0 X71.0 Y48.0
M3 S1000
G1 X71.0 Y48.0
M3 S1000
G1 X78.0 Y48.0
M3 S0
M5 S0
G0 X78.0 Y49.0
M3 S1000
G1 X78.0 Y49.0
M3 S1000
G1 X70.0 Y49.0
M3 S0
G0 X69.0 Y49.0
M3 S1000
G1 X69.0 Y49.0
M3 S1000
G1 X62.0 Y49.0
M3 S0
G0 X56.0 Y49.0
M3 S1000
G1 X56.0 Y49.0
M3 S1000
G1 X55.0 Y49.0
M3 S0
G0 X54.0 Y49.0
M3 S1000
G1 X54.0 Y49.0
M3 S1000
G1 X46.0 Y49.0
M3 S0
G0 X42.0 Y49.0
M3 S1000
G1 X42.0 Y49.0
M3 S1000
G1 X29.0 Y49.0
M3 S0
G0 X28.0 Y49.0
M3 S1000
G1 X28.0 Y49.0
M3 S1000
G1 X25.0 Y49.0
M3 S0
G0 X19.0 Y49.0
M3 S1000
G1 X19.0 Y49.0
M3 S1000
G1 X10.0 Y49.0
M3 S0
G0 X4.0 Y49.0
M3 S1000
G1 X4.0 Y49.0
M3 S1000
M5 S0
G0 X0.0 Y50.0
M3 S1000
G1 X5.0 Y50.0
M3 S0
G0 X11.0 Y50.0
M3 S1000
G1 X11.0 Y50.0
M3 S1000
G1 X22.0 Y50.0
M3 S0
G0 X25.0 Y50.0
M3 S1000
G1 X25.0 Y50.0
M3 S1000
G1 X42.0 Y50.0
M3 S0
G0 X49.0 Y50.0
M3 S1000
G1 X49.0 Y50.0
M3 S1000
G1 X50.0 Y50.0
M3 S0
G0 X51.0 Y50.0
M3 S1000
G1 X51.0 Y50.0
M3 S1000
G1 X52.0 Y50.0
M3 S0
G0 X53.0 Y50.0
M3 S1000
G1 X53.0 Y50.0
M3 S1000
G1 X57.0 Y50.0
M3 S0
G0 X63.0 Y50.0
M3 S1000
G1 X63.0 Y50.0
M3 S1000
G1 X70.0 Y50.0
M3 S0
G0 X71.0 Y50.0
M3 S1000
G1 X71.0 Y50.0
M3 S1000
G1 X79.0 Y50.0
M3 S0
M5 S0
G0 X78.0 Y51.0
M3 S1000
G1 X78.0 Y51.0
M3 S1000
G1 X70.0 Y51.0
M3 S0
G0 X69.0 Y51.0
M3 S1000
G1 X69.0 Y51.0
M3 S1000
G1 X65.0 Y51.0
M3 S0
G0 X54.0 Y51.0
M3 S1000
G1 X54.0 Y51.0
M3 S1000
G1 X51.0 Y51.0
M3 S0
G0 X43.0 Y51.0
M3 S1000
G1 X43.0 Y51.0
M3 S1000
G1 X27.0 Y51.0
M3 S0
G0 X26.0 Y51.0
M3 S1000
G1 X26.0 Y51.0
M3 S1000
G1 X23.0 Y51.0
M3 S0
G0 X22.0 Y51.0
M3 S1000
G1 X22.0 Y51.0
M3 S1000
G1 X10.0 Y51.0
M3 S0
G0 X4.0 Y51.0
M3 S1000
G1 X4.0 Y51.0
M3 S1000
M5 S0
G0 X0.0 Y52.0
M3 S1000
G1 X5.0 Y52.0
M3 S0
G0 X11.0 Y52.0
M3 S1000
G1 X11.0 Y52.0
M3 S1000
G1 X26.0 Y52.0
M3 S0
G0 X27.0 Y52.0
M3 S1000
G1 X27.0 Y52.0
M3 S1000
G1 X28.0 Y52.0
M3 S0
G0 X30.0 Y52.0
M3 S1000
G1 X30.0 Y52.0
M3 S1000
G1 X45.0 Y52.0
M3 S0
G0 X51.0 Y52.0
M3 S1000
G1 X51.0 Y52.0
M3 S1000
G1 X52.0 Y52.0
M3 S0
G0 X67.0 Y52.0
M3 S1000
G1 X67.0 Y52.0
M3 S1000
G1 X70.0 Y52.0
M3 S0
G0 X71.0 Y52.0
M3 S1000
G1 X71.0 Y52.0
M3 S1000
G1 X80.0 Y52.0
M3 S0
M5 S0
G0 X79.0 Y53.0
M3 S1000
G1 X79.0 Y53.0
M3 S1000
G1 X70.0 Y53.0
M3 S0
G0 X69.0 Y53.0
M3 S1000
G1 X69.0 Y53.0
M3 S1000
G1 X66.0 Y53.0
M3 S0
G0 X43.0 Y53.0
M3 S1000
G1 X43.0 Y53.0
M3 S1000
G1 X28.0 Y53.0
M3 S0
G0 X26.0 Y53.0
M3 S1000
G1 X26.0 Y53.0
M3 S1000
G1 X10.0 Y53.0
M3 S0
G0 X4.0 Y53.0
M3 S1000
G1 X4.0 Y53.0
M3 S1000
M5 S0
G0 X0.0 Y54.0
M3 S1000
G1 X5.0 Y54.0
M3 S0
G0 X11.0 Y54.0
M3 S1000
G1 X11.0 Y54.0
M3 S1000
G1 X25.0 Y54.0
M3 S0
G0 X26.0 Y54.0
M3 S1000
G1 X26.0 Y54.0
M3 S1000
G1 X29.0 Y54.0
M3 S0
G0 X30.0 Y54.0
M3 S1000
G1 X30.0 Y54.0
M3 S1000
G1 X45.0 Y54.0
M3 S0
G0 X66.0 Y54.0
M3 S1000
G1 X66.0 Y54.0
M3 S1000
G1 X70.0 Y54.0
M3 S0
G0 X71.0 Y54.0
M3 S1000
G1 X71.0 Y54.0
M3 S1000
G1 X80.0 Y54.0
M3 S0
M5 S0
G0 X80.0 Y55.0
M3 S1000
G1 X80.0 Y55.0
M3 S1000
G1 X70.0 Y55.0
M3 S0
G0 X69.0 Y55.0
M3 S1000
G1 X69.0 Y55.0
M3 S1000
G1 X65.0 Y55.0
M3 S0
G0 X45.0 Y55.0
M3 S1000
G1 X45.0 Y55.0
M3 S1000
G1 X43.0 Y55.0
M3 S0
G0 X42.0 Y55.0
M3 S1000
G1 X42.0 Y55.0
M3 S1000
G1 X30.0 Y55.0
M3 S0
G0 X28.0 Y55.0
M3 S1000
G1 X28.0 Y55.0
M3 S1000
G1 X25.0 Y55.0
M3 S0
G0 X24.0 Y55.0
M3 S1000
G1 X24.0 Y55.0
M3 S1000
G1 X20.0 Y55.0
M3 S0
G0 X19.0 Y55.0
M3 S1000
G1 X19.0 Y55.0
M3 S1000
G1 X10.0 Y55.0
M3 S0
G0 X4.0 Y55.0
M3 S1000
G1 X4.0 Y55.0
M3 S1000
M5 S0
G0 X0.0 Y56.0
M3 S1000
G1 X5.0 Y56.0
M3 S0
G0 X11.0 Y56.0
M3 S1000
G1 X11.0 Y56.0
M3 S1000
G1 X25.0 Y56.0
M3 S0
G0 X26.0 Y56.0
M3 S1000
G1 X26.0 Y56.0
M3 S1000
G1 X30.0 Y56.0
M3 S0
G0 X31.0 Y56.0
M3 S1000
G1 X31.0 Y56.0
M3 S1000
G1 X43.0 Y56.0
M3 S0
G0 X44.0 Y56.0
M3 S1000
G1 X44.0 Y56.0
M3 S1000
G1 X47.0 Y56.0
M3 S0
G0 X66.0 Y56.0
M3 S1000
G1 X66.0 Y56.0
M3 S1000
G1 X69.0 Y56.0
M3 S0
G0 X71.0 Y56.0
M3 S1000
G1 X71.0 Y56.0
M3 S1000
G1 X81.0 Y56.0
M3 S0
G0 X82.0 Y56.0
M3 S1000
G1 X82.0 Y56.0
M3 S1000
G1 X83.0 Y56.0
M3 S0
M5 S0
G0 X81.0 Y57.0
M3 S1000
G1 X81.0 Y57.0
M3 S1000
G1 X70.0 Y57.0
M3 S0
G0 X68.0 Y57.0
M3 S1000
G1 X68.0 Y57.0
M3 S1000
G1 X65.0 Y57.0
M3 S0
G0 X48.0 Y57.0
M3 S1000
G1 X48.0 Y57.0
M3 S1000
G1 X32.0 Y57.0
M3 S0
G0 X30.0 Y57.0
M3 S1000
G1 X30.0 Y57.0
M3 S1000
G1 X26.0 Y57.0
M3 S0
G0 X24.0 Y57.0
M3 S1000
G1 X24.0 Y57.0
M3 S1000
G1 X10.0 Y57.0
M3 S0
G0 X4.0 Y57.0
M3 S1000
G1 X4.0 Y57.0
M3 S1000
M5 S0
G0 X0.0 Y58.0
M3 S1000
G1 X5.0 Y58.0
M3 S0
G0 X11.0 Y58.0
M3 S1000
G1 X11.0 Y58.0
M3 S1000
G1 X24.0 Y58.0
M3 S0
G0 X27.0 Y58.0
M3 S1000
G1 X27.0 Y58.0
M3 S1000
G1 X30.0 Y58.0
M3 S0
G0 X31.0 Y58.0
M3 S1000
G1 X31.0 Y58.0
M3 S1000
G1 X32.0 Y58.0
M3 S0
G0 X33.0 Y58.0
M3 S1000
G1 X33.0 Y58.0
M3 S1000
G1 X51.0 Y58.0
M3 S0
G0 X65.0 Y58.0
M3 S1000
G1 X65.0 Y58.0
M3 S1000
G1 X69.0 Y58.0
M3 S0
G0 X71.0 Y58.0
M3 S1000
G1 X71.0 Y58.0
M3 S1000
G1 X82.0 Y58.0
M3 S0
G0 X83.0 Y58.0
M3 S1000
G1 X83.0 Y58.0
M3 S1000
G1 X84.0 Y58.0
M3 S0
M5 S0
G0 X82.0 Y59.0
M3 S1000
G1 X82.0 Y59.0
M3 S1000
G1 X71.0 Y59.0
M3 S0
G0 X69.0 Y59.0
M3 S1000
G1 X69.0 Y59.0
M3 S1000
G1 X68.0 Y59.0
M3 S0
G0 X67.0 Y59.0
M3 S1000
G1 X67.0 Y59.0
M3 S1000
G1 X66.0 Y59.0
M3 S0
G0 X65.0 Y59.0
M3 S1000
G1 X65.0 Y59.0
M3 S1000
G1 X64.0 Y59.0
M3 S0
G0 X51.0 Y59.0
M3 S1000
G1 X51.0 Y59.0
M3 S1000
G1 X50.0 Y59.0
M3 S0
G0 X49.0 Y59.0
M3 S1000
G1 X49.0 Y59.0
M3 S1000
G1 X33.0 Y59.0
M3 S0
G0 X31.0 Y59.0
M3 S1000
G1 X31.0 Y59.0
M3 S1000
G1 X26.0 Y59.0
M3 S0
G0 X23.0 Y59.0
M3 S1000
G1 X23.0 Y59.0
M3 S1000
G1 X10.0 Y59.0
M3 S0
G0 X4.0 Y59.0
M3 S1000
G1 X4.0 Y59.0
M3 S1000
M5 S0
G0 X0.0 Y60.0
M3 S1000
G1 X4.0 Y60.0
M3 S0
G0 X11.0 Y60.0
M3 S1000
G1 X11.0 Y60.0
M3 S1000
G1 X24.0 Y60.0
M3 S0
G0 X27.0 Y60.0
M3 S1000
G1 X27.0 Y60.0
M3 S1000
G1 X34.0 Y60.0
M3 S0
G0 X36.0 Y60.0
M3 S1000
G1 X36.0 Y60.0
M3 S1000
G1 X51.0 Y60.0
M3 S0
G0 X64.0 Y60.0
M3 S1000
G1 X64.0 Y60.0
M3 S1000
G1 X69.0 Y60.0
M3 S0
G0 X73.0 Y60.0
M3 S1000
G1 X73.0 Y60.0
M3 S1000
G1 X83.0 Y60.0
M3 S0
M5 S0
G0 X82.0 Y61.0
M3 S1000
G1 X82.0 Y61.0
M3 S1000
G1 X73.0 Y61.0
M3 S0
G0 X68.0 Y61.0
M3 S1000
G1 X68.0 Y61.0
M3 S1000
G1 X64.0 Y61.0
M3 S0
G0 X50.0 Y61.0
M3 S1000
G1 X50.0 Y61.0
M3 S1000
G1 X37.0 Y61.0
M3 S0
G0 X36.0 Y61.0
M3 S1000
G1 X36.0 Y61.0
M3 S1000
G1 X35.0 Y61.0
M3 S0
G0 X34.0 Y61.0
M3 S1000
G1 X34.0 Y61.0
M3 S1000
G1 X30.0 Y61.0
M3 S0
G0 X28.0 Y61.0
M3 S1000
G1 X28.0 Y61.0
M3 S1000
G1 X27.0 Y61.0
M3 S0
G0 X22.0 Y61.0
M3 S1000
G1 X22.0 Y61.0
M3 S1000
G1 X10.0 Y61.0
M3 S0
G0 X3.0 Y61.0
M3 S1000
G1 X3.0 Y61.0
M3 S1000
M5 S0
G0 X0.0 Y62.0
M3 S1000
G1 X4.0 Y62.0
M3 S0
G0 X11.0 Y62.0
M3 S1000
G1 X11.0 Y62.0
M3 S1000
G1 X23.0 Y62.0
M3 S0
G0 X26.0 Y62.0
M3 S1000
G1 X26.0 Y62.0
M3 S1000
G1 X27.0 Y62.0
M3 S0
G0 X28.0 Y62.0
M3 S1000
G1 X28.0 Y62.0
M3 S1000
G1 X30.0 Y62.0
M3 S0
G0 X32.0 Y62.0
M3 S1000
G1 X32.0 Y62.0
M3 S1000
G1 X34.0 Y62.0
M3 S0
G0 X35.0 Y62.0
M3 S1000
G1 X35.0 Y62.0
M3 S1000
G1 X36.0 Y62.0
M3 S0
G0 X38.0 Y62.0
M3 S1000
G1 X38.0 Y62.0
M3 S1000
G1 X39.0 Y62.0
M3 S0
G0 X40.0 Y62.0
M3 S1000
G1 X40.0 Y62.0
M3 S1000
G1 X53.0 Y62.0
M3 S0
G0 X67.0 Y62.0
M3 S1000
G1 X67.0 Y62.0
M3 S1000
G1 X71.0 Y62.0
M3 S0
G0 X75.0 Y62.0
M3 S1000
G1 X75.0 Y62.0
M3 S1000
G1 X84.0 Y62.0
M3 S0
M5 S0
G0 X83.0 Y63.0
M3 S1000
G1 X83.0 Y63.0
M3 S1000
G1 X75.0 Y63.0
M3 S0
G0 X73.0 Y63.0
M3 S1000
G1 X73.0 Y63.0
M3 S1000
G1 X68.0 Y63.0
M3 S0
G0 X55.0 Y63.0
M3 S1000
G1 X55.0 Y63.0
M3 S1000
G1 X54.0 Y63.0
M3 S0
G0 X53.0 Y63.0
M3 S1000
G1 X53.0 Y63.0
M3 S1000
G1 X40.0 Y63.0
M3 S0
G0 X39.0 Y63.0
M3 S1000
G1 X39.0 Y63.0
M3 S1000
G1 X38.0 Y63.0
M3 S0
G0 X36.0 Y63.0
M3 S1000
G1 X36.0 Y63.0
M3 S1000
G1 X35.0 Y63.0
M3 S0
G0 X33.0 Y63.0
M3 S1000
G1 X33.0 Y63.0
M3 S1000
G1 X32.0 Y63.0
M3 S0
G0 X30.0 Y63.0
M3 S1000
G1 X30.0 Y63.0
M3 S1000
G1 X28.0 Y63.0
M3 S0
G0 X26.0 Y63.0
M3 S1000
G1 X26.0 Y63.0
M3 S1000
G1 X25.0 Y63.0
M3 S0
G0 X21.0 Y63.0
M3 S1000
G1 X21.0 Y63.0
M3 S1000
G1 X10.0 Y63.0
M3 S0
G0 X3.0 Y63.0
M3 S1000
G1 X3.0 Y63.0
M3 S1000
M5 S0
G0 X0.0 Y64.0
M3 S1000
G1 X4.0 Y64.0
M3 S0
G0 X11.0 Y64.0
M3 S1000
G1 X11.0 Y64.0
M3 S1000
G1 X22.0 Y64.0
M3 S0
G0 X26.0 Y64.0
M3 S1000
G1 X26.0 Y64.0
M3 S1000
G1 X31.0 Y64.0
M3 S0
G0 X37.0 Y64.0
M3 S1000
G1 X37.0 Y64.0
M3 S1000
G1 X38.0 Y64.0
M3 S0
G0 X42.0 Y64.0
M3 S1000
G1 X42.0 Y64.0
M3 S1000
G1 X56.0 Y64.0
M3 S0
G0 X71.0 Y64.0
M3 S1000
G1 X71.0 Y64.0
M3 S1000
G1 X75.0 Y64.0
M3 S0
G0 X78.0 Y64.0
M3 S1000
G1 X78.0 Y64.0
M3 S1000
G1 X85.0 Y64.0
M3 S0
M5 S0
G0 X84.0 Y65.0
M3 S1000
G1 X84.0 Y65.0
M3 S1000
G1 X77.0 Y65.0
M3 S0
G0 X75.0 Y65.0
M3 S1000
G1 X75.0 Y65.0
M3 S1000
G1 X73.0 Y65.0
M3 S0
G0 X55.0 Y65.0
M3 S1000
G1 X55.0 Y65.0
M3 S1000
G1 X51.0 Y65.0
M3 S0
G0 X50.0 Y65.0
M3 S1000
G1 X50.0 Y65.0
M3 S1000
G1 X47.0 Y65.0
M3 S0
G0 X45.0 Y65.0
M3 S1000
G1 X45.0 Y65.0
M3 S1000
G1 X42.0 Y65.0
M3 S0
G0 X35.0 Y65.0
M3 S1000
G1 X35.0 Y65.0
M3 S1000
G1 X34.0 Y65.0
M3 S0
G0 X31.0 Y65.0
M3 S1000
G1 X31.0 Y65.0
M3 S1000
G1 X30.0 Y65.0
M3 S0
G0 X29.0 Y65.0
M3 S1000
G1 X29.0 Y65.0
M3 S1000
G1 X27.0 Y65.0
M3 S0
G0 X21.0 Y65.0
M3 S1000
G1 X21.0 Y65.0
M3 S1000
G1 X10.0 Y65.0
M3 S0
G0 X3.0 Y65.0
M3 S1000
G1 X3.0 Y65.0
M3 S1000
M5 S0
G0 X0.0 Y66.0
M3 S1000
G1 X4.0 Y66.0
M3 S0
G0 X11.0 Y66.0
M3 S1000
G1 X11.0 Y66.0
M3 S1000
G1 X22.0 Y66.0
M3 S0
G0 X28.0 Y66.0
M3 S1000
G1 X28.0 Y66.0
M3 S1000
G1 X29.0 Y66.0
M3 S0
G0 X36.0 Y66.0
M3 S1000
G1 X36.0 Y66.0
M3 S1000
G1 X37.0 Y66.0
M3 S0
G0 X42.0 Y66.0
M3 S1000
G1 X42.0 Y66.0
M3 S1000
G1 X44.0 Y66.0
M3 S0
G0 X47.0 Y66.0
M3 S1000
G1 X47.0 Y66.0
M3 S1000
G1 X48.0 Y66.0
M3 S0
G0 X75.0 Y66.0
M3 S1000
G1 X75.0 Y66.0
M3 S1000
G1 X77.0 Y66.0
M3 S0
G0 X78.0 Y66.0
M3 S1000
G1 X78.0 Y66.0
M3 S1000
G1 X86.0 Y66.0
M3 S0
M5 S0
G0 X85.0 Y67.0
M3 S1000
G1 X85.0 Y67.0
M3 S1000
G1 X78.0 Y67.0
M3 S0
G0 X37.0 Y67.0
M3 S1000
G1 X37.0 Y67.0
M3 S1000
G1 X36.0 Y67.0
M3 S0
G0 X33.0 Y67.0
M3 S1000
G1 X33.0 Y67.0
M3 S1000
G1 X32.0 Y67.0
M3 S0
G0 X29.0 Y67.0
M3 S1000
G1 X29.0 Y67.0
M3 S1000
G1 X26.0 Y67.0
M3 S0
G0 X21.0 Y67.0
M3 S1000
G1 X21.0 Y67.0
M3 S1000
G1 X10.0 Y67.0
M3 S0
G0 X3.0 Y67.0
M3 S1000
G1 X3.0 Y67.0
M3 S1000
M5 S0
G0 X0.0 Y68.0
M3 S1000
G1 X4.0 Y68.0
M3 S0
G0 X11.0 Y68.0
M3 S1000
G1 X11.0 Y68.0
M3 S1000
G1 X22.0 Y68.0
M3 S0
G0 X27.0 Y68.0
M3 S1000
G1 X27.0 Y68.0
M3 S1000
G1 X31.0 Y68.0
M3 S0
G0 X34.0 Y68.0
M3 S1000
G1 X34.0 Y68.0
M3 S1000
G1 X35.0 Y68.0
M3 S0
G0 X79.0 Y68.0
M3 S1000
G1 X79.0 Y68.0
M3 S1000
G1 X86.0 Y68.0
M3 S0
M5 S0
G0 X86.0 Y69.0
M3 S1000
G1 X86.0 Y69.0
M3 S1000
G1 X79.0 Y69.0
M3 S0
G0 X35.0 Y69.0
M3 S1000
G1 X35.0 Y69.0
M3 S1000
G1 X34.0 Y69.0
M3 S0
G0 X31.0 Y69.0
M3 S1000
G1 X31.0 Y69.0
M3 S1000
G1 X25.0 Y69.0
M3 S0
G0 X21.0 Y69.0
M3 S1000
G1 X21.0 Y69.0
M3 S1000
G1 X10.0 Y69.0
M3 S0
G0 X4.0 Y69.0
M3 S1000
G1 X4.0 Y69.0
M3 S1000
M5 S0
G0 X0.0 Y70.0
M3 S1000
G1 X5.0 Y70.0
M3 S0
G0 X11.0 Y70.0
M3 S1000
G1 X11.0 Y70.0
M3 S1000
G1 X22.0 Y70.0
M3 S0
G0 X26.0 Y70.0
M3 S1000
G1 X26.0 Y70.0
M3 S1000
G1 X33.0 Y70.0
M3 S0
G0 X80.0 Y70.0
M3 S1000
G1 X80.0 Y70.0
M3 S1000
G1 X88.0 Y70.0
M3 S0
M5 S0
G0 X87.0 Y71.0
M3 S1000
G1 X87.0 Y71.0
M3 S1000
G1 X79.0 Y71.0
M3 S0
G0 X37.0 Y71.0
M3 S1000
G1 X37.0 Y71.0
M3 S1000
G1 X36.0 Y71.0
M3 S0
G0 X33.0 Y71.0
M3 S1000
G1 X33.0 Y71.0
M3 S1000
G1 X32.0 Y71.0
M3 S0
G0 X31.0 Y71.0
M3 S1000
G1 X31.0 Y71.0
M3 S1000
G1 X30.0 Y71.0
M3 S0
G0 X29.0 Y71.0
M3 S1000
G1 X29.0 Y71.0
M3 S1000
G1 X24.0 Y71.0
M3 S0
G0 X21.0 Y71.0
M3 S1000
G1 X21.0 Y71.0
M3 S1000
G1 X10.0 Y71.0
M3 S0
G0 X4.0 Y71.0
M3 S1000
G1 X4.0 Y71.0
M3 S1000
M5 S0
G0 X0.0 Y72.0
M3 S1000
G1 X4.0 Y72.0
M3 S0
G0 X11.0 Y72.0
M3 S1000
G1 X11.0 Y72.0
M3 S1000
G1 X23.0 Y72.0
M3 S0
G0 X24.0 Y72.0
M3 S1000
G1 X24.0 Y72.0
M3 S1000
G1 X35.0 Y72.0
M3 S0
G0 X80.0 Y72.0
M3 S1000
G1 X80.0 Y72.0
M3 S1000
G1 X89.0 Y72.0
M3 S0
M5 S0
G0 X89.0 Y73.0
M3 S1000
G1 X89.0 Y73.0
M3 S1000
G1 X80.0 Y73.0
M3 S0
G0 X69.0 Y73.0
M3 S1000
G1 X69.0 Y73.0
M3 S1000
G1 X68.0 Y73.0
M3 S0
G0 X35.0 Y73.0
M3 S1000
G1 X35.0 Y73.0
M3 S1000
G1 X31.0 Y73.0
M3 S0
G0 X30.0 Y73.0
M3 S1000
G1 X30.0 Y73.0
M3 S1000
G1 X23.0 Y73.0
M3 S0
G0 X22.0 Y73.0
M3 S1000
G1 X22.0 Y73.0
M3 S1000
G1 X10.0 Y73.0
M3 S0
G0 X4.0 Y73.0
M3 S1000
G1 X4.0 Y73.0
M3 S1000
M5 S0
G0 X0.0 Y74.0
M3 S1000
G1 X5.0 Y74.0
M3 S0
G0 X11.0 Y74.0
M3 S1000
G1 X11.0 Y74.0
M3 S1000
G1 X23.0 Y74.0
M3 S0
G0 X25.0 Y74.0
M3 S1000
G1 X25.0 Y74.0
M3 S1000
G1 X33.0 Y74.0
M3 S0
G0 X36.0 Y74.0
M3 S1000
G1 X36.0 Y74.0
M3 S1000
G1 X37.0 Y74.0
M3 S0
G0 X70.0 Y74.0
M3 S1000
G1 X70.0 Y74.0
M3 S1000
G1 X71.0 Y74.0
M3 S0
G0 X81.0 Y74.0
M3 S1000
G1 X81.0 Y74.0
M3 S1000
G1 X90.0 Y74.0
M3 S0
M5 S0
G0 X90.0 Y75.0
M3 S1000
G1 X90.0 Y75.0
M3 S1000
G1 X80.0 Y75.0
M3 S0
G0 X72.0 Y75.0
M3 S1000
G1 X72.0 Y75.0
M3 S1000
G1 X69.0 Y75.0
M3 S0
G0 X64.0 Y75.0
M3 S1000
G1 X64.0 Y75.0
M3 S1000
G1 X63.0 Y75.0
M3 S0
G0 X37.0 Y75.0
M3 S1000
G1 X37.0 Y75.0
M3 S1000
G1 X34.0 Y75.0
M3 S0
G0 X33.0 Y75.0
M3 S1000
G1 X33.0 Y75.0
M3 S1000
G1 X31.0 Y75.0
M3 S0
G0 X29.0 Y75.0
M3 S1000
G1 X29.0 Y75.0
M3 S1000
G1 X24.0 Y75.0
M3 S0
G0 X22.0 Y75.0
M3 S1000
G1 X22.0 Y75.0
M3 S1000
G1 X10.0 Y75.0
M3 S0
G0 X4.0 Y75.0
M3 S1000
G1 X4.0 Y75.0
M3 S1000
M5 S0
G0 X0.0 Y76.0
M3 S1000
G1 X5.0 Y76.0
M3 S0
G0 X11.0 Y76.0
M3 S1000
G1 X11.0 Y76.0
M3 S1000
G1 X23.0 Y76.0
M3 S0
G0 X25.0 Y76.0
M3 S1000
G1 X25.0 Y76.0
M3 S1000
G1 X33.0 Y76.0
M3 S0
G0 X38.0 Y76.0
M3 S1000
G1 X38.0 Y76.0
M3 S1000
G1 X39.0 Y76.0
M3 S0
G0 X63.0 Y76.0
M3 S1000
G1 X63.0 Y76.0
M3 S1000
G1 X65.0 Y76.0
M3 S0
G0 X70.0 Y76.0
M3 S1000
G1 X70.0 Y76.0
M3 S1000
G1 X74.0 Y76.0
M3 S0
G0 X80.0 Y76.0
M3 S1000
G1 X80.0 Y76.0
M3 S1000
G1 X91.0 Y76.0
M3 S0
M5 S0
G0 X91.0 Y77.0
M3 S1000
G1 X91.0 Y77.0
M3 S1000
G1 X79.0 Y77.0
M3 S0
G0 X74.0 Y77.0
M3 S1000
G1 X74.0 Y77.0
M3 S1000
G1 X69.0 Y77.0
M3 S0
G0 X64.0 Y77.0
M3 S1000
G1 X64.0 Y77.0
M3 S1000
G1 X62.0 Y77.0
M3 S0
G0 X39.0 Y77.0
M3 S1000
G1 X39.0 Y77.0
M3 S1000
G1 X37.0 Y77.0
M3 S0
G0 X30.0 Y77.0
M3 S1000
G1 X30.0 Y77.0
M3 S1000
G1 X24.0 Y77.0
M3 S0
G0 X23.0 Y77.0
M3 S1000
G1 X23.0 Y77.0
M3 S1000
G1 X10.0 Y77.0
M3 S0
G0 X4.0 Y77.0
M3 S1000
G1 X4.0 Y77.0
M3 S1000
M5 S0
G0 X0.0 Y78.0
M3 S1000
G1 X4.0 Y78.0
M3 S0
G0 X11.0 Y78.0
M3 S1000
G1 X11.0 Y78.0
M3 S1000
G1 X24.0 Y78.0
M3 S0
G0 X25.0 Y78.0
M3 S1000
G1 X25.0 Y78.0
M3 S1000
G1 X34.0 Y78.0
M3 S0
G0 X40.0 Y78.0
M3 S1000
G1 X40.0 Y78.0
M3 S1000
G1 X42.0 Y78.0
M3 S0
G0 X62.0 Y78.0
M3 S1000
G1 X62.0 Y78.0
M3 S1000
G1 X65.0 Y78.0
M3 S0
G0 X70.0 Y78.0
M3 S1000
G1 X70.0 Y78.0
M3 S1000
G1 X77.0 Y78.0
M3 S0
G0 X80.0 Y78.0
M3 S1000
G1 X80.0 Y78.0
M3 S1000
G1 X93.0 Y78.0
M3 S0
M5 S0
G0 X93.0 Y79.0
M3 S1000
G1 X93.0 Y79.0
M3 S1000
G1 X80.0 Y79.0
M3 S0
G0 X74.0 Y79.0
M3 S1000
G1 X74.0 Y79.0
M3 S1000
G1 X69.0 Y79.0
M3 S0
G0 X64.0 Y79.0
M3 S1000
G1 X64.0 Y79.0
M3 S1000
G1 X60.0 Y79.0
M3 S0
G0 X42.0 Y79.0
M3 S1000
G1 X42.0 Y79.0
M3 S1000
G1 X41.0 Y79.0
M3 S0
G0 X34.0 Y79.0
M3 S1000
G1 X34.0 Y79.0
M3 S1000
G1 X10.0 Y79.0
M3 S0
G0 X4.0 Y79.0
M3 S1000
G1 X4.0 Y79.0
M3 S1000
M5 S0
G0 X0.0 Y80.0
M3 S1000
G1 X5.0 Y80.0
M3 S0
G0 X11.0 Y80.0
M3 S1000
G1 X11.0 Y80.0
M3 S1000
G1 X25.0 Y80.0
M3 S0
G0 X26.0 Y80.0
M3 S1000
G1 X26.0 Y80.0
M3 S1000
G1 X34.0 Y80.0
M3 S0
G0 X61.0 Y80.0
M3 S1000
G1 X61.0 Y80.0
M3 S1000
G1 X65.0 Y80.0
M3 S0
G0 X70.0 Y80.0
M3 S1000
G1 X70.0 Y80.0
M3 S1000
G1 X75.0 Y80.0
M3 S0
G0 X82.0 Y80.0
M3 S1000
G1 X82.0 Y80.0
M3 S1000
G1 X95.0 Y80.0
M3 S0
M5 S0
G0 X94.0 Y81.0
M3 S1000
G1 X94.0 Y81.0
M3 S1000
G1 X82.0 Y81.0
M3 S0
G0 X73.0 Y81.0
M3 S1000
G1 X73.0 Y81.0
M3 S1000
G1 X69.0 Y81.0
M3 S0
G0 X63.0 Y81.0
M3 S1000
G1 X63.0 Y81.0
M3 S1000
G1 X58.0 Y81.0
M3 S0
G0 X35.0 Y81.0
M3 S1000
G1 X35.0 Y81.0
M3 S1000
G1 X10.0 Y81.0
M3 S0
G0 X4.0 Y81.0
M3 S1000
G1 X4.0 Y81.0
M3 S1000
M5 S0
G0 X0.0 Y82.0
M3 S1000
G1 X0.0 Y82.0
M3 S1000
G1 X4.0 Y82.0
M3 S0
G0 X11.0 Y82.0
M3 S1000
G1 X11.0 Y82.0
M3 S1000
G1 X35.0 Y82.0
M3 S0
G0 X36.0 Y82.0
M3 S1000
G1 X36.0 Y82.0
M3 S1000
G1 X37.0 Y82.0
M3 S0
G0 X38.0 Y82.0
M3 S1000
G1 X38.0 Y82.0
M3 S1000
G1 X39.0 Y82.0
M3 S0
G0 X59.0 Y82.0
M3 S1000
G1 X59.0 Y82.0
M3 S1000
G1 X65.0 Y82.0
M3 S0
G0 X70.0 Y82.0
M3 S1000
G1 X70.0 Y82.0
M3 S1000
G1 X73.0 Y82.0
M3 S0
G0 X83.0 Y82.0
M3 S1000
G1 X83.0 Y82.0
M3 S1000
G1 X96.0 Y82.0
M3 S0
M5 S0
G0 X96.0 Y83.0
M3 S1000
G1 X96.0 Y83.0
M3 S1000
G1 X83.0 Y83.0
M3 S0
G0 X72.0 Y83.0
M3 S1000
G1 X72.0 Y83.0
M3 S1000
G1 X69.0 Y83.0
M3 S0
G0 X63.0 Y83.0
M3 S1000
G1 X63.0 Y83.0
M3 S1000
G1 X57.0 Y83.0
M3 S0
G0 X39.0 Y83.0
M3 S1000
G1 X39.0 Y83.0
M3 S1000
G1 X38.0 Y83.0
M3 S0
G0 X35.0 Y83.0
M3 S1000
G1 X35.0 Y83.0
M3 S1000
G1 X27.0 Y83.0
M3 S0
G0 X26.0 Y83.0
M3 S1000
G1 X26.0 Y83.0
M3 S1000
G1 X10.0 Y83.0
M3 S0
G0 X4.0 Y83.0
M3 S1000
G1 X4.0 Y83.0
M3 S1000
M5 S0
G0 X1.0 Y84.0
M3 S1000
G1 X1.0 Y84.0
M3 S1000
G1 X5.0 Y84.0
M3 S0
G0 X11.0 Y84.0
M3 S1000
G1 X11.0 Y84.0
M3 S1000
G1 X28.0 Y84.0
M3 S0
G0 X29.0 Y84.0
M3 S1000
G1 X29.0 Y84.0
M3 S1000
G1 X35.0 Y84.0
M3 S0
G0 X57.0 Y84.0
M3 S1000
G1 X57.0 Y84.0
M3 S1000
G1 X64.0 Y84.0
M3 S0
G0 X70.0 Y84.0
M3 S1000
G1 X70.0 Y84.0
M3 S1000
G1 X72.0 Y84.0
M3 S0
G0 X85.0 Y84.0
M3 S1000
G1 X85.0 Y84.0
M3 S1000
M5 S0
G0 X99.0 Y85.0
M3 S1000
G1 X84.0 Y85.0
M3 S0
G0 X63.0 Y85.0
M3 S1000
G1 X63.0 Y85.0
M3 S1000
G1 X55.0 Y85.0
M3 S0
G0 X39.0 Y85.0
M3 S1000
G1 X39.0 Y85.0
M3 S1000
G1 X38.0 Y85.0
M3 S0
G0 X34.0 Y85.0
M3 S1000
G1 X34.0 Y85.0
M3 S1000
G1 X33.0 Y85.0
M3 S0
G0 X32.0 Y85.0
M3 S1000
G1 X32.0 Y85.0
M3 S1000
G1 X28.0 Y85.0
M3 S0
G0 X27.0 Y85.0
M3 S1000
G1 X27.0 Y85.0
M3 S1000
G1 X10.0 Y85.0
M3 S0
G0 X4.0 Y85.0
M3 S1000
G1 X4.0 Y85.0
M3 S1000
G1 X1.0 Y85.0
M3 S0
M5 S0
G0 X2.0 Y86.0
M3 S1000
G1 X2.0 Y86.0
M3 S1000
G1 X4.0 Y86.0
M3 S0
G0 X11.0 Y86.0
M3 S1000
G1 X11.0 Y86.0
M3 S1000
G1 X29.0 Y86.0
M3 S0
G0 X30.0 Y86.0
M3 S1000
G1 X30.0 Y86.0
M3 S1000
G1 X38.0 Y86.0
M3 S0
G0 X55.0 Y86.0
M3 S1000
G1 X55.0 Y86.0
M3 S1000
G1 X64.0 Y86.0
M3 S0
G0 X86.0 Y86.0
M3 S1000
G1 X86.0 Y86.0
M3 S1000
M5 S0
G0 X99.0 Y87.0
M3 S1000
G1 X86.0 Y87.0
M3 S0
G0 X63.0 Y87.0
M3 S1000
G1 X63.0 Y87.0
M3 S1000
G1 X52.0 Y87.0
M3 S0
G0 X35.0 Y87.0
M3 S1000
G1 X35.0 Y87.0
M3 S1000
G1 X10.0 Y87.0
M3 S0
G0 X3.0 Y87.0
M3 S1000
G1 X3.0 Y87.0
M3 S1000
G1 X2.0 Y87.0
M3 S0
M5 S0
G0 X3.0 Y88.0
M3 S1000
G1 X3.0 Y88.0
M3 S1000
G1 X5.0 Y88.0
M3 S0
G0 X11.0 Y88.0
M3 S1000
G1 X11.0 Y88.0
M3 S1000
G1 X27.0 Y88.0
M3 S0
G0 X29.0 Y88.0
M3 S1000
G1 X29.0 Y88.0
M3 S1000
G1 X32.0 Y88.0
M3 S0
G0 X34.0 Y88.0
M3 S1000
G1 X34.0 Y88.0
M3 S1000
G1 X35.0 Y88.0
M3 S0
G0 X52.0 Y88.0
M3 S1000
G1 X52.0 Y88.0
M3 S1000
G1 X54.0 Y88.0
M3 S0
G0 X55.0 Y88.0
M3 S1000
G1 X55.0 Y88.0
M3 S1000
G1 X65.0 Y88.0
M3 S0
G0 X88.0 Y88.0
M3 S1000
G1 X88.0 Y88.0
M3 S1000
M5 S0
G0 X99.0 Y89.0
M3 S1000
G1 X86.0 Y89.0
M3 S0
G0 X63.0 Y89.0
M3 S1000
G1 X63.0 Y89.0
M3 S1000
G1 X56.0 Y89.0
M3 S0
G0 X55.0 Y89.0
M3 S1000
G1 X55.0 Y89.0
M3 S1000
G1 X54.0 Y89.0
M3 S0
G0 X53.0 Y89.0
M3 S1000
G1 X53.0 Y89.0
M3 S1000
G1 X49.0 Y89.0
M3 S0
G0 X35.0 Y89.0
M3 S1000
G1 X35.0 Y89.0
M3 S1000
G1 X33.0 Y89.0
M3 S0
G0 X31.0 Y89.0
M3 S1000
G1 X31.0 Y89.0
M3 S1000
G1 X30.0 Y89.0
M3 S0
G0 X25.0 Y89.0
M3 S1000
G1 X25.0 Y89.0
M3 S1000
G1 X24.0 Y89.0
M3 S0
G0 X23.0 Y89.0
M3 S1000
G1 X23.0 Y89.0
M3 S1000
G1 X10.0 Y89.0
M3 S0
M5 S0
G0 X11.0 Y90.0
M3 S1000
G1 X11.0 Y90.0
M3 S1000
G1 X23.0 Y90.0
M3 S0
G0 X24.0 Y90.0
M3 S1000
G1 X24.0 Y90.0
M3 S1000
G1 X30.0 Y90.0
M3 S0
G0 X31.0 Y90.0
M3 S1000
G1 X31.0 Y90.0
M3 S1000
G1 X32.0 Y90.0
M3 S0
G0 X36.0 Y90.0
M3 S1000
G1 X36.0 Y90.0
M3 S1000
G1 X37.0 Y90.0
M3 S0
G0 X38.0 Y90.0
M3 S1000
G1 X38.0 Y90.0
M3 S1000
G1 X39.0 Y90.0
M3 S0
G0 X47.0 Y90.0
M3 S1000
G1 X47.0 Y90.0
M3 S1000
G1 X51.0 Y90.0
M3 S0
G0 X56.0 Y90.0
M3 S1000
G1 X56.0 Y90.0
M3 S1000
G1 X57.0 Y90.0
M3 S0
G0 X59.0 Y90.0
M3 S1000
G1 X59.0 Y90.0
M3 S1000
G1 X65.0 Y90.0
M3 S0
G0 X87.0 Y90.0
M3 S1000
G1 X87.0 Y90.0
M3 S1000
M5 S0
G0 X99.0 Y91.0
M3 S1000
G1 X85.0 Y91.0
M3 S0
G0 X64.0 Y91.0
M3 S1000
G1 X64.0 Y91.0
M3 S1000
G1 X55.0 Y91.0
M3 S0
G0 X50.0 Y91.0
M3 S1000
G1 X50.0 Y91.0
M3 S1000
G1 X49.0 Y91.0
M3 S0
G0 X47.0 Y91.0
M3 S1000
G1 X47.0 Y91.0
M3 S1000
G1 X39.0 Y91.0
M3 S0
G0 X35.0 Y91.0
M3 S1000
G1 X35.0 Y91.0
M3 S1000
G1 X34.0 Y91.0
M3 S0
G0 X33.0 Y91.0
M3 S1000
G1 X33.0 Y91.0
M3 S1000
G1 X32.0 Y91.0
M3 S0
G0 X31.0 Y91.0
M3 S1000
G1 X31.0 Y91.0
M3 S1000
G1 X30.0 Y91.0
M3 S0
G0 X27.0 Y91.0
M3 S1000
G1 X27.0 Y91.0
M3 S1000
G1 X26.0 Y91.0
M3 S0
G0 X25.0 Y91.0
M3 S1000
G1 X25.0 Y91.0
M3 S1000
G1 X10.0 Y91.0
M3 S0
M5 S0
G0 X11.0 Y92.0
M3 S1000
G1 X11.0 Y92.0
M3 S1000
G1 X31.0 Y92.0
M3 S0
G0 X32.0 Y92.0
M3 S1000
G1 X32.0 Y92.0
M3 S1000
G1 X33.0 Y92.0
M3 S0
G0 X35.0 Y92.0
M3 S1000
G1 X35.0 Y92.0
M3 S1000
G1 X36.0 Y92.0
M3 S0
G0 X37.0 Y92.0
M3 S1000
G1 X37.0 Y92.0
M3 S1000
G1 X49.0 Y92.0
M3 S0
G0 X53.0 Y92.0
M3 S1000
G1 X53.0 Y92.0
M3 S1000
G1 X58.0 Y92.0
M3 S0
G0 X59.0 Y92.0
M3 S1000
G1 X59.0 Y92.0
M3 S1000
G1 X64.0 Y92.0
M3 S0
G0 X86.0 Y92.0
M3 S1000
G1 X86.0 Y92.0
M3 S1000
G1 X90.0 Y92.0
M3 S0
G0 X91.0 Y92.0
M3 S1000
G1 X91.0 Y92.0
M3 S1000
M5 S0
G0 X99.0 Y93.0
M3 S1000
G1 X91.0 Y93.0
M3 S0
G0 X90.0 Y93.0
M3 S1000
G1 X90.0 Y93.0
M3 S1000
G1 X84.0 Y93.0
M3 S0
G0 X63.0 Y93.0
M3 S1000
G1 X63.0 Y93.0
M3 S1000
G1 X55.0 Y93.0
M3 S0
G0 X54.0 Y93.0
M3 S1000
G1 X54.0 Y93.0
M3 S1000
G1 X52.0 Y93.0
M3 S0
G0 X48.0 Y93.0
M3 S1000
G1 X48.0 Y93.0
M3 S1000
G1 X47.0 Y93.0
M3 S0
G0 X45.0 Y93.0
M3 S1000
G1 X45.0 Y93.0
M3 S1000
G1 X37.0 Y93.0
M3 S0
G0 X35.0 Y93.0
M3 S1000
G1 X35.0 Y93.0
M3 S1000
G1 X34.0 Y93.0
M3 S0
G0 X27.0 Y93.0
M3 S1000
G1 X27.0 Y93.0
M3 S1000
G1 X26.0 Y93.0
M3 S0
G0 X23.0 Y93.0
M3 S1000
G1 X23.0 Y93.0
M3 S1000
G1 X10.0 Y93.0
M3 S0
M5 S0
G0 X11.0 Y94.0
M3 S1000
G1 X11.0 Y94.0
M3 S1000
G1 X26.0 Y94.0
M3 S0
G0 X27.0 Y94.0
M3 S1000
G1 X27.0 Y94.0
M3 S1000
G1 X28.0 Y94.0
M3 S0
G0 X29.0 Y94.0
M3 S1000
G1 X29.0 Y94.0
M3 S1000
G1 X30.0 Y94.0
M3 S0
G0 X38.0 Y94.0
M3 S1000
G1 X38.0 Y94.0
M3 S1000
G1 X42.0 Y94.0
M3 S0
G0 X43.0 Y94.0
M3 S1000
G1 X43.0 Y94.0
M3 S1000
G1 X45.0 Y94.0
M3 S0
G0 X47.0 Y94.0
M3 S1000
G1 X47.0 Y94.0
M3 S1000
G1 X48.0 Y94.0
M3 S0
G0 X53.0 Y94.0
M3 S1000
G1 X53.0 Y94.0
M3 S1000
G1 X57.0 Y94.0
M3 S0
G0 X58.0 Y94.0
M3 S1000
G1 X58.0 Y94.0
M3 S1000
G1 X64.0 Y94.0
M3 S0
G0 X84.0 Y94.0
M3 S1000
G1 X84.0 Y94.0
M3 S1000
G1 X92.0 Y94.0
M3 S0
G0 X93.0 Y94.0
M3 S1000
G1 X93.0 Y94.0
M3 S1000
M5 S0
G0 X99.0 Y95.0
M3 S1000
G1 X93.0 Y95.0
M3 S0
G0 X91.0 Y95.0
M3 S1000
G1 X91.0 Y95.0
M3 S1000
G1 X83.0 Y95.0
M3 S0
G0 X63.0 Y95.0
M3 S1000
G1 X63.0 Y95.0
M3 S1000
G1 X52.0 Y95.0
M3 S0
G0 X44.0 Y95.0
M3 S1000
G1 X44.0 Y95.0
M3 S1000
G1 X42.0 Y95.0
M3 S0
G0 X40.0 Y95.0
M3 S1000
G1 X40.0 Y95.0
M3 S1000
G1 X39.0 Y95.0
M3 S0
G0 X38.0 Y95.0
M3 S1000
G1 X38.0 Y95.0
M3 S1000
G1 X36.0 Y95.0
M3 S0
G0 X35.0 Y95.0
M3 S1000
G1 X35.0 Y95.0
M3 S1000
G1 X34.0 Y95.0
M3 S0
G0 X29.0 Y95.0
M3 S1000
G1 X29.0 Y95.0
M3 S1000
G1 X28.0 Y95.0
M3 S0
G0 X25.0 Y95.0
M3 S1000
G1 X25.0 Y95.0
M3 S1000
G1 X10.0 Y95.0
M3 S0
M5 S0
G0 X11.0 Y96.0
M3 S1000
G1 X11.0 Y96.0
M3 S1000
G1 X23.0 Y96.0
M3 S0
G0 X24.0 Y96.0
M3 S1000
G1 X24.0 Y96.0
M3 S1000
G1 X25.0 Y96.0
M3 S0
G0 X54.0 Y96.0
M3 S1000
G1 X54.0 Y96.0
M3 S1000
G1 X55.0 Y96.0
M3 S0
G0 X59.0 Y96.0
M3 S1000
G1 X59.0 Y96.0
M3 S1000
G1 X64.0 Y96.0
M3 S0
G0 X83.0 Y96.0
M3 S1000
G1 X83.0 Y96.0
M3 S1000
G1 X93.0 Y96.0
M3 S0
G0 X95.0 Y96.0
M3 S1000
G1 X95.0 Y96.0
M3 S1000
M5 S0
G0 X99.0 Y97.0
M3 S1000
G1 X95.0 Y97.0
M3 S0
G0 X94.0 Y97.0
M3 S1000
G1 X94.0 Y97.0
M3 S1000
G1 X82.0 Y97.0
M3 S0
G0 X62.0 Y97.0
M3 S1000
G1 X62.0 Y97.0
M3 S1000
G1 X56.0 Y97.0
M3 S0
G0 X55.0 Y97.0
M3 S1000
G1 X55.0 Y97.0
M3 S1000
G1 X54.0 Y97.0
M3 S0
G0 X48.0 Y97.0
M3 S1000
G1 X48.0 Y97.0
M3 S1000
G1 X47.0 Y97.0
M3 S0
G0 X42.0 Y97.0
M3 S1000
G1 X42.0 Y97.0
M3 S1000
G1 X41.0 Y97.0
M3 S0
G0 X30.0 Y97.0
M3 S1000
G1 X30.0 Y97.0
M3 S1000
G1 X28.0 Y97.0
M3 S0
G0 X25.0 Y97.0
M3 S1000
G1 X25.0 Y97.0
M3 S1000
G1 X10.0 Y97.0
M3 S0
M5 S0
G0 X11.0 Y98.0
M3 S1000
G1 X11.0 Y98.0
M3 S1000
G1 X22.0 Y98.0
M3 S0
G0 X23.0 Y98.0
M3 S1000
G1 X23.0 Y98.0
M3 S1000
G1 X25.0 Y98.0
M3 S0
G0 X26.0 Y98.0
M3 S1000
G1 X26.0 Y98.0
M3 S1000
G1 X27.0 Y98.0
M3 S0
G0 X39.0 Y98.0
M3 S1000
G1 X39.0 Y98.0
M3 S1000
G1 X40.0 Y98.0
M3 S0
G0 X56.0 Y98.0
M3 S1000
G1 X56.0 Y98.0
M3 S1000
G1 X57.0 Y98.0
M3 S0
G0 X58.0 Y98.0
M3 S1000
G1 X58.0 Y98.0
M3 S1000
G1 X63.0 Y98.0
M3 S0
G0 X82.0 Y98.0
M3 S1000
G1 X82.0 Y98.0
M3 S1000
G1 X96.0 Y98.0
M3 S0
G0 X97.0 Y98.0
M3 S1000
G1 X97.0 Y98.0
M3 S1000
M5 S0
G0 X96.0 Y99.0
M3 S1000
G1 X96.0 Y99.0
M3 S1000
G1 X81.0 Y99.0
M3 S0
G0 X61.0 Y99.0
M3 S1000
G1 X61.0 Y99.0
M3 S1000
G1 X56.0 Y99.0
M3 S0
G0 X54.0 Y99.0
M3 S1000
G1 X54.0 Y99.0
M3 S1000
G1 X53.0 Y99.0
M3 S0
G0 X52.0 Y99.0
M3 S1000
G1 X52.0 Y99.0
M3 S1000
G1 X51.0 Y99.0
M3 S0
G0 X41.0 Y99.0
M3 S1000
G1 X41.0 Y99.0
M3 S1000
G1 X40.0 Y99.0
M3 S0
G0 X27.0 Y99.0
M3 S1000
G1 X27.0 Y99.0
M3 S1000
G1 X26.0 Y99.0
M3 S0
G0 X25.0 Y99.0
M3 S1000
G1 X25.0 Y99.0
M3 S1000
G1 X24.0 Y99.0
M3 S0
G0 X23.0 Y99.0
M3 S1000
G1 X23.0 Y99.0
M3 S1000
G1 X10.0 Y99.0
M3 S0
M5 S0
