( imgcode generated code )
( developed by M. "Vidmo" Widomski )
(  github.com/vidmo91 )
(  hackaday.io/vidmo91 )
 
H5 S0 
F200
G0 Z0 ( for some grbl senders compatibility )
 
G0 X10.0 Y5.0
M3 S255
G1 X11.4 Y5.0
M3 S0
G0 X12.8 Y5.0
M3 S255
G1 X12.8 Y5.0
M3 S255
G1 X13.2 Y5.0
M3 S0
G0 X15.6 Y5.0
M3 S255
G1 X15.6 Y5.0
M3 S255
G1 X20.2 Y5.0
M3 S0
G0 X20.4 Y5.0
M3 S255
G1 X20.4 Y5.0
M3 S255
G1 X22.6 Y5.0
M3 S0
G0 X22.8 Y5.0
M3 S255
G1 X22.8 Y5.0
M3 S255
G1 X30.6 Y5.0
M3 S0
G0 X30.8 Y5.0
M3 S255
G1 X30.8 Y5.0
M3 S255
G1 X31.0 Y5.0
M3 S0
G0 X31.2 Y5.0
M3 S255
G1 X31.2 Y5.0
M3 S255
G1 X31.4 Y5.0
M3 S0
G0 X31.6 Y5.0
M3 S255
G1 X31.6 Y5.0
M3 S255
G1 X31.8 Y5.0
M3 S0
G0 X47.2 Y5.0
M3 S255
G1 X47.2 Y5.0
M3 S255
G1 X49.6 Y5.0
M3 S0
G0 X50.2 Y5.0
M3 S255
G1 X50.2 Y5.0
M3 S255
G1 X51.2 Y5.0
M3 S0
G0 X52.0 Y5.0
M3 S255
G1 X52.0 Y5.0
M3 S255
G1 X55.8 Y5.0
M3 S0
G0 X56.4 Y5.0
M3 S255
G1 X56.4 Y5.0
M3 S255
G1 X59.8 Y5.0
M5 S0
G0 X59.8 Y5.2
M3 S255
G1 X56.4 Y5.2
M3 S0
G0 X56.0 Y5.2
M3 S255
G1 X56.0 Y5.2
M3 S255
G1 X52.0 Y5.2
M3 S0
G0 X51.2 Y5.2
M3 S255
G1 X51.2 Y5.2
M3 S255
G1 X50.0 Y5.2
M3 S0
G0 X49.8 Y5.2
M3 S255
G1 X49.8 Y5.2
M3 S255
G1 X47.2 Y5.2
M3 S0
G0 X32.4 Y5.2
M3 S255
G1 X32.4 Y5.2
M3 S255
G1 X32.0 Y5.2
M3 S0
G0 X31.8 Y5.2
M3 S255
G1 X31.8 Y5.2
M3 S255
G1 X31.4 Y5.2
M3 S0
G0 X31.2 Y5.2
M3 S255
G1 X31.2 Y5.2
M3 S255
G1 X26.4 Y5.2
M3 S0
G0 X26.2 Y5.2
M3 S255
G1 X26.2 Y5.2
M3 S255
G1 X23.4 Y5.2
M3 S0
G0 X23.2 Y5.2
M3 S255
G1 X23.2 Y5.2
M3 S255
G1 X20.4 Y5.2
M3 S0
G0 X20.2 Y5.2
M3 S255
G1 X20.2 Y5.2
M3 S255
G1 X15.6 Y5.2
M3 S0
G0 X13.4 Y5.2
M3 S255
G1 X13.4 Y5.2
M3 S255
G1 X13.0 Y5.2
M3 S0
G0 X11.4 Y5.2
M3 S255
G1 X11.4 Y5.2
M3 S255
G1 X10.0 Y5.2
M5 S0
G0 X10.0 Y5.4
M3 S255
G1 X11.2 Y5.4
M3 S0
G0 X13.0 Y5.4
M3 S255
G1 X13.0 Y5.4
M3 S255
G1 X13.4 Y5.4
M3 S0
G0 X15.8 Y5.4
M3 S255
G1 X15.8 Y5.4
M3 S255
G1 X22.2 Y5.4
M3 S0
G0 X22.6 Y5.4
M3 S255
G1 X22.6 Y5.4
M3 S255
G1 X23.4 Y5.4
M3 S0
G0 X23.6 Y5.4
M3 S255
G1 X23.6 Y5.4
M3 S255
G1 X31.4 Y5.4
M3 S0
G0 X31.6 Y5.4
M3 S255
G1 X31.6 Y5.4
M3 S255
G1 X31.8 Y5.4
M3 S0
G0 X33.0 Y5.4
M3 S255
G1 X33.0 Y5.4
M3 S255
G1 X33.2 Y5.4
M3 S0
G0 X47.2 Y5.4
M3 S255
G1 X47.2 Y5.4
M3 S255
G1 X50.0 Y5.4
M3 S0
G0 X50.2 Y5.4
M3 S255
G1 X50.2 Y5.4
M3 S255
G1 X51.6 Y5.4
M3 S0
G0 X52.2 Y5.4
M3 S255
G1 X52.2 Y5.4
M3 S255
G1 X56.0 Y5.4
M3 S0
G0 X56.2 Y5.4
M3 S255
G1 X56.2 Y5.4
M3 S255
G1 X59.8 Y5.4
M5 S0
G0 X59.8 Y5.6
M3 S255
G1 X47.0 Y5.6
M3 S0
G0 X31.8 Y5.6
M3 S255
G1 X31.8 Y5.6
M3 S255
G1 X22.4 Y5.6
M3 S0
G0 X22.2 Y5.6
M3 S255
G1 X22.2 Y5.6
M3 S255
G1 X20.6 Y5.6
M3 S0
G0 X20.4 Y5.6
M3 S255
G1 X20.4 Y5.6
M3 S255
G1 X16.0 Y5.6
M3 S0
G0 X13.4 Y5.6
M3 S255
G1 X13.4 Y5.6
M3 S255
G1 X12.8 Y5.6
M3 S0
G0 X11.2 Y5.6
M3 S255
G1 X11.2 Y5.6
M3 S255
G1 X10.0 Y5.6
M5 S0
G0 X10.0 Y5.8
M3 S255
G1 X11.4 Y5.8
M3 S0
G0 X12.8 Y5.8
M3 S255
G1 X12.8 Y5.8
M3 S255
G1 X13.2 Y5.8
M3 S0
G0 X15.8 Y5.8
M3 S255
G1 X15.8 Y5.8
M3 S255
G1 X20.4 Y5.8
M3 S0
G0 X20.6 Y5.8
M3 S255
G1 X20.6 Y5.8
M3 S255
G1 X22.2 Y5.8
M3 S0
G0 X22.4 Y5.8
M3 S255
G1 X22.4 Y5.8
M3 S255
G1 X31.0 Y5.8
M3 S0
G0 X31.2 Y5.8
M3 S255
G1 X31.2 Y5.8
M3 S255
G1 X31.6 Y5.8
M3 S0
G0 X47.0 Y5.8
M3 S255
G1 X47.0 Y5.8
M3 S255
G1 X59.8 Y5.8
M5 S0
G0 X59.8 Y6.0
M3 S255
G1 X47.0 Y6.0
M3 S0
G0 X32.6 Y6.0
M3 S255
G1 X32.6 Y6.0
M3 S255
G1 X32.4 Y6.0
M3 S0
G0 X31.2 Y6.0
M3 S255
G1 X31.2 Y6.0
M3 S255
G1 X24.6 Y6.0
M3 S0
G0 X24.4 Y6.0
M3 S255
G1 X24.4 Y6.0
M3 S255
G1 X22.2 Y6.0
M3 S0
G0 X22.0 Y6.0
M3 S255
G1 X22.0 Y6.0
M3 S255
G1 X15.6 Y6.0
M3 S0
G0 X13.2 Y6.0
M3 S255
G1 X13.2 Y6.0
M3 S255
G1 X12.8 Y6.0
M3 S0
G0 X11.4 Y6.0
M3 S255
G1 X11.4 Y6.0
M3 S255
G1 X10.0 Y6.0
M5 S0
G0 X10.0 Y6.2
M3 S255
G1 X11.4 Y6.2
M3 S0
G0 X12.8 Y6.2
M3 S255
G1 X12.8 Y6.2
M3 S255
G1 X13.4 Y6.2
M3 S0
G0 X15.8 Y6.2
M3 S255
G1 X15.8 Y6.2
M3 S255
G1 X22.0 Y6.2
M3 S0
G0 X22.2 Y6.2
M3 S255
G1 X22.2 Y6.2
M3 S255
G1 X30.6 Y6.2
M3 S0
G0 X30.8 Y6.2
M3 S255
G1 X30.8 Y6.2
M3 S255
G1 X31.0 Y6.2
M3 S0
G0 X31.2 Y6.2
M3 S255
G1 X31.2 Y6.2
M3 S255
G1 X31.4 Y6.2
M3 S0
G0 X31.6 Y6.2
M3 S255
G1 X31.6 Y6.2
M3 S255
G1 X31.8 Y6.2
M3 S0
G0 X32.2 Y6.2
M3 S255
G1 X32.2 Y6.2
M3 S255
G1 X32.4 Y6.2
M3 S0
G0 X47.0 Y6.2
M3 S255
G1 X47.0 Y6.2
M3 S255
G1 X59.8 Y6.2
M5 S0
G0 X59.8 Y6.4
M3 S255
G1 X46.8 Y6.4
M3 S0
G0 X33.0 Y6.4
M3 S255
G1 X33.0 Y6.4
M3 S255
G1 X32.8 Y6.4
M3 S0
G0 X32.6 Y6.4
M3 S255
G1 X32.6 Y6.4
M3 S255
G1 X32.4 Y6.4
M3 S0
G0 X32.2 Y6.4
M3 S255
G1 X32.2 Y6.4
M3 S255
G1 X32.0 Y6.4
M3 S0
G0 X31.4 Y6.4
M3 S255
G1 X31.4 Y6.4
M3 S255
G1 X16.0 Y6.4
M3 S0
G0 X13.4 Y6.4
M3 S255
G1 X13.4 Y6.4
M3 S255
G1 X12.8 Y6.4
M3 S0
G0 X11.4 Y6.4
M3 S255
G1 X11.4 Y6.4
M3 S255
G1 X10.0 Y6.4
M5 S0
G0 X10.0 Y6.6
M3 S255
G1 X11.4 Y6.6
M3 S0
G0 X12.6 Y6.6
M3 S255
G1 X12.6 Y6.6
M3 S255
G1 X13.4 Y6.6
M3 S0
G0 X16.0 Y6.6
M3 S255
G1 X16.0 Y6.6
M3 S255
G1 X24.8 Y6.6
M3 S0
G0 X25.0 Y6.6
M3 S255
G1 X25.0 Y6.6
M3 S255
G1 X31.6 Y6.6
M3 S0
G0 X32.6 Y6.6
M3 S255
G1 X32.6 Y6.6
M3 S255
G1 X32.8 Y6.6
M3 S0
G0 X46.8 Y6.6
M3 S255
G1 X46.8 Y6.6
M3 S255
G1 X59.8 Y6.6
M5 S0
G0 X59.8 Y6.8
M3 S255
G1 X51.6 Y6.8
M3 S0
G0 X51.0 Y6.8
M3 S255
G1 X51.0 Y6.8
M3 S255
G1 X46.8 Y6.8
M3 S0
G0 X31.6 Y6.8
M3 S255
G1 X31.6 Y6.8
M3 S255
G1 X31.4 Y6.8
M3 S0
G0 X31.2 Y6.8
M3 S255
G1 X31.2 Y6.8
M3 S255
G1 X31.0 Y6.8
M3 S0
G0 X30.8 Y6.8
M3 S255
G1 X30.8 Y6.8
M3 S255
G1 X25.6 Y6.8
M3 S0
G0 X25.2 Y6.8
M3 S255
G1 X25.2 Y6.8
M3 S255
G1 X16.0 Y6.8
M3 S0
G0 X13.2 Y6.8
M3 S255
G1 X13.2 Y6.8
M3 S255
G1 X12.6 Y6.8
M3 S0
G0 X11.2 Y6.8
M3 S255
G1 X11.2 Y6.8
M3 S255
G1 X10.0 Y6.8
M5 S0
G0 X10.0 Y7.0
M3 S255
G1 X11.2 Y7.0
M3 S0
G0 X12.6 Y7.0
M3 S255
G1 X12.6 Y7.0
M3 S255
G1 X13.4 Y7.0
M3 S0
G0 X15.8 Y7.0
M3 S255
G1 X15.8 Y7.0
M3 S255
G1 X20.6 Y7.0
M3 S0
G0 X20.8 Y7.0
M3 S255
G1 X20.8 Y7.0
M3 S255
G1 X23.8 Y7.0
M3 S0
G0 X24.0 Y7.0
M3 S255
G1 X24.0 Y7.0
M3 S255
G1 X25.2 Y7.0
M3 S0
G0 X25.4 Y7.0
M3 S255
G1 X25.4 Y7.0
M3 S255
G1 X31.2 Y7.0
M3 S0
G0 X31.4 Y7.0
M3 S255
G1 X31.4 Y7.0
M3 S255
G1 X32.0 Y7.0
M3 S0
G0 X32.6 Y7.0
M3 S255
G1 X32.6 Y7.0
M3 S255
G1 X32.8 Y7.0
M3 S0
G0 X46.8 Y7.0
M3 S255
G1 X46.8 Y7.0
M3 S255
G1 X51.0 Y7.0
M3 S0
G0 X51.8 Y7.0
M3 S255
G1 X51.8 Y7.0
M3 S255
G1 X59.8 Y7.0
M5 S0
G0 X59.8 Y7.2
M3 S255
G1 X52.0 Y7.2
M3 S0
G0 X50.8 Y7.2
M3 S255
G1 X50.8 Y7.2
M3 S255
G1 X46.6 Y7.2
M3 S0
G0 X32.2 Y7.2
M3 S255
G1 X32.2 Y7.2
M3 S255
G1 X25.4 Y7.2
M3 S0
G0 X25.0 Y7.2
M3 S255
G1 X25.0 Y7.2
M3 S255
G1 X20.8 Y7.2
M3 S0
G0 X20.6 Y7.2
M3 S255
G1 X20.6 Y7.2
M3 S255
G1 X15.8 Y7.2
M3 S0
G0 X13.4 Y7.2
M3 S255
G1 X13.4 Y7.2
M3 S255
G1 X12.6 Y7.2
M3 S0
G0 X11.2 Y7.2
M3 S255
G1 X11.2 Y7.2
M3 S255
G1 X10.0 Y7.2
M5 S0
G0 X10.0 Y7.4
M3 S255
G1 X11.2 Y7.4
M3 S0
G0 X12.6 Y7.4
M3 S255
G1 X12.6 Y7.4
M3 S255
G1 X13.2 Y7.4
M3 S0
G0 X15.8 Y7.4
M3 S255
G1 X15.8 Y7.4
M3 S255
G1 X25.0 Y7.4
M3 S0
G0 X25.2 Y7.4
M3 S255
G1 X25.2 Y7.4
M3 S255
G1 X32.0 Y7.4
M3 S0
G0 X46.6 Y7.4
M3 S255
G1 X46.6 Y7.4
M3 S255
G1 X50.8 Y7.4
M3 S0
G0 X52.2 Y7.4
M3 S255
G1 X52.2 Y7.4
M3 S255
G1 X59.8 Y7.4
M5 S0
G0 X59.8 Y7.6
M3 S255
G1 X52.6 Y7.6
M3 S0
G0 X50.8 Y7.6
M3 S255
G1 X50.8 Y7.6
M3 S255
G1 X46.6 Y7.6
M3 S0
G0 X32.4 Y7.6
M3 S255
G1 X32.4 Y7.6
M3 S255
G1 X32.2 Y7.6
M3 S0
G0 X32.0 Y7.6
M3 S255
G1 X32.0 Y7.6
M3 S255
G1 X25.2 Y7.6
M3 S0
G0 X25.0 Y7.6
M3 S255
G1 X25.0 Y7.6
M3 S255
G1 X15.8 Y7.6
M3 S0
G0 X13.2 Y7.6
M3 S255
G1 X13.2 Y7.6
M3 S255
G1 X12.6 Y7.6
M3 S0
G0 X11.0 Y7.6
M3 S255
G1 X11.0 Y7.6
M3 S255
G1 X10.0 Y7.6
M5 S0
G0 X10.0 Y7.8
M3 S255
G1 X11.0 Y7.8
M3 S0
G0 X12.6 Y7.8
M3 S255
G1 X12.6 Y7.8
M3 S255
G1 X13.2 Y7.8
M3 S0
G0 X15.8 Y7.8
M3 S255
G1 X15.8 Y7.8
M3 S255
G1 X25.6 Y7.8
M3 S0
G0 X25.8 Y7.8
M3 S255
G1 X25.8 Y7.8
M3 S255
G1 X32.2 Y7.8
M3 S0
G0 X46.6 Y7.8
M3 S255
G1 X46.6 Y7.8
M3 S255
G1 X50.8 Y7.8
M3 S0
G0 X52.8 Y7.8
M3 S255
G1 X52.8 Y7.8
M3 S255
G1 X59.8 Y7.8
M5 S0
G0 X59.8 Y8.0
M3 S255
G1 X53.0 Y8.0
M3 S0
G0 X50.8 Y8.0
M3 S255
G1 X50.8 Y8.0
M3 S255
G1 X46.4 Y8.0
M3 S0
G0 X32.2 Y8.0
M3 S255
G1 X32.2 Y8.0
M3 S255
G1 X25.6 Y8.0
M3 S0
G0 X25.0 Y8.0
M3 S255
G1 X25.0 Y8.0
M3 S255
G1 X15.8 Y8.0
M3 S0
G0 X13.2 Y8.0
M3 S255
G1 X13.2 Y8.0
M3 S255
G1 X12.6 Y8.0
M3 S0
G0 X11.0 Y8.0
M3 S255
G1 X11.0 Y8.0
M3 S255
G1 X10.0 Y8.0
M5 S0
G0 X10.0 Y8.2
M3 S255
G1 X11.2 Y8.2
M3 S0
G0 X12.6 Y8.2
M3 S255
G1 X12.6 Y8.2
M3 S255
G1 X13.2 Y8.2
M3 S0
G0 X15.8 Y8.2
M3 S255
G1 X15.8 Y8.2
M3 S255
G1 X16.2 Y8.2
M3 S0
G0 X16.4 Y8.2
M3 S255
G1 X16.4 Y8.2
M3 S255
G1 X24.6 Y8.2
M3 S0
G0 X25.4 Y8.2
M3 S255
G1 X25.4 Y8.2
M3 S255
G1 X26.0 Y8.2
M3 S0
G0 X26.2 Y8.2
M3 S255
G1 X26.2 Y8.2
M3 S255
G1 X32.2 Y8.2
M3 S0
G0 X46.4 Y8.2
M3 S255
G1 X46.4 Y8.2
M3 S255
G1 X50.8 Y8.2
M3 S0
G0 X53.2 Y8.2
M3 S255
G1 X53.2 Y8.2
M3 S255
G1 X59.8 Y8.2
M5 S0
G0 X59.8 Y8.4
M3 S255
G1 X53.4 Y8.4
M3 S0
G0 X50.8 Y8.4
M3 S255
G1 X50.8 Y8.4
M3 S255
G1 X46.4 Y8.4
M3 S0
G0 X32.2 Y8.4
M3 S255
G1 X32.2 Y8.4
M3 S255
G1 X25.2 Y8.4
M3 S0
G0 X24.8 Y8.4
M3 S255
G1 X24.8 Y8.4
M3 S255
G1 X24.6 Y8.4
M3 S0
G0 X24.4 Y8.4
M3 S255
G1 X24.4 Y8.4
M3 S255
G1 X16.4 Y8.4
M3 S0
G0 X16.2 Y8.4
M3 S255
G1 X16.2 Y8.4
M3 S255
G1 X15.8 Y8.4
M3 S0
G0 X13.2 Y8.4
M3 S255
G1 X13.2 Y8.4
M3 S255
G1 X12.4 Y8.4
M3 S0
G0 X11.2 Y8.4
M3 S255
G1 X11.2 Y8.4
M3 S255
G1 X10.0 Y8.4
M5 S0
G0 X10.0 Y8.6
M3 S255
G1 X11.2 Y8.6
M3 S0
G0 X12.4 Y8.6
M3 S255
G1 X12.4 Y8.6
M3 S255
G1 X13.2 Y8.6
M3 S0
G0 X16.0 Y8.6
M3 S255
G1 X16.0 Y8.6
M3 S255
G1 X24.4 Y8.6
M3 S0
G0 X24.8 Y8.6
M3 S255
G1 X24.8 Y8.6
M3 S255
G1 X25.0 Y8.6
M3 S0
G0 X25.2 Y8.6
M3 S255
G1 X25.2 Y8.6
M3 S255
G1 X30.8 Y8.6
M3 S0
G0 X31.0 Y8.6
M3 S255
G1 X31.0 Y8.6
M3 S255
G1 X32.4 Y8.6
M3 S0
G0 X46.2 Y8.6
M3 S255
G1 X46.2 Y8.6
M3 S255
G1 X50.8 Y8.6
M3 S0
G0 X53.4 Y8.6
M3 S255
G1 X53.4 Y8.6
M3 S255
G1 X59.8 Y8.6
M5 S0
G0 X59.8 Y8.8
M3 S255
G1 X53.6 Y8.8
M3 S0
G0 X51.0 Y8.8
M3 S255
G1 X51.0 Y8.8
M3 S255
G1 X46.2 Y8.8
M3 S0
G0 X32.6 Y8.8
M3 S255
G1 X32.6 Y8.8
M3 S255
G1 X25.0 Y8.8
M3 S0
G0 X24.8 Y8.8
M3 S255
G1 X24.8 Y8.8
M3 S255
G1 X24.6 Y8.8
M3 S0
G0 X24.2 Y8.8
M3 S255
G1 X24.2 Y8.8
M3 S255
G1 X16.0 Y8.8
M3 S0
G0 X13.2 Y8.8
M3 S255
G1 X13.2 Y8.8
M3 S255
G1 X12.4 Y8.8
M3 S0
G0 X11.0 Y8.8
M3 S255
G1 X11.0 Y8.8
M3 S255
G1 X10.0 Y8.8
M5 S0
G0 X10.0 Y9.0
M3 S255
G1 X11.0 Y9.0
M3 S0
G0 X12.4 Y9.0
M3 S255
G1 X12.4 Y9.0
M3 S255
G1 X13.2 Y9.0
M3 S0
G0 X16.0 Y9.0
M3 S255
G1 X16.0 Y9.0
M3 S255
G1 X24.4 Y9.0
M3 S0
G0 X24.8 Y9.0
M3 S255
G1 X24.8 Y9.0
M3 S255
G1 X32.6 Y9.0
M3 S0
G0 X46.2 Y9.0
M3 S255
G1 X46.2 Y9.0
M3 S255
G1 X51.0 Y9.0
M3 S0
G0 X53.6 Y9.0
M3 S255
G1 X53.6 Y9.0
M3 S255
G1 X59.8 Y9.0
M5 S0
G0 X59.8 Y9.2
M3 S255
G1 X53.8 Y9.2
M3 S0
G0 X50.4 Y9.2
M3 S255
G1 X50.4 Y9.2
M3 S255
G1 X46.0 Y9.2
M3 S0
G0 X32.8 Y9.2
M3 S255
G1 X32.8 Y9.2
M3 S255
G1 X26.2 Y9.2
M3 S0
G0 X26.0 Y9.2
M3 S255
G1 X26.0 Y9.2
M3 S255
G1 X24.4 Y9.2
M3 S0
G0 X24.2 Y9.2
M3 S255
G1 X24.2 Y9.2
M3 S255
G1 X16.0 Y9.2
M3 S0
G0 X13.2 Y9.2
M3 S255
G1 X13.2 Y9.2
M3 S255
G1 X12.4 Y9.2
M3 S0
G0 X11.0 Y9.2
M3 S255
G1 X11.0 Y9.2
M3 S255
G1 X10.0 Y9.2
M5 S0
G0 X10.0 Y9.4
M3 S255
G1 X11.0 Y9.4
M3 S0
G0 X12.4 Y9.4
M3 S255
G1 X12.4 Y9.4
M3 S255
G1 X13.2 Y9.4
M3 S0
G0 X16.2 Y9.4
M3 S255
G1 X16.2 Y9.4
M3 S255
G1 X23.8 Y9.4
M3 S0
G0 X24.2 Y9.4
M3 S255
G1 X24.2 Y9.4
M3 S255
G1 X26.6 Y9.4
M3 S0
G0 X26.8 Y9.4
M3 S255
G1 X26.8 Y9.4
M3 S255
G1 X32.8 Y9.4
M3 S0
G0 X46.0 Y9.4
M3 S255
G1 X46.0 Y9.4
M3 S255
G1 X50.0 Y9.4
M3 S0
G0 X54.0 Y9.4
M3 S255
G1 X54.0 Y9.4
M3 S255
G1 X59.8 Y9.4
M5 S0
G0 X59.8 Y9.6
M3 S255
G1 X54.0 Y9.6
M3 S0
G0 X51.8 Y9.6
M3 S255
G1 X51.8 Y9.6
M3 S255
G1 X51.6 Y9.6
M3 S0
G0 X49.6 Y9.6
M3 S255
G1 X49.6 Y9.6
M3 S255
G1 X46.0 Y9.6
M3 S0
G0 X33.0 Y9.6
M3 S255
G1 X33.0 Y9.6
M3 S255
G1 X26.8 Y9.6
M3 S0
G0 X26.6 Y9.6
M3 S255
G1 X26.6 Y9.6
M3 S255
G1 X24.2 Y9.6
M3 S0
G0 X23.8 Y9.6
M3 S255
G1 X23.8 Y9.6
M3 S255
G1 X16.0 Y9.6
M3 S0
G0 X13.2 Y9.6
M3 S255
G1 X13.2 Y9.6
M3 S255
G1 X12.2 Y9.6
M3 S0
G0 X11.0 Y9.6
M3 S255
G1 X11.0 Y9.6
M3 S255
G1 X10.0 Y9.6
M5 S0
G0 X10.0 Y9.8
M3 S255
G1 X11.0 Y9.8
M3 S0
G0 X12.2 Y9.8
M3 S255
G1 X12.2 Y9.8
M3 S255
G1 X13.2 Y9.8
M3 S0
G0 X16.4 Y9.8
M3 S255
G1 X16.4 Y9.8
M3 S255
G1 X25.4 Y9.8
M3 S0
G0 X25.6 Y9.8
M3 S255
G1 X25.6 Y9.8
M3 S255
G1 X26.6 Y9.8
M3 S0
G0 X26.8 Y9.8
M3 S255
G1 X26.8 Y9.8
M3 S255
G1 X33.0 Y9.8
M3 S0
G0 X46.2 Y9.8
M3 S255
G1 X46.2 Y9.8
M3 S255
G1 X48.6 Y9.8
M3 S0
G0 X54.2 Y9.8
M3 S255
G1 X54.2 Y9.8
M3 S255
G1 X59.8 Y9.8
M5 S0
G0 X59.8 Y10.0
M3 S255
G1 X54.2 Y10.0
M3 S0
G0 X48.0 Y10.0
M3 S255
G1 X48.0 Y10.0
M3 S255
G1 X46.2 Y10.0
M3 S0
G0 X46.0 Y10.0
M3 S255
G1 X46.0 Y10.0
M3 S255
G1 X45.8 Y10.0
M3 S0
G0 X33.2 Y10.0
M3 S255
G1 X33.2 Y10.0
M3 S255
G1 X31.6 Y10.0
M3 S0
G0 X31.4 Y10.0
M3 S255
G1 X31.4 Y10.0
M3 S255
G1 X26.8 Y10.0
M3 S0
G0 X26.6 Y10.0
M3 S255
G1 X26.6 Y10.0
M3 S255
G1 X25.6 Y10.0
M3 S0
G0 X25.4 Y10.0
M3 S255
G1 X25.4 Y10.0
M3 S255
G1 X16.4 Y10.0
M3 S0
G0 X13.2 Y10.0
M3 S255
G1 X13.2 Y10.0
M3 S255
G1 X12.2 Y10.0
M3 S0
G0 X11.0 Y10.0
M3 S255
G1 X11.0 Y10.0
M3 S255
G1 X10.0 Y10.0
M5 S0
G0 X10.0 Y10.2
M3 S255
G1 X11.0 Y10.2
M3 S0
G0 X12.2 Y10.2
M3 S255
G1 X12.2 Y10.2
M3 S255
G1 X13.2 Y10.2
M3 S0
G0 X16.4 Y10.2
M3 S255
G1 X16.4 Y10.2
M3 S255
G1 X25.2 Y10.2
M3 S0
G0 X25.4 Y10.2
M3 S255
G1 X25.4 Y10.2
M3 S255
G1 X26.4 Y10.2
M3 S0
G0 X27.0 Y10.2
M3 S255
G1 X27.0 Y10.2
M3 S255
G1 X31.4 Y10.2
M3 S0
G0 X31.6 Y10.2
M3 S255
G1 X31.6 Y10.2
M3 S255
G1 X33.2 Y10.2
M3 S0
G0 X45.8 Y10.2
M3 S255
G1 X45.8 Y10.2
M3 S255
G1 X46.0 Y10.2
M3 S0
G0 X46.4 Y10.2
M3 S255
G1 X46.4 Y10.2
M3 S255
G1 X47.4 Y10.2
M3 S0
G0 X47.6 Y10.2
M3 S255
G1 X47.6 Y10.2
M3 S255
G1 X47.8 Y10.2
M3 S0
G0 X54.2 Y10.2
M3 S255
G1 X54.2 Y10.2
M3 S255
G1 X59.8 Y10.2
M5 S0
G0 X59.8 Y10.4
M3 S255
G1 X54.4 Y10.4
M3 S0
G0 X46.8 Y10.4
M3 S255
G1 X46.8 Y10.4
M3 S255
G1 X46.6 Y10.4
M3 S0
G0 X46.0 Y10.4
M3 S255
G1 X46.0 Y10.4
M3 S255
G1 X45.8 Y10.4
M3 S0
G0 X33.4 Y10.4
M3 S255
G1 X33.4 Y10.4
M3 S255
G1 X31.6 Y10.4
M3 S0
G0 X31.4 Y10.4
M3 S255
G1 X31.4 Y10.4
M3 S255
G1 X27.2 Y10.4
M3 S0
G0 X26.6 Y10.4
M3 S255
G1 X26.6 Y10.4
M3 S255
G1 X25.0 Y10.4
M3 S0
G0 X24.8 Y10.4
M3 S255
G1 X24.8 Y10.4
M3 S255
G1 X24.6 Y10.4
M3 S0
G0 X24.4 Y10.4
M3 S255
G1 X24.4 Y10.4
M3 S255
G1 X16.4 Y10.4
M3 S0
G0 X13.2 Y10.4
M3 S255
G1 X13.2 Y10.4
M3 S255
G1 X12.2 Y10.4
M3 S0
G0 X11.0 Y10.4
M3 S255
G1 X11.0 Y10.4
M3 S255
G1 X10.0 Y10.4
M5 S0
G0 X10.0 Y10.6
M3 S255
G1 X11.0 Y10.6
M3 S0
G0 X12.2 Y10.6
M3 S255
G1 X12.2 Y10.6
M3 S255
G1 X13.2 Y10.6
M3 S0
G0 X16.4 Y10.6
M3 S255
G1 X16.4 Y10.6
M3 S255
G1 X24.6 Y10.6
M3 S0
G0 X24.8 Y10.6
M3 S255
G1 X24.8 Y10.6
M3 S255
G1 X25.2 Y10.6
M3 S0
G0 X25.4 Y10.6
M3 S255
G1 X25.4 Y10.6
M3 S255
G1 X26.2 Y10.6
M3 S0
G0 X26.4 Y10.6
M3 S255
G1 X26.4 Y10.6
M3 S255
G1 X31.8 Y10.6
M3 S0
G0 X32.2 Y10.6
M3 S255
G1 X32.2 Y10.6
M3 S255
G1 X33.4 Y10.6
M3 S0
G0 X45.6 Y10.6
M3 S255
G1 X45.6 Y10.6
M3 S255
G1 X46.0 Y10.6
M3 S0
G0 X54.4 Y10.6
M3 S255
G1 X54.4 Y10.6
M3 S255
G1 X59.8 Y10.6
M5 S0
G0 X59.8 Y10.8
M3 S255
G1 X54.4 Y10.8
M3 S0
G0 X50.6 Y10.8
M3 S255
G1 X50.6 Y10.8
M3 S255
G1 X50.4 Y10.8
M3 S0
G0 X46.0 Y10.8
M3 S255
G1 X46.0 Y10.8
M3 S255
G1 X45.6 Y10.8
M3 S0
G0 X33.4 Y10.8
M3 S255
G1 X33.4 Y10.8
M3 S255
G1 X32.2 Y10.8
M3 S0
G0 X31.8 Y10.8
M3 S255
G1 X31.8 Y10.8
M3 S255
G1 X26.4 Y10.8
M3 S0
G0 X26.0 Y10.8
M3 S255
G1 X26.0 Y10.8
M3 S255
G1 X25.2 Y10.8
M3 S0
G0 X25.0 Y10.8
M3 S255
G1 X25.0 Y10.8
M3 S255
G1 X16.2 Y10.8
M3 S0
G0 X13.2 Y10.8
M3 S255
G1 X13.2 Y10.8
M3 S255
G1 X12.2 Y10.8
M3 S0
G0 X11.0 Y10.8
M3 S255
G1 X11.0 Y10.8
M3 S255
G1 X10.0 Y10.8
M5 S0
G0 X10.0 Y11.0
M3 S255
G1 X11.0 Y11.0
M3 S0
G0 X12.2 Y11.0
M3 S255
G1 X12.2 Y11.0
M3 S255
G1 X13.2 Y11.0
M3 S0
G0 X16.2 Y11.0
M3 S255
G1 X16.2 Y11.0
M3 S255
G1 X25.8 Y11.0
M3 S0
G0 X26.2 Y11.0
M3 S255
G1 X26.2 Y11.0
M3 S255
G1 X31.6 Y11.0
M3 S0
G0 X32.4 Y11.0
M3 S255
G1 X32.4 Y11.0
M3 S255
G1 X33.4 Y11.0
M3 S0
G0 X45.6 Y11.0
M3 S255
G1 X45.6 Y11.0
M3 S255
G1 X45.8 Y11.0
M3 S0
G0 X51.2 Y11.0
M3 S255
G1 X51.2 Y11.0
M3 S255
G1 X51.4 Y11.0
M3 S0
G0 X54.4 Y11.0
M3 S255
G1 X54.4 Y11.0
M3 S255
G1 X59.8 Y11.0
M5 S0
G0 X59.8 Y11.2
M3 S255
G1 X54.6 Y11.2
M3 S0
G0 X51.0 Y11.2
M3 S255
G1 X51.0 Y11.2
M3 S255
G1 X50.6 Y11.2
M3 S0
G0 X46.0 Y11.2
M3 S255
G1 X46.0 Y11.2
M3 S255
G1 X45.4 Y11.2
M3 S0
G0 X33.6 Y11.2
M3 S255
G1 X33.6 Y11.2
M3 S255
G1 X32.2 Y11.2
M3 S0
G0 X32.0 Y11.2
M3 S255
G1 X32.0 Y11.2
M3 S255
G1 X31.8 Y11.2
M3 S0
G0 X31.6 Y11.2
M3 S255
G1 X31.6 Y11.2
M3 S255
G1 X25.8 Y11.2
M3 S0
G0 X25.6 Y11.2
M3 S255
G1 X25.6 Y11.2
M3 S255
G1 X25.2 Y11.2
M3 S0
G0 X25.0 Y11.2
M3 S255
G1 X25.0 Y11.2
M3 S255
G1 X24.8 Y11.2
M3 S0
G0 X24.6 Y11.2
M3 S255
G1 X24.6 Y11.2
M3 S255
G1 X16.2 Y11.2
M3 S0
G0 X13.2 Y11.2
M3 S255
G1 X13.2 Y11.2
M3 S255
G1 X12.2 Y11.2
M3 S0
G0 X11.0 Y11.2
M3 S255
G1 X11.0 Y11.2
M3 S255
G1 X10.0 Y11.2
M5 S0
G0 X10.0 Y11.4
M3 S255
G1 X10.8 Y11.4
M3 S0
G0 X12.2 Y11.4
M3 S255
G1 X12.2 Y11.4
M3 S255
G1 X13.2 Y11.4
M3 S0
G0 X16.4 Y11.4
M3 S255
G1 X16.4 Y11.4
M3 S255
G1 X24.6 Y11.4
M3 S0
G0 X25.4 Y11.4
M3 S255
G1 X25.4 Y11.4
M3 S255
G1 X28.0 Y11.4
M3 S0
G0 X28.2 Y11.4
M3 S255
G1 X28.2 Y11.4
M3 S255
G1 X28.4 Y11.4
M3 S0
G0 X28.8 Y11.4
M3 S255
G1 X28.8 Y11.4
M3 S255
G1 X33.8 Y11.4
M3 S0
G0 X45.4 Y11.4
M3 S255
G1 X45.4 Y11.4
M3 S255
G1 X46.0 Y11.4
M3 S0
G0 X50.6 Y11.4
M3 S255
G1 X50.6 Y11.4
M3 S255
G1 X51.4 Y11.4
M3 S0
G0 X54.6 Y11.4
M3 S255
G1 X54.6 Y11.4
M3 S255
G1 X59.8 Y11.4
M5 S0
G0 X59.8 Y11.6
M3 S255
G1 X54.6 Y11.6
M3 S0
G0 X51.4 Y11.6
M3 S255
G1 X51.4 Y11.6
M3 S255
G1 X50.6 Y11.6
M3 S0
G0 X46.0 Y11.6
M3 S255
G1 X46.0 Y11.6
M3 S255
G1 X45.4 Y11.6
M3 S0
G0 X34.0 Y11.6
M3 S255
G1 X34.0 Y11.6
M3 S255
G1 X32.4 Y11.6
M3 S0
G0 X32.2 Y11.6
M3 S255
G1 X32.2 Y11.6
M3 S255
G1 X27.6 Y11.6
M3 S0
G0 X26.8 Y11.6
M3 S255
G1 X26.8 Y11.6
M3 S255
G1 X25.4 Y11.6
M3 S0
G0 X25.2 Y11.6
M3 S255
G1 X25.2 Y11.6
M3 S255
G1 X25.0 Y11.6
M3 S0
G0 X24.6 Y11.6
M3 S255
G1 X24.6 Y11.6
M3 S255
G1 X16.4 Y11.6
M3 S0
G0 X13.2 Y11.6
M3 S255
G1 X13.2 Y11.6
M3 S255
G1 X12.2 Y11.6
M3 S0
G0 X10.8 Y11.6
M3 S255
G1 X10.8 Y11.6
M3 S255
G1 X10.0 Y11.6
M5 S0
G0 X10.0 Y11.8
M3 S255
G1 X10.8 Y11.8
M3 S0
G0 X12.0 Y11.8
M3 S255
G1 X12.0 Y11.8
M3 S255
G1 X13.2 Y11.8
M3 S0
G0 X16.0 Y11.8
M3 S255
G1 X16.0 Y11.8
M3 S255
G1 X24.6 Y11.8
M3 S0
G0 X24.8 Y11.8
M3 S255
G1 X24.8 Y11.8
M3 S255
G1 X25.0 Y11.8
M3 S0
G0 X25.6 Y11.8
M3 S255
G1 X25.6 Y11.8
M3 S255
G1 X26.4 Y11.8
M3 S0
G0 X27.2 Y11.8
M3 S255
G1 X27.2 Y11.8
M3 S255
G1 X33.8 Y11.8
M3 S0
G0 X45.4 Y11.8
M3 S255
G1 X45.4 Y11.8
M3 S255
G1 X46.0 Y11.8
M3 S0
G0 X50.6 Y11.8
M3 S255
G1 X50.6 Y11.8
M3 S255
G1 X50.8 Y11.8
M3 S0
G0 X51.0 Y11.8
M3 S255
G1 X51.0 Y11.8
M3 S255
G1 X51.4 Y11.8
M3 S0
G0 X54.8 Y11.8
M3 S255
G1 X54.8 Y11.8
M3 S255
G1 X59.8 Y11.8
M5 S0
G0 X59.8 Y12.0
M3 S255
G1 X54.8 Y12.0
M3 S0
G0 X51.6 Y12.0
M3 S255
G1 X51.6 Y12.0
M3 S255
G1 X50.6 Y12.0
M3 S0
G0 X46.0 Y12.0
M3 S255
G1 X46.0 Y12.0
M3 S255
G1 X45.2 Y12.0
M3 S0
G0 X34.0 Y12.0
M3 S255
G1 X34.0 Y12.0
M3 S255
G1 X31.8 Y12.0
M3 S0
G0 X31.6 Y12.0
M3 S255
G1 X31.6 Y12.0
M3 S255
G1 X26.8 Y12.0
M3 S0
G0 X26.0 Y12.0
M3 S255
G1 X26.0 Y12.0
M3 S255
G1 X25.6 Y12.0
M3 S0
G0 X25.0 Y12.0
M3 S255
G1 X25.0 Y12.0
M3 S255
G1 X20.0 Y12.0
M3 S0
G0 X19.8 Y12.0
M3 S255
G1 X19.8 Y12.0
M3 S255
G1 X16.0 Y12.0
M3 S0
G0 X13.2 Y12.0
M3 S255
G1 X13.2 Y12.0
M3 S255
G1 X12.0 Y12.0
M3 S0
G0 X10.8 Y12.0
M3 S255
G1 X10.8 Y12.0
M3 S255
G1 X10.0 Y12.0
M5 S0
G0 X10.0 Y12.2
M3 S255
G1 X10.8 Y12.2
M3 S0
G0 X12.0 Y12.2
M3 S255
G1 X12.0 Y12.2
M3 S255
G1 X13.2 Y12.2
M3 S0
G0 X16.4 Y12.2
M3 S255
G1 X16.4 Y12.2
M3 S255
G1 X25.0 Y12.2
M3 S0
G0 X26.0 Y12.2
M3 S255
G1 X26.0 Y12.2
M3 S255
G1 X26.6 Y12.2
M3 S0
G0 X27.0 Y12.2
M3 S255
G1 X27.0 Y12.2
M3 S255
G1 X34.2 Y12.2
M3 S0
G0 X45.2 Y12.2
M3 S255
G1 X45.2 Y12.2
M3 S255
G1 X46.0 Y12.2
M3 S0
G0 X50.8 Y12.2
M3 S255
G1 X50.8 Y12.2
M3 S255
G1 X51.6 Y12.2
M3 S0
G0 X55.0 Y12.2
M3 S255
G1 X55.0 Y12.2
M3 S255
G1 X59.8 Y12.2
M5 S0
G0 X59.8 Y12.4
M3 S255
G1 X55.0 Y12.4
M3 S0
G0 X51.6 Y12.4
M3 S255
G1 X51.6 Y12.4
M3 S255
G1 X51.0 Y12.4
M3 S0
G0 X50.6 Y12.4
M3 S255
G1 X50.6 Y12.4
M3 S255
G1 X50.4 Y12.4
M3 S0
G0 X46.0 Y12.4
M3 S255
G1 X46.0 Y12.4
M3 S255
G1 X45.2 Y12.4
M3 S0
G0 X33.8 Y12.4
M3 S255
G1 X33.8 Y12.4
M3 S255
G1 X27.6 Y12.4
M3 S0
G0 X26.6 Y12.4
M3 S255
G1 X26.6 Y12.4
M3 S255
G1 X26.4 Y12.4
M3 S0
G0 X26.2 Y12.4
M3 S255
G1 X26.2 Y12.4
M3 S255
G1 X25.8 Y12.4
M3 S0
G0 X25.0 Y12.4
M3 S255
G1 X25.0 Y12.4
M3 S255
G1 X19.8 Y12.4
M3 S0
G0 X19.6 Y12.4
M3 S255
G1 X19.6 Y12.4
M3 S255
G1 X16.2 Y12.4
M3 S0
G0 X13.0 Y12.4
M3 S255
G1 X13.0 Y12.4
M3 S255
G1 X12.0 Y12.4
M3 S0
G0 X10.8 Y12.4
M3 S255
G1 X10.8 Y12.4
M3 S255
G1 X10.0 Y12.4
M5 S0
G0 X10.0 Y12.6
M3 S255
G1 X10.8 Y12.6
M3 S0
G0 X12.0 Y12.6
M3 S255
G1 X12.0 Y12.6
M3 S255
G1 X13.2 Y12.6
M3 S0
G0 X16.4 Y12.6
M3 S255
G1 X16.4 Y12.6
M3 S255
G1 X19.6 Y12.6
M3 S0
G0 X20.0 Y12.6
M3 S255
G1 X20.0 Y12.6
M3 S255
G1 X25.0 Y12.6
M3 S0
G0 X25.4 Y12.6
M3 S255
G1 X25.4 Y12.6
M3 S255
G1 X25.6 Y12.6
M3 S0
G0 X25.8 Y12.6
M3 S255
G1 X25.8 Y12.6
M3 S255
G1 X26.2 Y12.6
M3 S0
G0 X26.4 Y12.6
M3 S255
G1 X26.4 Y12.6
M3 S255
G1 X26.8 Y12.6
M3 S0
G0 X27.2 Y12.6
M3 S255
G1 X27.2 Y12.6
M3 S255
G1 X27.4 Y12.6
M3 S0
G0 X27.6 Y12.6
M3 S255
G1 X27.6 Y12.6
M3 S255
G1 X34.0 Y12.6
M3 S0
G0 X45.0 Y12.6
M3 S255
G1 X45.0 Y12.6
M3 S255
G1 X46.0 Y12.6
M3 S0
G0 X50.6 Y12.6
M3 S255
G1 X50.6 Y12.6
M3 S255
G1 X50.8 Y12.6
M3 S0
G0 X51.0 Y12.6
M3 S255
G1 X51.0 Y12.6
M3 S255
G1 X51.2 Y12.6
M3 S0
G0 X51.4 Y12.6
M3 S255
G1 X51.4 Y12.6
M3 S255
G1 X51.6 Y12.6
M3 S0
G0 X55.0 Y12.6
M3 S255
G1 X55.0 Y12.6
M3 S255
G1 X59.8 Y12.6
M5 S0
G0 X59.8 Y12.8
M3 S255
G1 X55.2 Y12.8
M3 S0
G0 X51.6 Y12.8
M3 S255
G1 X51.6 Y12.8
M3 S255
G1 X51.0 Y12.8
M3 S0
G0 X46.0 Y12.8
M3 S255
G1 X46.0 Y12.8
M3 S255
G1 X45.0 Y12.8
M3 S0
G0 X33.8 Y12.8
M3 S255
G1 X33.8 Y12.8
M3 S255
G1 X27.2 Y12.8
M3 S0
G0 X26.8 Y12.8
M3 S255
G1 X26.8 Y12.8
M3 S255
G1 X26.0 Y12.8
M3 S0
G0 X25.6 Y12.8
M3 S255
G1 X25.6 Y12.8
M3 S255
G1 X25.4 Y12.8
M3 S0
G0 X25.0 Y12.8
M3 S255
G1 X25.0 Y12.8
M3 S255
G1 X20.0 Y12.8
M3 S0
G0 X19.8 Y12.8
M3 S255
G1 X19.8 Y12.8
M3 S255
G1 X16.2 Y12.8
M3 S0
G0 X13.2 Y12.8
M3 S255
G1 X13.2 Y12.8
M3 S255
G1 X12.0 Y12.8
M3 S0
G0 X10.8 Y12.8
M3 S255
G1 X10.8 Y12.8
M3 S255
G1 X10.0 Y12.8
M5 S0
G0 X10.0 Y13.0
M3 S255
G1 X10.8 Y13.0
M3 S0
G0 X12.0 Y13.0
M3 S255
G1 X12.0 Y13.0
M3 S255
G1 X13.2 Y13.0
M3 S0
G0 X16.2 Y13.0
M3 S255
G1 X16.2 Y13.0
M3 S255
G1 X16.4 Y13.0
M3 S0
G0 X16.6 Y13.0
M3 S255
G1 X16.6 Y13.0
M3 S255
G1 X19.8 Y13.0
M3 S0
G0 X20.2 Y13.0
M3 S255
G1 X20.2 Y13.0
M3 S255
G1 X25.0 Y13.0
M3 S0
G0 X25.6 Y13.0
M3 S255
G1 X25.6 Y13.0
M3 S255
G1 X25.8 Y13.0
M3 S0
G0 X26.0 Y13.0
M3 S255
G1 X26.0 Y13.0
M3 S255
G1 X26.8 Y13.0
M3 S0
G0 X27.2 Y13.0
M3 S255
G1 X27.2 Y13.0
M3 S255
G1 X34.0 Y13.0
M3 S0
G0 X34.6 Y13.0
M3 S255
G1 X34.6 Y13.0
M3 S255
G1 X34.8 Y13.0
M3 S0
G0 X45.0 Y13.0
M3 S255
G1 X45.0 Y13.0
M3 S255
G1 X46.2 Y13.0
M3 S0
G0 X51.0 Y13.0
M3 S255
G1 X51.0 Y13.0
M3 S255
G1 X51.8 Y13.0
M3 S0
G0 X55.2 Y13.0
M3 S255
G1 X55.2 Y13.0
M3 S255
G1 X59.8 Y13.0
M5 S0
G0 X59.8 Y13.2
M3 S255
G1 X55.4 Y13.2
M3 S0
G0 X52.0 Y13.2
M3 S255
G1 X52.0 Y13.2
M3 S255
G1 X51.0 Y13.2
M3 S0
G0 X46.2 Y13.2
M3 S255
G1 X46.2 Y13.2
M3 S255
G1 X44.8 Y13.2
M3 S0
G0 X34.8 Y13.2
M3 S255
G1 X34.8 Y13.2
M3 S255
G1 X34.4 Y13.2
M3 S0
G0 X34.0 Y13.2
M3 S255
G1 X34.0 Y13.2
M3 S255
G1 X27.4 Y13.2
M3 S0
G0 X26.8 Y13.2
M3 S255
G1 X26.8 Y13.2
M3 S255
G1 X26.0 Y13.2
M3 S0
G0 X25.0 Y13.2
M3 S255
G1 X25.0 Y13.2
M3 S255
G1 X20.2 Y13.2
M3 S0
G0 X20.0 Y13.2
M3 S255
G1 X20.0 Y13.2
M3 S255
G1 X16.6 Y13.2
M3 S0
G0 X16.4 Y13.2
M3 S255
G1 X16.4 Y13.2
M3 S255
G1 X16.0 Y13.2
M3 S0
G0 X13.0 Y13.2
M3 S255
G1 X13.0 Y13.2
M3 S255
G1 X12.0 Y13.2
M3 S0
G0 X10.8 Y13.2
M3 S255
G1 X10.8 Y13.2
M3 S255
G1 X10.0 Y13.2
M5 S0
G0 X10.0 Y13.4
M3 S255
G1 X10.6 Y13.4
M3 S0
G0 X12.0 Y13.4
M3 S255
G1 X12.0 Y13.4
M3 S255
G1 X13.0 Y13.4
M3 S0
G0 X16.0 Y13.4
M3 S255
G1 X16.0 Y13.4
M3 S255
G1 X16.2 Y13.4
M3 S0
G0 X16.4 Y13.4
M3 S255
G1 X16.4 Y13.4
M3 S255
G1 X20.0 Y13.4
M3 S0
G0 X20.2 Y13.4
M3 S255
G1 X20.2 Y13.4
M3 S255
G1 X25.0 Y13.4
M3 S0
G0 X25.2 Y13.4
M3 S255
G1 X25.2 Y13.4
M3 S255
G1 X25.4 Y13.4
M3 S0
G0 X26.0 Y13.4
M3 S255
G1 X26.0 Y13.4
M3 S255
G1 X26.8 Y13.4
M3 S0
G0 X27.4 Y13.4
M3 S255
G1 X27.4 Y13.4
M3 S255
G1 X34.0 Y13.4
M3 S0
G0 X44.6 Y13.4
M3 S255
G1 X44.6 Y13.4
M3 S255
G1 X46.2 Y13.4
M3 S0
G0 X51.2 Y13.4
M3 S255
G1 X51.2 Y13.4
M3 S255
G1 X52.2 Y13.4
M3 S0
G0 X55.4 Y13.4
M3 S255
G1 X55.4 Y13.4
M3 S255
G1 X59.8 Y13.4
M5 S0
G0 X59.8 Y13.6
M3 S255
G1 X55.6 Y13.6
M3 S0
G0 X52.2 Y13.6
M3 S255
G1 X52.2 Y13.6
M3 S255
G1 X51.6 Y13.6
M3 S0
G0 X46.2 Y13.6
M3 S255
G1 X46.2 Y13.6
M3 S255
G1 X44.6 Y13.6
M3 S0
G0 X34.0 Y13.6
M3 S255
G1 X34.0 Y13.6
M3 S255
G1 X27.4 Y13.6
M3 S0
G0 X27.0 Y13.6
M3 S255
G1 X27.0 Y13.6
M3 S255
G1 X26.0 Y13.6
M3 S0
G0 X25.4 Y13.6
M3 S255
G1 X25.4 Y13.6
M3 S255
G1 X25.2 Y13.6
M3 S0
G0 X25.0 Y13.6
M3 S255
G1 X25.0 Y13.6
M3 S255
G1 X20.2 Y13.6
M3 S0
G0 X20.0 Y13.6
M3 S255
G1 X20.0 Y13.6
M3 S255
G1 X16.4 Y13.6
M3 S0
G0 X13.2 Y13.6
M3 S255
G1 X13.2 Y13.6
M3 S255
G1 X12.0 Y13.6
M3 S0
G0 X10.6 Y13.6
M3 S255
G1 X10.6 Y13.6
M3 S255
G1 X10.0 Y13.6
M5 S0
G0 X10.0 Y13.8
M3 S255
G1 X10.6 Y13.8
M3 S0
G0 X12.0 Y13.8
M3 S255
G1 X12.0 Y13.8
M3 S255
G1 X13.0 Y13.8
M3 S0
G0 X16.2 Y13.8
M3 S255
G1 X16.2 Y13.8
M3 S255
G1 X25.2 Y13.8
M3 S0
G0 X25.4 Y13.8
M3 S255
G1 X25.4 Y13.8
M3 S255
G1 X25.6 Y13.8
M3 S0
G0 X26.0 Y13.8
M3 S255
G1 X26.0 Y13.8
M3 S255
G1 X26.6 Y13.8
M3 S0
G0 X26.8 Y13.8
M3 S255
G1 X26.8 Y13.8
M3 S255
G1 X27.0 Y13.8
M3 S0
G0 X27.4 Y13.8
M3 S255
G1 X27.4 Y13.8
M3 S255
G1 X34.2 Y13.8
M3 S0
G0 X44.4 Y13.8
M3 S255
G1 X44.4 Y13.8
M3 S255
G1 X46.2 Y13.8
M3 S0
G0 X51.2 Y13.8
M3 S255
G1 X51.2 Y13.8
M3 S255
G1 X51.4 Y13.8
M3 S0
G0 X51.8 Y13.8
M3 S255
G1 X51.8 Y13.8
M3 S255
G1 X52.0 Y13.8
M3 S0
G0 X55.6 Y13.8
M3 S255
G1 X55.6 Y13.8
M3 S255
G1 X59.8 Y13.8
M5 S0
G0 X59.8 Y14.0
M3 S255
G1 X55.6 Y14.0
M3 S0
G0 X52.0 Y14.0
M3 S255
G1 X52.0 Y14.0
M3 S255
G1 X51.8 Y14.0
M3 S0
G0 X46.2 Y14.0
M3 S255
G1 X46.2 Y14.0
M3 S255
G1 X44.4 Y14.0
M3 S0
G0 X34.0 Y14.0
M3 S255
G1 X34.0 Y14.0
M3 S255
G1 X27.2 Y14.0
M3 S0
G0 X27.0 Y14.0
M3 S255
G1 X27.0 Y14.0
M3 S255
G1 X26.8 Y14.0
M3 S0
G0 X26.6 Y14.0
M3 S255
G1 X26.6 Y14.0
M3 S255
G1 X26.2 Y14.0
M3 S0
G0 X25.6 Y14.0
M3 S255
G1 X25.6 Y14.0
M3 S255
G1 X25.4 Y14.0
M3 S0
G0 X25.2 Y14.0
M3 S255
G1 X25.2 Y14.0
M3 S255
G1 X16.2 Y14.0
M3 S0
G0 X13.0 Y14.0
M3 S255
G1 X13.0 Y14.0
M3 S255
G1 X12.0 Y14.0
M3 S0
G0 X10.6 Y14.0
M3 S255
G1 X10.6 Y14.0
M3 S255
G1 X10.0 Y14.0
M5 S0
G0 X10.0 Y14.2
M3 S255
G1 X10.4 Y14.2
M3 S0
G0 X11.8 Y14.2
M3 S255
G1 X11.8 Y14.2
M3 S255
G1 X13.2 Y14.2
M3 S0
G0 X16.2 Y14.2
M3 S255
G1 X16.2 Y14.2
M3 S255
G1 X24.6 Y14.2
M3 S0
G0 X25.4 Y14.2
M3 S255
G1 X25.4 Y14.2
M3 S255
G1 X25.6 Y14.2
M3 S0
G0 X25.8 Y14.2
M3 S255
G1 X25.8 Y14.2
M3 S255
G1 X26.4 Y14.2
M3 S0
G0 X26.6 Y14.2
M3 S255
G1 X26.6 Y14.2
M3 S255
G1 X27.0 Y14.2
M3 S0
G0 X27.2 Y14.2
M3 S255
G1 X27.2 Y14.2
M3 S255
G1 X34.4 Y14.2
M3 S0
G0 X44.2 Y14.2
M3 S255
G1 X44.2 Y14.2
M3 S255
G1 X46.2 Y14.2
M3 S0
G0 X51.2 Y14.2
M3 S255
G1 X51.2 Y14.2
M3 S255
G1 X52.0 Y14.2
M3 S0
G0 X53.0 Y14.2
M3 S255
G1 X53.0 Y14.2
M3 S255
G1 X53.2 Y14.2
M3 S0
G0 X55.8 Y14.2
M3 S255
G1 X55.8 Y14.2
M3 S255
G1 X59.8 Y14.2
M5 S0
G0 X59.8 Y14.4
M3 S255
G1 X55.8 Y14.4
M3 S0
G0 X53.2 Y14.4
M3 S255
G1 X53.2 Y14.4
M3 S255
G1 X52.8 Y14.4
M3 S0
G0 X52.2 Y14.4
M3 S255
G1 X52.2 Y14.4
M3 S255
G1 X51.2 Y14.4
M3 S0
G0 X51.0 Y14.4
M3 S255
G1 X51.0 Y14.4
M3 S255
G1 X50.8 Y14.4
M3 S0
G0 X46.4 Y14.4
M3 S255
G1 X46.4 Y14.4
M3 S255
G1 X44.0 Y14.4
M3 S0
G0 X34.6 Y14.4
M3 S255
G1 X34.6 Y14.4
M3 S255
G1 X27.2 Y14.4
M3 S0
G0 X27.0 Y14.4
M3 S255
G1 X27.0 Y14.4
M3 S255
G1 X26.6 Y14.4
M3 S0
G0 X26.4 Y14.4
M3 S255
G1 X26.4 Y14.4
M3 S255
G1 X25.8 Y14.4
M3 S0
G0 X25.6 Y14.4
M3 S255
G1 X25.6 Y14.4
M3 S255
G1 X25.2 Y14.4
M3 S0
G0 X24.6 Y14.4
M3 S255
G1 X24.6 Y14.4
M3 S255
G1 X16.8 Y14.4
M3 S0
G0 X16.6 Y14.4
M3 S255
G1 X16.6 Y14.4
M3 S255
G1 X16.2 Y14.4
M3 S0
G0 X13.2 Y14.4
M3 S255
G1 X13.2 Y14.4
M3 S255
G1 X11.8 Y14.4
M3 S0
G0 X10.2 Y14.4
M3 S255
G1 X10.2 Y14.4
M3 S255
G1 X10.0 Y14.4
M5 S0
G0 X10.0 Y14.6
M3 S255
G1 X10.0 Y14.6
M3 S255
G1 X10.2 Y14.6
M3 S0
G0 X11.6 Y14.6
M3 S255
G1 X11.6 Y14.6
M3 S255
G1 X13.0 Y14.6
M3 S0
G0 X16.8 Y14.6
M3 S255
G1 X16.8 Y14.6
M3 S255
G1 X22.0 Y14.6
M3 S0
G0 X22.2 Y14.6
M3 S255
G1 X22.2 Y14.6
M3 S255
G1 X24.6 Y14.6
M3 S0
G0 X25.6 Y14.6
M3 S255
G1 X25.6 Y14.6
M3 S255
G1 X26.2 Y14.6
M3 S0
G0 X26.4 Y14.6
M3 S255
G1 X26.4 Y14.6
M3 S255
G1 X26.8 Y14.6
M3 S0
G0 X27.0 Y14.6
M3 S255
G1 X27.0 Y14.6
M3 S255
G1 X34.8 Y14.6
M3 S0
G0 X43.8 Y14.6
M3 S255
G1 X43.8 Y14.6
M3 S255
G1 X46.4 Y14.6
M3 S0
G0 X51.2 Y14.6
M3 S255
G1 X51.2 Y14.6
M3 S255
G1 X52.4 Y14.6
M3 S0
G0 X52.8 Y14.6
M3 S255
G1 X52.8 Y14.6
M3 S255
G1 X53.2 Y14.6
M3 S0
G0 X56.0 Y14.6
M3 S255
G1 X56.0 Y14.6
M3 S255
G1 X59.8 Y14.6
M5 S0
G0 X59.8 Y14.8
M3 S255
G1 X56.0 Y14.8
M3 S0
G0 X53.4 Y14.8
M3 S255
G1 X53.4 Y14.8
M3 S255
G1 X52.6 Y14.8
M3 S0
G0 X52.2 Y14.8
M3 S255
G1 X52.2 Y14.8
M3 S255
G1 X51.0 Y14.8
M3 S0
G0 X46.4 Y14.8
M3 S255
G1 X46.4 Y14.8
M3 S255
G1 X43.8 Y14.8
M3 S0
G0 X35.0 Y14.8
M3 S255
G1 X35.0 Y14.8
M3 S255
G1 X34.6 Y14.8
M3 S0
G0 X34.2 Y14.8
M3 S255
G1 X34.2 Y14.8
M3 S255
G1 X27.0 Y14.8
M3 S0
G0 X26.8 Y14.8
M3 S255
G1 X26.8 Y14.8
M3 S255
G1 X26.4 Y14.8
M3 S0
G0 X26.0 Y14.8
M3 S255
G1 X26.0 Y14.8
M3 S255
G1 X25.6 Y14.8
M3 S0
G0 X24.4 Y14.8
M3 S255
G1 X24.4 Y14.8
M3 S255
G1 X22.2 Y14.8
M3 S0
G0 X22.0 Y14.8
M3 S255
G1 X22.0 Y14.8
M3 S255
G1 X16.4 Y14.8
M3 S0
G0 X13.2 Y14.8
M3 S255
G1 X13.2 Y14.8
M3 S255
G1 X11.4 Y14.8
M3 S0
M5 S0
G0 X11.2 Y15.0
M3 S255
G1 X11.2 Y15.0
M3 S255
G1 X13.2 Y15.0
M3 S0
G0 X16.4 Y15.0
M3 S255
G1 X16.4 Y15.0
M3 S255
G1 X19.4 Y15.0
M3 S0
G0 X19.6 Y15.0
M3 S255
G1 X19.6 Y15.0
M3 S255
G1 X21.2 Y15.0
M3 S0
G0 X21.4 Y15.0
M3 S255
G1 X21.4 Y15.0
M3 S255
G1 X24.4 Y15.0
M3 S0
G0 X25.4 Y15.0
M3 S255
G1 X25.4 Y15.0
M3 S255
G1 X26.0 Y15.0
M3 S0
G0 X26.2 Y15.0
M3 S255
G1 X26.2 Y15.0
M3 S255
G1 X26.8 Y15.0
M3 S0
G0 X27.0 Y15.0
M3 S255
G1 X27.0 Y15.0
M3 S255
G1 X34.6 Y15.0
M3 S0
G0 X34.8 Y15.0
M3 S255
G1 X34.8 Y15.0
M3 S255
G1 X35.2 Y15.0
M3 S0
G0 X43.6 Y15.0
M3 S255
G1 X43.6 Y15.0
M3 S255
G1 X46.4 Y15.0
M3 S0
G0 X50.8 Y15.0
M3 S255
G1 X50.8 Y15.0
M3 S255
G1 X52.2 Y15.0
M3 S0
G0 X52.6 Y15.0
M3 S255
G1 X52.6 Y15.0
M3 S255
G1 X53.4 Y15.0
M3 S0
G0 X56.0 Y15.0
M3 S255
G1 X56.0 Y15.0
M3 S255
G1 X59.8 Y15.0
M5 S0
G0 X59.8 Y15.2
M3 S255
G1 X56.2 Y15.2
M3 S0
G0 X53.4 Y15.2
M3 S255
G1 X53.4 Y15.2
M3 S255
G1 X52.6 Y15.2
M3 S0
G0 X52.4 Y15.2
M3 S255
G1 X52.4 Y15.2
M3 S255
G1 X50.6 Y15.2
M3 S0
G0 X46.4 Y15.2
M3 S255
G1 X46.4 Y15.2
M3 S255
G1 X43.4 Y15.2
M3 S0
G0 X35.2 Y15.2
M3 S255
G1 X35.2 Y15.2
M3 S255
G1 X34.8 Y15.2
M3 S0
G0 X34.6 Y15.2
M3 S255
G1 X34.6 Y15.2
M3 S255
G1 X26.8 Y15.2
M3 S0
G0 X26.6 Y15.2
M3 S255
G1 X26.6 Y15.2
M3 S255
G1 X25.4 Y15.2
M3 S0
G0 X25.2 Y15.2
M3 S255
G1 X25.2 Y15.2
M3 S255
G1 X25.0 Y15.2
M3 S0
G0 X24.4 Y15.2
M3 S255
G1 X24.4 Y15.2
M3 S255
G1 X22.4 Y15.2
M3 S0
G0 X22.2 Y15.2
M3 S255
G1 X22.2 Y15.2
M3 S255
G1 X20.0 Y15.2
M3 S0
G0 X19.8 Y15.2
M3 S255
G1 X19.8 Y15.2
M3 S255
G1 X19.0 Y15.2
M3 S0
G0 X18.6 Y15.2
M3 S255
G1 X18.6 Y15.2
M3 S255
G1 X16.4 Y15.2
M3 S0
G0 X13.2 Y15.2
M3 S255
G1 X13.2 Y15.2
M3 S255
G1 X11.0 Y15.2
M3 S0
M5 S0
G0 X10.8 Y15.4
M3 S255
G1 X10.8 Y15.4
M3 S255
G1 X13.2 Y15.4
M3 S0
G0 X16.0 Y15.4
M3 S255
G1 X16.0 Y15.4
M3 S255
G1 X16.4 Y15.4
M3 S0
G0 X16.6 Y15.4
M3 S255
G1 X16.6 Y15.4
M3 S255
G1 X16.8 Y15.4
M3 S0
G0 X17.0 Y15.4
M3 S255
G1 X17.0 Y15.4
M3 S255
G1 X20.0 Y15.4
M3 S0
G0 X20.2 Y15.4
M3 S255
G1 X20.2 Y15.4
M3 S255
G1 X22.6 Y15.4
M3 S0
G0 X22.8 Y15.4
M3 S255
G1 X22.8 Y15.4
M3 S255
G1 X23.6 Y15.4
M3 S0
G0 X23.8 Y15.4
M3 S255
G1 X23.8 Y15.4
M3 S255
G1 X24.6 Y15.4
M3 S0
G0 X24.8 Y15.4
M3 S255
G1 X24.8 Y15.4
M3 S255
G1 X25.0 Y15.4
M3 S0
G0 X25.2 Y15.4
M3 S255
G1 X25.2 Y15.4
M3 S255
G1 X25.8 Y15.4
M3 S0
G0 X26.0 Y15.4
M3 S255
G1 X26.0 Y15.4
M3 S255
G1 X26.6 Y15.4
M3 S0
G0 X26.8 Y15.4
M3 S255
G1 X26.8 Y15.4
M3 S255
G1 X35.0 Y15.4
M3 S0
G0 X35.2 Y15.4
M3 S255
G1 X35.2 Y15.4
M3 S255
G1 X35.4 Y15.4
M3 S0
G0 X43.2 Y15.4
M3 S255
G1 X43.2 Y15.4
M3 S255
G1 X46.4 Y15.4
M3 S0
G0 X50.2 Y15.4
M3 S255
G1 X50.2 Y15.4
M3 S255
G1 X52.4 Y15.4
M3 S0
G0 X52.6 Y15.4
M3 S255
G1 X52.6 Y15.4
M3 S255
G1 X53.6 Y15.4
M3 S0
G0 X56.4 Y15.4
M3 S255
G1 X56.4 Y15.4
M3 S255
G1 X59.8 Y15.4
M5 S0
G0 X59.8 Y15.6
M3 S255
G1 X56.6 Y15.6
M3 S0
G0 X53.6 Y15.6
M3 S255
G1 X53.6 Y15.6
M3 S255
G1 X49.6 Y15.6
M3 S0
G0 X46.4 Y15.6
M3 S255
G1 X46.4 Y15.6
M3 S255
G1 X43.0 Y15.6
M3 S0
G0 X35.6 Y15.6
M3 S255
G1 X35.6 Y15.6
M3 S255
G1 X35.2 Y15.6
M3 S0
G0 X34.8 Y15.6
M3 S255
G1 X34.8 Y15.6
M3 S255
G1 X26.6 Y15.6
M3 S0
G0 X26.4 Y15.6
M3 S255
G1 X26.4 Y15.6
M3 S255
G1 X25.8 Y15.6
M3 S0
G0 X25.4 Y15.6
M3 S255
G1 X25.4 Y15.6
M3 S255
G1 X25.2 Y15.6
M3 S0
G0 X25.0 Y15.6
M3 S255
G1 X25.0 Y15.6
M3 S255
G1 X24.6 Y15.6
M3 S0
G0 X24.4 Y15.6
M3 S255
G1 X24.4 Y15.6
M3 S255
G1 X23.0 Y15.6
M3 S0
G0 X22.8 Y15.6
M3 S255
G1 X22.8 Y15.6
M3 S255
G1 X22.2 Y15.6
M3 S0
G0 X21.8 Y15.6
M3 S255
G1 X21.8 Y15.6
M3 S255
G1 X20.2 Y15.6
M3 S0
G0 X20.0 Y15.6
M3 S255
G1 X20.0 Y15.6
M3 S255
G1 X19.0 Y15.6
M3 S0
G0 X18.8 Y15.6
M3 S255
G1 X18.8 Y15.6
M3 S255
G1 X17.0 Y15.6
M3 S0
G0 X16.8 Y15.6
M3 S255
G1 X16.8 Y15.6
M3 S255
G1 X16.6 Y15.6
M3 S0
G0 X16.4 Y15.6
M3 S255
G1 X16.4 Y15.6
M3 S255
G1 X16.0 Y15.6
M3 S0
G0 X13.0 Y15.6
M3 S255
G1 X13.0 Y15.6
M3 S255
G1 X10.4 Y15.6
M3 S0
M5 S0
G0 X10.2 Y15.8
M3 S255
G1 X10.2 Y15.8
M3 S255
G1 X13.2 Y15.8
M3 S0
G0 X16.0 Y15.8
M3 S255
G1 X16.0 Y15.8
M3 S255
G1 X16.8 Y15.8
M3 S0
G0 X17.0 Y15.8
M3 S255
G1 X17.0 Y15.8
M3 S255
G1 X21.6 Y15.8
M3 S0
G0 X21.8 Y15.8
M3 S255
G1 X21.8 Y15.8
M3 S255
G1 X22.8 Y15.8
M3 S0
G0 X23.0 Y15.8
M3 S255
G1 X23.0 Y15.8
M3 S255
G1 X25.4 Y15.8
M3 S0
G0 X25.6 Y15.8
M3 S255
G1 X25.6 Y15.8
M3 S255
G1 X35.2 Y15.8
M3 S0
G0 X42.6 Y15.8
M3 S255
G1 X42.6 Y15.8
M3 S255
G1 X46.4 Y15.8
M3 S0
G0 X49.0 Y15.8
M3 S255
G1 X49.0 Y15.8
M3 S255
G1 X49.2 Y15.8
M3 S0
G0 X49.4 Y15.8
M3 S255
G1 X49.4 Y15.8
M3 S255
G1 X53.6 Y15.8
M3 S0
G0 X56.8 Y15.8
M3 S255
G1 X56.8 Y15.8
M3 S255
G1 X59.8 Y15.8
M5 S0
G0 X59.8 Y16.0
M3 S255
G1 X57.0 Y16.0
M3 S0
G0 X53.4 Y16.0
M3 S255
G1 X53.4 Y16.0
M3 S255
G1 X48.8 Y16.0
M3 S0
G0 X46.4 Y16.0
M3 S255
G1 X46.4 Y16.0
M3 S255
G1 X42.2 Y16.0
M3 S0
G0 X35.4 Y16.0
M3 S255
G1 X35.4 Y16.0
M3 S255
G1 X26.4 Y16.0
M3 S0
G0 X26.2 Y16.0
M3 S255
G1 X26.2 Y16.0
M3 S255
G1 X25.6 Y16.0
M3 S0
G0 X25.2 Y16.0
M3 S255
G1 X25.2 Y16.0
M3 S255
G1 X23.2 Y16.0
M3 S0
G0 X22.8 Y16.0
M3 S255
G1 X22.8 Y16.0
M3 S255
G1 X21.6 Y16.0
M3 S0
G0 X21.4 Y16.0
M3 S255
G1 X21.4 Y16.0
M3 S255
G1 X17.2 Y16.0
M3 S0
G0 X17.0 Y16.0
M3 S255
G1 X17.0 Y16.0
M3 S255
G1 X16.0 Y16.0
M3 S0
G0 X13.2 Y16.0
M3 S255
G1 X13.2 Y16.0
M3 S255
G1 X10.0 Y16.0
M5 S0
G0 X10.0 Y16.2
M3 S255
G1 X13.0 Y16.2
M3 S0
G0 X16.0 Y16.2
M3 S255
G1 X16.0 Y16.2
M3 S255
G1 X17.2 Y16.2
M3 S0
G0 X17.4 Y16.2
M3 S255
G1 X17.4 Y16.2
M3 S255
G1 X21.4 Y16.2
M3 S0
G0 X21.6 Y16.2
M3 S255
G1 X21.6 Y16.2
M3 S255
G1 X22.0 Y16.2
M3 S0
G0 X22.2 Y16.2
M3 S255
G1 X22.2 Y16.2
M3 S255
G1 X22.8 Y16.2
M3 S0
G0 X23.2 Y16.2
M3 S255
G1 X23.2 Y16.2
M3 S255
G1 X24.4 Y16.2
M3 S0
G0 X24.6 Y16.2
M3 S255
G1 X24.6 Y16.2
M3 S255
G1 X25.4 Y16.2
M3 S0
G0 X25.6 Y16.2
M3 S255
G1 X25.6 Y16.2
M3 S255
G1 X26.0 Y16.2
M3 S0
G0 X26.4 Y16.2
M3 S255
G1 X26.4 Y16.2
M3 S255
G1 X35.2 Y16.2
M3 S0
G0 X41.8 Y16.2
M3 S255
G1 X41.8 Y16.2
M3 S255
G1 X46.4 Y16.2
M3 S0
G0 X48.2 Y16.2
M3 S255
G1 X48.2 Y16.2
M3 S255
G1 X53.6 Y16.2
M3 S0
G0 X57.2 Y16.2
M3 S255
G1 X57.2 Y16.2
M3 S255
G1 X59.8 Y16.2
M5 S0
G0 X59.8 Y16.4
M3 S255
G1 X57.4 Y16.4
M3 S0
G0 X53.6 Y16.4
M3 S255
G1 X53.6 Y16.4
M3 S255
G1 X52.6 Y16.4
M3 S0
G0 X51.8 Y16.4
M3 S255
G1 X51.8 Y16.4
M3 S255
G1 X48.0 Y16.4
M3 S0
G0 X47.8 Y16.4
M3 S255
G1 X47.8 Y16.4
M3 S255
G1 X47.6 Y16.4
M3 S0
G0 X47.4 Y16.4
M3 S255
G1 X47.4 Y16.4
M3 S255
G1 X47.2 Y16.4
M3 S0
G0 X46.6 Y16.4
M3 S255
G1 X46.6 Y16.4
M3 S255
G1 X41.4 Y16.4
M3 S0
G0 X35.0 Y16.4
M3 S255
G1 X35.0 Y16.4
M3 S255
G1 X34.6 Y16.4
M3 S0
G0 X34.0 Y16.4
M3 S255
G1 X34.0 Y16.4
M3 S255
G1 X26.2 Y16.4
M3 S0
G0 X25.4 Y16.4
M3 S255
G1 X25.4 Y16.4
M3 S255
G1 X24.6 Y16.4
M3 S0
G0 X24.4 Y16.4
M3 S255
G1 X24.4 Y16.4
M3 S255
G1 X23.4 Y16.4
M3 S0
G0 X23.0 Y16.4
M3 S255
G1 X23.0 Y16.4
M3 S255
G1 X22.0 Y16.4
M3 S0
G0 X21.8 Y16.4
M3 S255
G1 X21.8 Y16.4
M3 S255
G1 X21.6 Y16.4
M3 S0
G0 X21.4 Y16.4
M3 S255
G1 X21.4 Y16.4
M3 S255
G1 X17.4 Y16.4
M3 S0
G0 X17.2 Y16.4
M3 S255
G1 X17.2 Y16.4
M3 S255
G1 X16.2 Y16.4
M3 S0
G0 X13.0 Y16.4
M3 S255
G1 X13.0 Y16.4
M3 S255
G1 X10.0 Y16.4
M5 S0
G0 X10.0 Y16.6
M3 S255
G1 X12.8 Y16.6
M3 S0
G0 X16.6 Y16.6
M3 S255
G1 X16.6 Y16.6
M3 S255
G1 X21.0 Y16.6
M3 S0
G0 X21.4 Y16.6
M3 S255
G1 X21.4 Y16.6
M3 S255
G1 X21.6 Y16.6
M3 S0
G0 X22.0 Y16.6
M3 S255
G1 X22.0 Y16.6
M3 S255
G1 X23.2 Y16.6
M3 S0
G0 X23.4 Y16.6
M3 S255
G1 X23.4 Y16.6
M3 S255
G1 X24.2 Y16.6
M3 S0
G0 X24.4 Y16.6
M3 S255
G1 X24.4 Y16.6
M3 S255
G1 X24.6 Y16.6
M3 S0
G0 X24.8 Y16.6
M3 S255
G1 X24.8 Y16.6
M3 S255
G1 X25.4 Y16.6
M3 S0
G0 X26.0 Y16.6
M3 S255
G1 X26.0 Y16.6
M3 S255
G1 X34.0 Y16.6
M3 S0
G0 X34.6 Y16.6
M3 S255
G1 X34.6 Y16.6
M3 S255
G1 X34.8 Y16.6
M3 S0
G0 X41.0 Y16.6
M3 S255
G1 X41.0 Y16.6
M3 S255
G1 X46.6 Y16.6
M3 S0
G0 X47.2 Y16.6
M3 S255
G1 X47.2 Y16.6
M3 S255
G1 X50.6 Y16.6
M3 S0
G0 X52.8 Y16.6
M3 S255
G1 X52.8 Y16.6
M3 S255
G1 X53.6 Y16.6
M3 S0
G0 X57.6 Y16.6
M3 S255
G1 X57.6 Y16.6
M3 S255
G1 X59.8 Y16.6
M5 S0
G0 X59.8 Y16.8
M3 S255
G1 X57.8 Y16.8
M3 S0
G0 X53.6 Y16.8
M3 S255
G1 X53.6 Y16.8
M3 S255
G1 X52.6 Y16.8
M3 S0
G0 X50.0 Y16.8
M3 S255
G1 X50.0 Y16.8
M3 S255
G1 X47.2 Y16.8
M3 S0
G0 X46.6 Y16.8
M3 S255
G1 X46.6 Y16.8
M3 S255
G1 X40.6 Y16.8
M3 S0
G0 X34.4 Y16.8
M3 S255
G1 X34.4 Y16.8
M3 S255
G1 X25.8 Y16.8
M3 S0
G0 X25.2 Y16.8
M3 S255
G1 X25.2 Y16.8
M3 S255
G1 X24.6 Y16.8
M3 S0
G0 X24.0 Y16.8
M3 S255
G1 X24.0 Y16.8
M3 S255
G1 X23.6 Y16.8
M3 S0
G0 X23.2 Y16.8
M3 S255
G1 X23.2 Y16.8
M3 S255
G1 X21.6 Y16.8
M3 S0
G0 X21.4 Y16.8
M3 S255
G1 X21.4 Y16.8
M3 S255
G1 X17.6 Y16.8
M3 S0
G0 X17.4 Y16.8
M3 S255
G1 X17.4 Y16.8
M3 S255
G1 X16.8 Y16.8
M3 S0
G0 X16.2 Y16.8
M3 S255
G1 X16.2 Y16.8
M3 S255
G1 X15.8 Y16.8
M3 S0
G0 X12.8 Y16.8
M3 S255
G1 X12.8 Y16.8
M3 S255
G1 X10.0 Y16.8
M5 S0
G0 X10.0 Y17.0
M3 S255
G1 X12.8 Y17.0
M3 S0
G0 X15.8 Y17.0
M3 S255
G1 X15.8 Y17.0
M3 S255
G1 X16.6 Y17.0
M3 S0
G0 X17.0 Y17.0
M3 S255
G1 X17.0 Y17.0
M3 S255
G1 X17.4 Y17.0
M3 S0
G0 X17.6 Y17.0
M3 S255
G1 X17.6 Y17.0
M3 S255
G1 X21.0 Y17.0
M3 S0
G0 X21.2 Y17.0
M3 S255
G1 X21.2 Y17.0
M3 S255
G1 X21.4 Y17.0
M3 S0
G0 X21.6 Y17.0
M3 S255
G1 X21.6 Y17.0
M3 S255
G1 X22.6 Y17.0
M3 S0
G0 X22.8 Y17.0
M3 S255
G1 X22.8 Y17.0
M3 S255
G1 X23.4 Y17.0
M3 S0
G0 X23.6 Y17.0
M3 S255
G1 X23.6 Y17.0
M3 S255
G1 X23.8 Y17.0
M3 S0
G0 X24.4 Y17.0
M3 S255
G1 X24.4 Y17.0
M3 S255
G1 X25.0 Y17.0
M3 S0
G0 X25.4 Y17.0
M3 S255
G1 X25.4 Y17.0
M3 S255
G1 X34.6 Y17.0
M3 S0
G0 X40.0 Y17.0
M3 S255
G1 X40.0 Y17.0
M3 S255
G1 X46.6 Y17.0
M3 S0
G0 X47.2 Y17.0
M3 S255
G1 X47.2 Y17.0
M3 S255
G1 X49.0 Y17.0
M3 S0
G0 X52.8 Y17.0
M3 S255
G1 X52.8 Y17.0
M3 S255
G1 X53.6 Y17.0
M3 S0
G0 X58.0 Y17.0
M3 S255
G1 X58.0 Y17.0
M3 S255
G1 X59.8 Y17.0
M5 S0
G0 X59.8 Y17.2
M3 S255
G1 X58.4 Y17.2
M3 S0
G0 X53.6 Y17.2
M3 S255
G1 X53.6 Y17.2
M3 S255
G1 X52.8 Y17.2
M3 S0
G0 X48.2 Y17.2
M3 S255
G1 X48.2 Y17.2
M3 S255
G1 X47.4 Y17.2
M3 S0
G0 X46.6 Y17.2
M3 S255
G1 X46.6 Y17.2
M3 S255
G1 X39.8 Y17.2
M3 S0
G0 X36.4 Y17.2
M3 S255
G1 X36.4 Y17.2
M3 S255
G1 X25.4 Y17.2
M3 S0
G0 X23.6 Y17.2
M3 S255
G1 X23.6 Y17.2
M3 S255
G1 X23.4 Y17.2
M3 S0
G0 X23.2 Y17.2
M3 S255
G1 X23.2 Y17.2
M3 S255
G1 X21.4 Y17.2
M3 S0
G0 X21.0 Y17.2
M3 S255
G1 X21.0 Y17.2
M3 S255
G1 X17.6 Y17.2
M3 S0
G0 X17.4 Y17.2
M3 S255
G1 X17.4 Y17.2
M3 S255
G1 X17.2 Y17.2
M3 S0
G0 X16.8 Y17.2
M3 S255
G1 X16.8 Y17.2
M3 S255
G1 X15.8 Y17.2
M3 S0
G0 X12.8 Y17.2
M3 S255
G1 X12.8 Y17.2
M3 S255
G1 X10.0 Y17.2
M5 S0
G0 X10.0 Y17.4
M3 S255
G1 X12.6 Y17.4
M3 S0
G0 X16.0 Y17.4
M3 S255
G1 X16.0 Y17.4
M3 S255
G1 X17.0 Y17.4
M3 S0
G0 X17.2 Y17.4
M3 S255
G1 X17.2 Y17.4
M3 S255
G1 X21.0 Y17.4
M3 S0
G0 X21.4 Y17.4
M3 S255
G1 X21.4 Y17.4
M3 S255
G1 X23.2 Y17.4
M3 S0
G0 X23.4 Y17.4
M3 S255
G1 X23.4 Y17.4
M3 S255
G1 X24.0 Y17.4
M3 S0
G0 X24.4 Y17.4
M3 S255
G1 X24.4 Y17.4
M3 S255
G1 X25.0 Y17.4
M3 S0
G0 X25.2 Y17.4
M3 S255
G1 X25.2 Y17.4
M3 S255
G1 X36.2 Y17.4
M3 S0
G0 X40.0 Y17.4
M3 S255
G1 X40.0 Y17.4
M3 S255
G1 X46.6 Y17.4
M3 S0
G0 X53.2 Y17.4
M3 S255
G1 X53.2 Y17.4
M3 S255
G1 X53.6 Y17.4
M3 S0
G0 X58.8 Y17.4
M3 S255
G1 X58.8 Y17.4
M3 S255
G1 X59.8 Y17.4
M5 S0
G0 X59.8 Y17.6
M3 S255
G1 X59.6 Y17.6
M3 S0
G0 X53.8 Y17.6
M3 S255
G1 X53.8 Y17.6
M3 S255
G1 X53.0 Y17.6
M3 S0
G0 X46.6 Y17.6
M3 S255
G1 X46.6 Y17.6
M3 S255
G1 X40.0 Y17.6
M3 S0
G0 X35.4 Y17.6
M3 S255
G1 X35.4 Y17.6
M3 S255
G1 X24.4 Y17.6
M3 S0
G0 X23.8 Y17.6
M3 S255
G1 X23.8 Y17.6
M3 S255
G1 X23.2 Y17.6
M3 S0
G0 X22.8 Y17.6
M3 S255
G1 X22.8 Y17.6
M3 S255
G1 X21.4 Y17.6
M3 S0
G0 X21.2 Y17.6
M3 S255
G1 X21.2 Y17.6
M3 S255
G1 X21.0 Y17.6
M3 S0
G0 X20.8 Y17.6
M3 S255
G1 X20.8 Y17.6
M3 S255
G1 X16.0 Y17.6
M3 S0
G0 X12.6 Y17.6
M3 S255
G1 X12.6 Y17.6
M3 S255
G1 X10.0 Y17.6
M5 S0
G0 X10.0 Y17.8
M3 S255
G1 X12.6 Y17.8
M3 S0
G0 X16.0 Y17.8
M3 S255
G1 X16.0 Y17.8
M3 S255
G1 X20.8 Y17.8
M3 S0
G0 X21.0 Y17.8
M3 S255
G1 X21.0 Y17.8
M3 S255
G1 X22.4 Y17.8
M3 S0
G0 X22.6 Y17.8
M3 S255
G1 X22.6 Y17.8
M3 S255
G1 X23.0 Y17.8
M3 S0
G0 X23.2 Y17.8
M3 S255
G1 X23.2 Y17.8
M3 S255
G1 X23.6 Y17.8
M3 S0
G0 X24.2 Y17.8
M3 S255
G1 X24.2 Y17.8
M3 S255
G1 X35.0 Y17.8
M3 S0
G0 X40.0 Y17.8
M3 S255
G1 X40.0 Y17.8
M3 S255
G1 X46.6 Y17.8
M3 S0
G0 X53.2 Y17.8
M3 S255
G1 X53.2 Y17.8
M3 S255
G1 X53.8 Y17.8
M3 S0
M5 S0
G0 X53.8 Y18.0
M3 S255
G1 X53.8 Y18.0
M3 S255
G1 X53.0 Y18.0
M3 S0
G0 X46.6 Y18.0
M3 S255
G1 X46.6 Y18.0
M3 S255
G1 X40.2 Y18.0
M3 S0
G0 X35.0 Y18.0
M3 S255
G1 X35.0 Y18.0
M3 S255
G1 X25.2 Y18.0
M3 S0
G0 X25.0 Y18.0
M3 S255
G1 X25.0 Y18.0
M3 S255
G1 X24.2 Y18.0
M3 S0
G0 X24.0 Y18.0
M3 S255
G1 X24.0 Y18.0
M3 S255
G1 X23.8 Y18.0
M3 S0
G0 X23.6 Y18.0
M3 S255
G1 X23.6 Y18.0
M3 S255
G1 X22.6 Y18.0
M3 S0
G0 X22.2 Y18.0
M3 S255
G1 X22.2 Y18.0
M3 S255
G1 X16.0 Y18.0
M3 S0
G0 X12.6 Y18.0
M3 S255
G1 X12.6 Y18.0
M3 S255
G1 X10.0 Y18.0
M5 S0
G0 X10.0 Y18.2
M3 S255
G1 X12.6 Y18.2
M3 S0
G0 X16.0 Y18.2
M3 S255
G1 X16.0 Y18.2
M3 S255
G1 X21.8 Y18.2
M3 S0
G0 X22.0 Y18.2
M3 S255
G1 X22.0 Y18.2
M3 S255
G1 X22.2 Y18.2
M3 S0
G0 X22.4 Y18.2
M3 S255
G1 X22.4 Y18.2
M3 S255
G1 X24.0 Y18.2
M3 S0
G0 X24.2 Y18.2
M3 S255
G1 X24.2 Y18.2
M3 S255
G1 X24.8 Y18.2
M3 S0
G0 X25.2 Y18.2
M3 S255
G1 X25.2 Y18.2
M3 S255
G1 X34.6 Y18.2
M3 S0
G0 X40.2 Y18.2
M3 S255
G1 X40.2 Y18.2
M3 S255
G1 X46.6 Y18.2
M3 S0
G0 X53.2 Y18.2
M3 S255
G1 X53.2 Y18.2
M3 S255
G1 X53.8 Y18.2
M3 S0
M5 S0
G0 X53.8 Y18.4
M3 S255
G1 X53.8 Y18.4
M3 S255
G1 X53.2 Y18.4
M3 S0
G0 X46.6 Y18.4
M3 S255
G1 X46.6 Y18.4
M3 S255
G1 X40.4 Y18.4
M3 S0
G0 X34.8 Y18.4
M3 S255
G1 X34.8 Y18.4
M3 S255
G1 X25.4 Y18.4
M3 S0
G0 X25.0 Y18.4
M3 S255
G1 X25.0 Y18.4
M3 S255
G1 X24.2 Y18.4
M3 S0
G0 X24.0 Y18.4
M3 S255
G1 X24.0 Y18.4
M3 S255
G1 X23.8 Y18.4
M3 S0
G0 X23.4 Y18.4
M3 S255
G1 X23.4 Y18.4
M3 S255
G1 X22.2 Y18.4
M3 S0
G0 X22.0 Y18.4
M3 S255
G1 X22.0 Y18.4
M3 S255
G1 X21.0 Y18.4
M3 S0
G0 X20.8 Y18.4
M3 S255
G1 X20.8 Y18.4
M3 S255
G1 X16.0 Y18.4
M3 S0
G0 X12.6 Y18.4
M3 S255
G1 X12.6 Y18.4
M3 S255
G1 X10.0 Y18.4
M5 S0
G0 X10.0 Y18.6
M3 S255
G1 X12.8 Y18.6
M3 S0
G0 X16.0 Y18.6
M3 S255
G1 X16.0 Y18.6
M3 S255
G1 X17.0 Y18.6
M3 S0
G0 X17.2 Y18.6
M3 S255
G1 X17.2 Y18.6
M3 S255
G1 X20.8 Y18.6
M3 S0
G0 X21.2 Y18.6
M3 S255
G1 X21.2 Y18.6
M3 S255
G1 X21.6 Y18.6
M3 S0
G0 X21.8 Y18.6
M3 S255
G1 X21.8 Y18.6
M3 S255
G1 X22.0 Y18.6
M3 S0
G0 X22.2 Y18.6
M3 S255
G1 X22.2 Y18.6
M3 S255
G1 X23.6 Y18.6
M3 S0
G0 X23.8 Y18.6
M3 S255
G1 X23.8 Y18.6
M3 S255
G1 X24.8 Y18.6
M3 S0
G0 X25.6 Y18.6
M3 S255
G1 X25.6 Y18.6
M3 S255
G1 X34.8 Y18.6
M3 S0
G0 X40.4 Y18.6
M3 S255
G1 X40.4 Y18.6
M3 S255
G1 X46.6 Y18.6
M3 S0
G0 X53.2 Y18.6
M3 S255
G1 X53.2 Y18.6
M3 S255
G1 X53.8 Y18.6
M3 S0
M5 S0
G0 X53.8 Y18.8
M3 S255
G1 X53.8 Y18.8
M3 S255
G1 X53.2 Y18.8
M3 S0
G0 X46.6 Y18.8
M3 S255
G1 X46.6 Y18.8
M3 S255
G1 X40.4 Y18.8
M3 S0
G0 X34.8 Y18.8
M3 S255
G1 X34.8 Y18.8
M3 S255
G1 X34.6 Y18.8
M3 S0
G0 X34.4 Y18.8
M3 S255
G1 X34.4 Y18.8
M3 S255
G1 X25.6 Y18.8
M3 S0
G0 X24.8 Y18.8
M3 S255
G1 X24.8 Y18.8
M3 S255
G1 X24.4 Y18.8
M3 S0
G0 X24.2 Y18.8
M3 S255
G1 X24.2 Y18.8
M3 S255
G1 X23.4 Y18.8
M3 S0
G0 X23.2 Y18.8
M3 S255
G1 X23.2 Y18.8
M3 S255
G1 X22.8 Y18.8
M3 S0
G0 X22.6 Y18.8
M3 S255
G1 X22.6 Y18.8
M3 S255
G1 X22.2 Y18.8
M3 S0
G0 X21.8 Y18.8
M3 S255
G1 X21.8 Y18.8
M3 S255
G1 X21.6 Y18.8
M3 S0
G0 X20.8 Y18.8
M3 S255
G1 X20.8 Y18.8
M3 S255
G1 X17.2 Y18.8
M3 S0
G0 X17.0 Y18.8
M3 S255
G1 X17.0 Y18.8
M3 S255
G1 X16.0 Y18.8
M3 S0
G0 X12.8 Y18.8
M3 S255
G1 X12.8 Y18.8
M3 S255
G1 X10.0 Y18.8
M5 S0
G0 X10.0 Y19.0
M3 S255
G1 X12.8 Y19.0
M3 S0
G0 X16.0 Y19.0
M3 S255
G1 X16.0 Y19.0
M3 S255
G1 X17.0 Y19.0
M3 S0
G0 X17.2 Y19.0
M3 S255
G1 X17.2 Y19.0
M3 S255
G1 X18.6 Y19.0
M3 S0
G0 X18.8 Y19.0
M3 S255
G1 X18.8 Y19.0
M3 S255
G1 X20.8 Y19.0
M3 S0
G0 X21.4 Y19.0
M3 S255
G1 X21.4 Y19.0
M3 S255
G1 X21.8 Y19.0
M3 S0
G0 X22.0 Y19.0
M3 S255
G1 X22.0 Y19.0
M3 S255
G1 X23.2 Y19.0
M3 S0
G0 X23.6 Y19.0
M3 S255
G1 X23.6 Y19.0
M3 S255
G1 X24.8 Y19.0
M3 S0
G0 X25.8 Y19.0
M3 S255
G1 X25.8 Y19.0
M3 S255
G1 X34.4 Y19.0
M3 S0
G0 X40.6 Y19.0
M3 S255
G1 X40.6 Y19.0
M3 S255
G1 X46.6 Y19.0
M3 S0
G0 X53.4 Y19.0
M3 S255
G1 X53.4 Y19.0
M3 S255
G1 X53.8 Y19.0
M3 S0
M5 S0
G0 X53.8 Y19.2
M3 S255
G1 X53.8 Y19.2
M3 S255
G1 X53.4 Y19.2
M3 S0
G0 X46.6 Y19.2
M3 S255
G1 X46.6 Y19.2
M3 S255
G1 X40.6 Y19.2
M3 S0
G0 X39.4 Y19.2
M3 S255
G1 X39.4 Y19.2
M3 S255
G1 X37.4 Y19.2
M3 S0
G0 X34.4 Y19.2
M3 S255
G1 X34.4 Y19.2
M3 S255
G1 X26.0 Y19.2
M3 S0
G0 X24.8 Y19.2
M3 S255
G1 X24.8 Y19.2
M3 S255
G1 X24.6 Y19.2
M3 S0
G0 X24.2 Y19.2
M3 S255
G1 X24.2 Y19.2
M3 S255
G1 X23.4 Y19.2
M3 S0
G0 X23.0 Y19.2
M3 S255
G1 X23.0 Y19.2
M3 S255
G1 X21.4 Y19.2
M3 S0
G0 X21.0 Y19.2
M3 S255
G1 X21.0 Y19.2
M3 S255
G1 X18.8 Y19.2
M3 S0
G0 X18.6 Y19.2
M3 S255
G1 X18.6 Y19.2
M3 S255
G1 X17.2 Y19.2
M3 S0
G0 X17.0 Y19.2
M3 S255
G1 X17.0 Y19.2
M3 S255
G1 X16.0 Y19.2
M3 S0
G0 X12.8 Y19.2
M3 S255
G1 X12.8 Y19.2
M3 S255
G1 X10.0 Y19.2
M5 S0
G0 X10.0 Y19.4
M3 S255
G1 X12.6 Y19.4
M3 S0
G0 X15.8 Y19.4
M3 S255
G1 X15.8 Y19.4
M3 S255
G1 X17.0 Y19.4
M3 S0
G0 X17.4 Y19.4
M3 S255
G1 X17.4 Y19.4
M3 S255
G1 X18.6 Y19.4
M3 S0
G0 X18.8 Y19.4
M3 S255
G1 X18.8 Y19.4
M3 S255
G1 X21.0 Y19.4
M3 S0
G0 X21.2 Y19.4
M3 S255
G1 X21.2 Y19.4
M3 S255
G1 X21.6 Y19.4
M3 S0
G0 X21.8 Y19.4
M3 S255
G1 X21.8 Y19.4
M3 S255
G1 X22.8 Y19.4
M3 S0
G0 X23.0 Y19.4
M3 S255
G1 X23.0 Y19.4
M3 S255
G1 X23.2 Y19.4
M3 S0
G0 X23.8 Y19.4
M3 S255
G1 X23.8 Y19.4
M3 S255
G1 X24.0 Y19.4
M3 S0
G0 X24.6 Y19.4
M3 S255
G1 X24.6 Y19.4
M3 S255
G1 X24.8 Y19.4
M3 S0
G0 X26.2 Y19.4
M3 S255
G1 X26.2 Y19.4
M3 S255
G1 X34.2 Y19.4
M3 S0
G0 X37.4 Y19.4
M3 S255
G1 X37.4 Y19.4
M3 S255
G1 X38.2 Y19.4
M3 S0
G0 X38.4 Y19.4
M3 S255
G1 X38.4 Y19.4
M3 S255
G1 X38.6 Y19.4
M3 S0
G0 X39.2 Y19.4
M3 S255
G1 X39.2 Y19.4
M3 S255
G1 X39.6 Y19.4
M3 S0
G0 X40.8 Y19.4
M3 S255
G1 X40.8 Y19.4
M3 S255
G1 X46.6 Y19.4
M3 S0
G0 X53.4 Y19.4
M3 S255
G1 X53.4 Y19.4
M3 S255
G1 X53.8 Y19.4
M3 S0
M5 S0
G0 X53.8 Y19.6
M3 S255
G1 X53.8 Y19.6
M3 S255
G1 X53.4 Y19.6
M3 S0
G0 X46.6 Y19.6
M3 S255
G1 X46.6 Y19.6
M3 S255
G1 X41.0 Y19.6
M3 S0
G0 X38.2 Y19.6
M3 S255
G1 X38.2 Y19.6
M3 S255
G1 X36.8 Y19.6
M3 S0
G0 X34.6 Y19.6
M3 S255
G1 X34.6 Y19.6
M3 S255
G1 X34.4 Y19.6
M3 S0
G0 X34.2 Y19.6
M3 S255
G1 X34.2 Y19.6
M3 S255
G1 X34.0 Y19.6
M3 S0
G0 X33.8 Y19.6
M3 S255
G1 X33.8 Y19.6
M3 S255
G1 X26.4 Y19.6
M3 S0
G0 X25.6 Y19.6
M3 S255
G1 X25.6 Y19.6
M3 S255
G1 X25.4 Y19.6
M3 S0
G0 X24.8 Y19.6
M3 S255
G1 X24.8 Y19.6
M3 S255
G1 X24.6 Y19.6
M3 S0
G0 X24.0 Y19.6
M3 S255
G1 X24.0 Y19.6
M3 S255
G1 X23.2 Y19.6
M3 S0
G0 X23.0 Y19.6
M3 S255
G1 X23.0 Y19.6
M3 S255
G1 X22.8 Y19.6
M3 S0
G0 X22.6 Y19.6
M3 S255
G1 X22.6 Y19.6
M3 S255
G1 X21.2 Y19.6
M3 S0
G0 X21.0 Y19.6
M3 S255
G1 X21.0 Y19.6
M3 S255
G1 X18.8 Y19.6
M3 S0
G0 X18.6 Y19.6
M3 S255
G1 X18.6 Y19.6
M3 S255
G1 X17.4 Y19.6
M3 S0
G0 X17.2 Y19.6
M3 S255
G1 X17.2 Y19.6
M3 S255
G1 X16.0 Y19.6
M3 S0
G0 X12.6 Y19.6
M3 S255
G1 X12.6 Y19.6
M3 S255
G1 X10.0 Y19.6
M5 S0
G0 X10.0 Y19.8
M3 S255
G1 X12.6 Y19.8
M3 S0
G0 X16.2 Y19.8
M3 S255
G1 X16.2 Y19.8
M3 S255
G1 X17.2 Y19.8
M3 S0
G0 X17.6 Y19.8
M3 S255
G1 X17.6 Y19.8
M3 S255
G1 X21.0 Y19.8
M3 S0
G0 X21.4 Y19.8
M3 S255
G1 X21.4 Y19.8
M3 S255
G1 X22.4 Y19.8
M3 S0
G0 X22.6 Y19.8
M3 S255
G1 X22.6 Y19.8
M3 S255
G1 X23.8 Y19.8
M3 S0
G0 X24.8 Y19.8
M3 S255
G1 X24.8 Y19.8
M3 S255
G1 X25.0 Y19.8
M3 S0
G0 X25.4 Y19.8
M3 S255
G1 X25.4 Y19.8
M3 S255
G1 X25.8 Y19.8
M3 S0
G0 X26.4 Y19.8
M3 S255
G1 X26.4 Y19.8
M3 S255
G1 X34.2 Y19.8
M3 S0
G0 X34.4 Y19.8
M3 S255
G1 X34.4 Y19.8
M3 S255
G1 X34.6 Y19.8
M3 S0
G0 X36.6 Y19.8
M3 S255
G1 X36.6 Y19.8
M3 S255
G1 X37.2 Y19.8
M3 S0
G0 X41.2 Y19.8
M3 S255
G1 X41.2 Y19.8
M3 S255
G1 X46.6 Y19.8
M3 S0
G0 X53.4 Y19.8
M3 S255
G1 X53.4 Y19.8
M3 S255
G1 X53.8 Y19.8
M3 S0
M5 S0
G0 X53.8 Y20.0
M3 S255
G1 X53.8 Y20.0
M3 S255
G1 X53.4 Y20.0
M3 S0
G0 X46.6 Y20.0
M3 S255
G1 X46.6 Y20.0
M3 S255
G1 X41.2 Y20.0
M3 S0
G0 X37.8 Y20.0
M3 S255
G1 X37.8 Y20.0
M3 S255
G1 X37.2 Y20.0
M3 S0
G0 X36.8 Y20.0
M3 S255
G1 X36.8 Y20.0
M3 S255
G1 X36.4 Y20.0
M3 S0
G0 X34.0 Y20.0
M3 S255
G1 X34.0 Y20.0
M3 S255
G1 X26.6 Y20.0
M3 S0
G0 X26.0 Y20.0
M3 S255
G1 X26.0 Y20.0
M3 S255
G1 X25.6 Y20.0
M3 S0
G0 X25.0 Y20.0
M3 S255
G1 X25.0 Y20.0
M3 S255
G1 X24.8 Y20.0
M3 S0
G0 X23.8 Y20.0
M3 S255
G1 X23.8 Y20.0
M3 S255
G1 X21.4 Y20.0
M3 S0
G0 X21.0 Y20.0
M3 S255
G1 X21.0 Y20.0
M3 S255
G1 X17.6 Y20.0
M3 S0
G0 X17.4 Y20.0
M3 S255
G1 X17.4 Y20.0
M3 S255
G1 X16.4 Y20.0
M3 S0
G0 X16.0 Y20.0
M3 S255
G1 X16.0 Y20.0
M3 S255
G1 X15.8 Y20.0
M3 S0
G0 X12.6 Y20.0
M3 S255
G1 X12.6 Y20.0
M3 S255
G1 X10.0 Y20.0
M5 S0
G0 X10.0 Y20.2
M3 S255
G1 X12.6 Y20.2
M3 S0
G0 X16.0 Y20.2
M3 S255
G1 X16.0 Y20.2
M3 S255
G1 X16.2 Y20.2
M3 S0
G0 X16.6 Y20.2
M3 S255
G1 X16.6 Y20.2
M3 S255
G1 X17.6 Y20.2
M3 S0
G0 X17.8 Y20.2
M3 S255
G1 X17.8 Y20.2
M3 S255
G1 X21.0 Y20.2
M3 S0
G0 X21.4 Y20.2
M3 S255
G1 X21.4 Y20.2
M3 S255
G1 X24.2 Y20.2
M3 S0
G0 X25.0 Y20.2
M3 S255
G1 X25.0 Y20.2
M3 S255
G1 X25.2 Y20.2
M3 S0
G0 X25.8 Y20.2
M3 S255
G1 X25.8 Y20.2
M3 S255
G1 X26.4 Y20.2
M3 S0
G0 X26.6 Y20.2
M3 S255
G1 X26.6 Y20.2
M3 S255
G1 X33.8 Y20.2
M3 S0
G0 X36.2 Y20.2
M3 S255
G1 X36.2 Y20.2
M3 S255
G1 X36.6 Y20.2
M3 S0
G0 X36.8 Y20.2
M3 S255
G1 X36.8 Y20.2
M3 S255
G1 X37.4 Y20.2
M3 S0
G0 X41.4 Y20.2
M3 S255
G1 X41.4 Y20.2
M3 S255
G1 X46.6 Y20.2
M3 S0
G0 X53.6 Y20.2
M3 S255
G1 X53.6 Y20.2
M3 S255
G1 X53.8 Y20.2
M3 S0
M5 S0
G0 X53.8 Y20.4
M3 S255
G1 X53.8 Y20.4
M3 S255
G1 X53.6 Y20.4
M3 S0
G0 X47.0 Y20.4
M3 S255
G1 X47.0 Y20.4
M3 S255
G1 X46.8 Y20.4
M3 S0
G0 X46.6 Y20.4
M3 S255
G1 X46.6 Y20.4
M3 S255
G1 X41.4 Y20.4
M3 S0
G0 X39.0 Y20.4
M3 S255
G1 X39.0 Y20.4
M3 S255
G1 X38.8 Y20.4
M3 S0
G0 X38.6 Y20.4
M3 S255
G1 X38.6 Y20.4
M3 S255
G1 X38.4 Y20.4
M3 S0
G0 X37.8 Y20.4
M3 S255
G1 X37.8 Y20.4
M3 S255
G1 X35.8 Y20.4
M3 S0
G0 X33.4 Y20.4
M3 S255
G1 X33.4 Y20.4
M3 S255
G1 X26.8 Y20.4
M3 S0
G0 X26.4 Y20.4
M3 S255
G1 X26.4 Y20.4
M3 S255
G1 X25.8 Y20.4
M3 S0
G0 X24.2 Y20.4
M3 S255
G1 X24.2 Y20.4
M3 S255
G1 X21.4 Y20.4
M3 S0
G0 X21.2 Y20.4
M3 S255
G1 X21.2 Y20.4
M3 S255
G1 X18.0 Y20.4
M3 S0
G0 X17.6 Y20.4
M3 S255
G1 X17.6 Y20.4
M3 S255
G1 X16.8 Y20.4
M3 S0
G0 X16.6 Y20.4
M3 S255
G1 X16.6 Y20.4
M3 S255
G1 X16.0 Y20.4
M3 S0
G0 X12.6 Y20.4
M3 S255
G1 X12.6 Y20.4
M3 S255
G1 X10.0 Y20.4
M5 S0
G0 X10.0 Y20.6
M3 S255
G1 X12.6 Y20.6
M3 S0
G0 X16.0 Y20.6
M3 S255
G1 X16.0 Y20.6
M3 S255
G1 X16.6 Y20.6
M3 S0
G0 X17.0 Y20.6
M3 S255
G1 X17.0 Y20.6
M3 S255
G1 X17.8 Y20.6
M3 S0
G0 X18.2 Y20.6
M3 S255
G1 X18.2 Y20.6
M3 S255
G1 X23.0 Y20.6
M3 S0
G0 X23.2 Y20.6
M3 S255
G1 X23.2 Y20.6
M3 S255
G1 X24.8 Y20.6
M3 S0
G0 X26.0 Y20.6
M3 S255
G1 X26.0 Y20.6
M3 S255
G1 X26.6 Y20.6
M3 S0
G0 X27.0 Y20.6
M3 S255
G1 X27.0 Y20.6
M3 S255
G1 X32.8 Y20.6
M3 S0
G0 X33.2 Y20.6
M3 S255
G1 X33.2 Y20.6
M3 S255
G1 X33.6 Y20.6
M3 S0
G0 X35.6 Y20.6
M3 S255
G1 X35.6 Y20.6
M3 S255
G1 X40.4 Y20.6
M3 S0
G0 X40.6 Y20.6
M3 S255
G1 X40.6 Y20.6
M3 S255
G1 X41.0 Y20.6
M3 S0
G0 X41.6 Y20.6
M3 S255
G1 X41.6 Y20.6
M3 S255
G1 X46.4 Y20.6
M3 S0
G0 X46.8 Y20.6
M3 S255
G1 X46.8 Y20.6
M3 S255
G1 X47.0 Y20.6
M3 S0
G0 X53.6 Y20.6
M3 S255
G1 X53.6 Y20.6
M3 S255
G1 X53.8 Y20.6
M3 S0
M5 S0
G0 X47.2 Y20.8
M3 S255
G1 X47.2 Y20.8
M3 S255
G1 X46.8 Y20.8
M3 S0
G0 X46.4 Y20.8
M3 S255
G1 X46.4 Y20.8
M3 S255
G1 X41.6 Y20.8
M3 S0
G0 X41.0 Y20.8
M3 S255
G1 X41.0 Y20.8
M3 S255
G1 X39.8 Y20.8
M3 S0
G0 X39.4 Y20.8
M3 S255
G1 X39.4 Y20.8
M3 S255
G1 X35.6 Y20.8
M3 S0
G0 X33.6 Y20.8
M3 S255
G1 X33.6 Y20.8
M3 S255
G1 X33.2 Y20.8
M3 S0
G0 X32.6 Y20.8
M3 S255
G1 X32.6 Y20.8
M3 S255
G1 X27.0 Y20.8
M3 S0
G0 X26.8 Y20.8
M3 S255
G1 X26.8 Y20.8
M3 S255
G1 X26.0 Y20.8
M3 S0
G0 X25.0 Y20.8
M3 S255
G1 X25.0 Y20.8
M3 S255
G1 X24.8 Y20.8
M3 S0
G0 X24.2 Y20.8
M3 S255
G1 X24.2 Y20.8
M3 S255
G1 X18.2 Y20.8
M3 S0
G0 X17.8 Y20.8
M3 S255
G1 X17.8 Y20.8
M3 S255
G1 X17.0 Y20.8
M3 S0
G0 X16.8 Y20.8
M3 S255
G1 X16.8 Y20.8
M3 S255
G1 X16.0 Y20.8
M3 S0
G0 X12.6 Y20.8
M3 S255
G1 X12.6 Y20.8
M3 S255
G1 X10.0 Y20.8
M5 S0
G0 X10.0 Y21.0
M3 S255
G1 X12.6 Y21.0
M3 S0
G0 X15.8 Y21.0
M3 S255
G1 X15.8 Y21.0
M3 S255
G1 X17.0 Y21.0
M3 S0
G0 X17.2 Y21.0
M3 S255
G1 X17.2 Y21.0
M3 S255
G1 X18.0 Y21.0
M3 S0
G0 X18.2 Y21.0
M3 S255
G1 X18.2 Y21.0
M3 S255
G1 X23.6 Y21.0
M3 S0
G0 X24.0 Y21.0
M3 S255
G1 X24.0 Y21.0
M3 S255
G1 X25.0 Y21.0
M3 S0
G0 X26.2 Y21.0
M3 S255
G1 X26.2 Y21.0
M3 S255
G1 X27.0 Y21.0
M3 S0
G0 X27.2 Y21.0
M3 S255
G1 X27.2 Y21.0
M3 S255
G1 X32.8 Y21.0
M3 S0
G0 X35.8 Y21.0
M3 S255
G1 X35.8 Y21.0
M3 S255
G1 X36.2 Y21.0
M3 S0
G0 X36.4 Y21.0
M3 S255
G1 X36.4 Y21.0
M3 S255
G1 X36.6 Y21.0
M3 S0
G0 X38.6 Y21.0
M3 S255
G1 X38.6 Y21.0
M3 S255
G1 X39.0 Y21.0
M3 S0
G0 X40.8 Y21.0
M3 S255
G1 X40.8 Y21.0
M3 S255
G1 X41.2 Y21.0
M3 S0
G0 X41.8 Y21.0
M3 S255
G1 X41.8 Y21.0
M3 S255
G1 X46.4 Y21.0
M3 S0
G0 X46.8 Y21.0
M3 S255
G1 X46.8 Y21.0
M3 S255
G1 X47.2 Y21.0
M3 S0
G0 X53.8 Y21.0
M3 S255
G1 X53.8 Y21.0
M3 S255
G1 X54.0 Y21.0
M3 S0
M5 S0
G0 X47.2 Y21.2
M3 S255
G1 X47.2 Y21.2
M3 S255
G1 X46.8 Y21.2
M3 S0
G0 X46.4 Y21.2
M3 S255
G1 X46.4 Y21.2
M3 S255
G1 X41.8 Y21.2
M3 S0
G0 X41.2 Y21.2
M3 S255
G1 X41.2 Y21.2
M3 S255
G1 X41.0 Y21.2
M3 S0
G0 X33.2 Y21.2
M3 S255
G1 X33.2 Y21.2
M3 S255
G1 X33.0 Y21.2
M3 S0
G0 X32.8 Y21.2
M3 S255
G1 X32.8 Y21.2
M3 S255
G1 X27.4 Y21.2
M3 S0
G0 X27.0 Y21.2
M3 S255
G1 X27.0 Y21.2
M3 S255
G1 X26.4 Y21.2
M3 S0
G0 X24.8 Y21.2
M3 S255
G1 X24.8 Y21.2
M3 S255
G1 X23.8 Y21.2
M3 S0
G0 X23.6 Y21.2
M3 S255
G1 X23.6 Y21.2
M3 S255
G1 X17.4 Y21.2
M3 S0
G0 X17.2 Y21.2
M3 S255
G1 X17.2 Y21.2
M3 S255
G1 X16.0 Y21.2
M3 S0
G0 X12.6 Y21.2
M3 S255
G1 X12.6 Y21.2
M3 S255
G1 X10.0 Y21.2
M5 S0
G0 X10.0 Y21.4
M3 S255
G1 X12.6 Y21.4
M3 S0
G0 X16.0 Y21.4
M3 S255
G1 X16.0 Y21.4
M3 S255
G1 X17.2 Y21.4
M3 S0
G0 X17.6 Y21.4
M3 S255
G1 X17.6 Y21.4
M3 S255
G1 X18.0 Y21.4
M3 S0
G0 X18.2 Y21.4
M3 S255
G1 X18.2 Y21.4
M3 S255
G1 X23.0 Y21.4
M3 S0
G0 X23.2 Y21.4
M3 S255
G1 X23.2 Y21.4
M3 S255
G1 X23.6 Y21.4
M3 S0
G0 X24.0 Y21.4
M3 S255
G1 X24.0 Y21.4
M3 S255
G1 X25.0 Y21.4
M3 S0
G0 X25.2 Y21.4
M3 S255
G1 X25.2 Y21.4
M3 S255
G1 X25.6 Y21.4
M3 S0
G0 X26.4 Y21.4
M3 S255
G1 X26.4 Y21.4
M3 S255
G1 X27.2 Y21.4
M3 S0
G0 X27.4 Y21.4
M3 S255
G1 X27.4 Y21.4
M3 S255
G1 X32.6 Y21.4
M3 S0
G0 X32.8 Y21.4
M3 S255
G1 X32.8 Y21.4
M3 S255
G1 X33.0 Y21.4
M3 S0
G0 X42.0 Y21.4
M3 S255
G1 X42.0 Y21.4
M3 S255
G1 X46.4 Y21.4
M3 S0
G0 X47.0 Y21.4
M3 S255
G1 X47.0 Y21.4
M3 S255
G1 X47.2 Y21.4
M3 S0
G0 X53.8 Y21.4
M3 S255
G1 X53.8 Y21.4
M3 S255
G1 X54.0 Y21.4
M3 S0
M5 S0
G0 X47.2 Y21.6
M3 S255
G1 X47.2 Y21.6
M3 S255
G1 X47.0 Y21.6
M3 S0
G0 X46.4 Y21.6
M3 S255
G1 X46.4 Y21.6
M3 S255
G1 X42.0 Y21.6
M3 S0
G0 X33.4 Y21.6
M3 S255
G1 X33.4 Y21.6
M3 S255
G1 X33.2 Y21.6
M3 S0
G0 X32.6 Y21.6
M3 S255
G1 X32.6 Y21.6
M3 S255
G1 X27.8 Y21.6
M3 S0
G0 X27.4 Y21.6
M3 S255
G1 X27.4 Y21.6
M3 S255
G1 X26.6 Y21.6
M3 S0
G0 X25.8 Y21.6
M3 S255
G1 X25.8 Y21.6
M3 S255
G1 X24.0 Y21.6
M3 S0
G0 X23.8 Y21.6
M3 S255
G1 X23.8 Y21.6
M3 S255
G1 X23.6 Y21.6
M3 S0
G0 X23.4 Y21.6
M3 S255
G1 X23.4 Y21.6
M3 S255
G1 X23.0 Y21.6
M3 S0
G0 X22.8 Y21.6
M3 S255
G1 X22.8 Y21.6
M3 S255
G1 X19.4 Y21.6
M3 S0
G0 X19.2 Y21.6
M3 S255
G1 X19.2 Y21.6
M3 S255
G1 X17.8 Y21.6
M3 S0
G0 X17.6 Y21.6
M3 S255
G1 X17.6 Y21.6
M3 S255
G1 X16.0 Y21.6
M3 S0
G0 X12.6 Y21.6
M3 S255
G1 X12.6 Y21.6
M3 S255
G1 X10.0 Y21.6
M5 S0
G0 X10.0 Y21.8
M3 S255
G1 X12.6 Y21.8
M3 S0
G0 X16.0 Y21.8
M3 S255
G1 X16.0 Y21.8
M3 S255
G1 X17.6 Y21.8
M3 S0
G0 X18.0 Y21.8
M3 S255
G1 X18.0 Y21.8
M3 S255
G1 X19.2 Y21.8
M3 S0
G0 X19.4 Y21.8
M3 S255
G1 X19.4 Y21.8
M3 S255
G1 X22.8 Y21.8
M3 S0
G0 X23.2 Y21.8
M3 S255
G1 X23.2 Y21.8
M3 S255
G1 X25.6 Y21.8
M3 S0
G0 X26.8 Y21.8
M3 S255
G1 X26.8 Y21.8
M3 S255
G1 X27.6 Y21.8
M3 S0
G0 X27.8 Y21.8
M3 S255
G1 X27.8 Y21.8
M3 S255
G1 X32.4 Y21.8
M3 S0
G0 X32.6 Y21.8
M3 S255
G1 X32.6 Y21.8
M3 S255
G1 X32.8 Y21.8
M3 S0
G0 X33.2 Y21.8
M3 S255
G1 X33.2 Y21.8
M3 S255
G1 X33.4 Y21.8
M3 S0
G0 X42.2 Y21.8
M3 S255
G1 X42.2 Y21.8
M3 S255
G1 X46.4 Y21.8
M3 S0
G0 X46.6 Y21.8
M3 S255
G1 X46.6 Y21.8
M3 S255
G1 X46.8 Y21.8
M3 S0
G0 X47.0 Y21.8
M3 S255
G1 X47.0 Y21.8
M3 S255
G1 X47.4 Y21.8
M3 S0
M5 S0
G0 X47.4 Y22.0
M3 S255
G1 X47.4 Y22.0
M3 S255
G1 X47.0 Y22.0
M3 S0
G0 X46.4 Y22.0
M3 S255
G1 X46.4 Y22.0
M3 S255
G1 X42.2 Y22.0
M3 S0
G0 X33.2 Y22.0
M3 S255
G1 X33.2 Y22.0
M3 S255
G1 X32.6 Y22.0
M3 S0
G0 X32.4 Y22.0
M3 S255
G1 X32.4 Y22.0
M3 S255
G1 X28.0 Y22.0
M3 S0
G0 X27.6 Y22.0
M3 S255
G1 X27.6 Y22.0
M3 S255
G1 X27.0 Y22.0
M3 S0
G0 X25.8 Y22.0
M3 S255
G1 X25.8 Y22.0
M3 S255
G1 X23.2 Y22.0
M3 S0
G0 X23.0 Y22.0
M3 S255
G1 X23.0 Y22.0
M3 S255
G1 X22.8 Y22.0
M3 S0
G0 X22.6 Y22.0
M3 S255
G1 X22.6 Y22.0
M3 S255
G1 X19.6 Y22.0
M3 S0
G0 X19.4 Y22.0
M3 S255
G1 X19.4 Y22.0
M3 S255
G1 X18.2 Y22.0
M3 S0
G0 X17.8 Y22.0
M3 S255
G1 X17.8 Y22.0
M3 S255
G1 X16.0 Y22.0
M3 S0
G0 X12.6 Y22.0
M3 S255
G1 X12.6 Y22.0
M3 S255
G1 X10.0 Y22.0
M5 S0
G0 X10.0 Y22.2
M3 S255
G1 X12.6 Y22.2
M3 S0
G0 X16.0 Y22.2
M3 S255
G1 X16.0 Y22.2
M3 S255
G1 X18.0 Y22.2
M3 S0
G0 X18.2 Y22.2
M3 S255
G1 X18.2 Y22.2
M3 S255
G1 X22.6 Y22.2
M3 S0
G0 X22.8 Y22.2
M3 S255
G1 X22.8 Y22.2
M3 S255
G1 X23.0 Y22.2
M3 S0
G0 X23.2 Y22.2
M3 S255
G1 X23.2 Y22.2
M3 S255
G1 X25.8 Y22.2
M3 S0
G0 X27.0 Y22.2
M3 S255
G1 X27.0 Y22.2
M3 S255
G1 X27.6 Y22.2
M3 S0
G0 X28.2 Y22.2
M3 S255
G1 X28.2 Y22.2
M3 S255
G1 X32.4 Y22.2
M3 S0
G0 X32.6 Y22.2
M3 S255
G1 X32.6 Y22.2
M3 S255
G1 X33.0 Y22.2
M3 S0
G0 X42.4 Y22.2
M3 S255
G1 X42.4 Y22.2
M3 S255
G1 X46.2 Y22.2
M3 S0
G0 X46.6 Y22.2
M3 S255
G1 X46.6 Y22.2
M3 S255
G1 X46.8 Y22.2
M3 S0
G0 X47.0 Y22.2
M3 S255
G1 X47.0 Y22.2
M3 S255
G1 X47.4 Y22.2
M3 S0
M5 S0
G0 X47.4 Y22.4
M3 S255
G1 X47.4 Y22.4
M3 S255
G1 X47.0 Y22.4
M3 S0
G0 X46.8 Y22.4
M3 S255
G1 X46.8 Y22.4
M3 S255
G1 X46.6 Y22.4
M3 S0
G0 X46.2 Y22.4
M3 S255
G1 X46.2 Y22.4
M3 S255
G1 X42.4 Y22.4
M3 S0
G0 X33.2 Y22.4
M3 S255
G1 X33.2 Y22.4
M3 S255
G1 X28.4 Y22.4
M3 S0
G0 X27.8 Y22.4
M3 S255
G1 X27.8 Y22.4
M3 S255
G1 X27.2 Y22.4
M3 S0
G0 X26.6 Y22.4
M3 S255
G1 X26.6 Y22.4
M3 S255
G1 X24.4 Y22.4
M3 S0
G0 X24.2 Y22.4
M3 S255
G1 X24.2 Y22.4
M3 S255
G1 X23.2 Y22.4
M3 S0
G0 X22.6 Y22.4
M3 S255
G1 X22.6 Y22.4
M3 S255
G1 X20.0 Y22.4
M3 S0
G0 X19.8 Y22.4
M3 S255
G1 X19.8 Y22.4
M3 S255
G1 X18.4 Y22.4
M3 S0
G0 X18.2 Y22.4
M3 S255
G1 X18.2 Y22.4
M3 S255
G1 X16.0 Y22.4
M3 S0
G0 X12.6 Y22.4
M3 S255
G1 X12.6 Y22.4
M3 S255
G1 X10.0 Y22.4
M5 S0
G0 X10.0 Y22.6
M3 S255
G1 X12.8 Y22.6
M3 S0
G0 X16.0 Y22.6
M3 S255
G1 X16.0 Y22.6
M3 S255
G1 X22.4 Y22.6
M3 S0
G0 X22.6 Y22.6
M3 S255
G1 X22.6 Y22.6
M3 S255
G1 X22.8 Y22.6
M3 S0
G0 X23.2 Y22.6
M3 S255
G1 X23.2 Y22.6
M3 S255
G1 X24.2 Y22.6
M3 S0
G0 X24.6 Y22.6
M3 S255
G1 X24.6 Y22.6
M3 S255
G1 X26.8 Y22.6
M3 S0
G0 X27.2 Y22.6
M3 S255
G1 X27.2 Y22.6
M3 S255
G1 X28.0 Y22.6
M3 S0
G0 X28.4 Y22.6
M3 S255
G1 X28.4 Y22.6
M3 S255
G1 X32.8 Y22.6
M3 S0
G0 X33.2 Y22.6
M3 S255
G1 X33.2 Y22.6
M3 S255
G1 X33.4 Y22.6
M3 S0
G0 X42.4 Y22.6
M3 S255
G1 X42.4 Y22.6
M3 S255
G1 X46.2 Y22.6
M3 S0
G0 X46.6 Y22.6
M3 S255
G1 X46.6 Y22.6
M3 S255
G1 X46.8 Y22.6
M3 S0
G0 X47.0 Y22.6
M3 S255
G1 X47.0 Y22.6
M3 S255
G1 X47.6 Y22.6
M3 S0
G0 X54.0 Y22.6
M3 S255
G1 X54.0 Y22.6
M3 S255
G1 X54.2 Y22.6
M3 S0
M5 S0
G0 X47.6 Y22.8
M3 S255
G1 X47.6 Y22.8
M3 S255
G1 X47.0 Y22.8
M3 S0
G0 X46.8 Y22.8
M3 S255
G1 X46.8 Y22.8
M3 S255
G1 X46.6 Y22.8
M3 S0
G0 X46.2 Y22.8
M3 S255
G1 X46.2 Y22.8
M3 S255
G1 X42.4 Y22.8
M3 S0
G0 X39.8 Y22.8
M3 S255
G1 X39.8 Y22.8
M3 S255
G1 X39.2 Y22.8
M3 S0
G0 X38.6 Y22.8
M3 S255
G1 X38.6 Y22.8
M3 S255
G1 X38.2 Y22.8
M3 S0
G0 X33.0 Y22.8
M3 S255
G1 X33.0 Y22.8
M3 S255
G1 X28.6 Y22.8
M3 S0
G0 X27.8 Y22.8
M3 S255
G1 X27.8 Y22.8
M3 S255
G1 X24.4 Y22.8
M3 S0
G0 X24.2 Y22.8
M3 S255
G1 X24.2 Y22.8
M3 S255
G1 X22.6 Y22.8
M3 S0
G0 X22.4 Y22.8
M3 S255
G1 X22.4 Y22.8
M3 S255
G1 X20.4 Y22.8
M3 S0
G0 X20.2 Y22.8
M3 S255
G1 X20.2 Y22.8
M3 S255
G1 X16.0 Y22.8
M3 S0
G0 X12.8 Y22.8
M3 S255
G1 X12.8 Y22.8
M3 S255
G1 X10.0 Y22.8
M5 S0
G0 X10.0 Y23.0
M3 S255
G1 X12.8 Y23.0
M3 S0
G0 X16.0 Y23.0
M3 S255
G1 X16.0 Y23.0
M3 S255
G1 X20.4 Y23.0
M3 S0
G0 X20.6 Y23.0
M3 S255
G1 X20.6 Y23.0
M3 S255
G1 X22.4 Y23.0
M3 S0
G0 X22.6 Y23.0
M3 S255
G1 X22.6 Y23.0
M3 S255
G1 X22.8 Y23.0
M3 S0
G0 X23.0 Y23.0
M3 S255
G1 X23.0 Y23.0
M3 S255
G1 X25.6 Y23.0
M3 S0
G0 X25.8 Y23.0
M3 S255
G1 X25.8 Y23.0
M3 S255
G1 X27.4 Y23.0
M3 S0
G0 X28.8 Y23.0
M3 S255
G1 X28.8 Y23.0
M3 S255
G1 X32.8 Y23.0
M3 S0
G0 X37.8 Y23.0
M3 S255
G1 X37.8 Y23.0
M3 S255
G1 X38.4 Y23.0
M3 S0
G0 X38.8 Y23.0
M3 S255
G1 X38.8 Y23.0
M3 S255
G1 X39.0 Y23.0
M3 S0
G0 X39.2 Y23.0
M3 S255
G1 X39.2 Y23.0
M3 S255
G1 X40.2 Y23.0
M3 S0
G0 X42.6 Y23.0
M3 S255
G1 X42.6 Y23.0
M3 S255
G1 X46.2 Y23.0
M3 S0
G0 X46.6 Y23.0
M3 S255
G1 X46.6 Y23.0
M3 S255
G1 X46.8 Y23.0
M3 S0
G0 X47.0 Y23.0
M3 S255
G1 X47.0 Y23.0
M3 S255
G1 X47.6 Y23.0
M3 S0
M5 S0
G0 X47.8 Y23.2
M3 S255
G1 X47.8 Y23.2
M3 S255
G1 X46.6 Y23.2
M3 S0
G0 X46.2 Y23.2
M3 S255
G1 X46.2 Y23.2
M3 S255
G1 X42.6 Y23.2
M3 S0
G0 X40.2 Y23.2
M3 S255
G1 X40.2 Y23.2
M3 S255
G1 X38.4 Y23.2
M3 S0
G0 X38.0 Y23.2
M3 S255
G1 X38.0 Y23.2
M3 S255
G1 X37.8 Y23.2
M3 S0
G0 X33.0 Y23.2
M3 S255
G1 X33.0 Y23.2
M3 S255
G1 X28.8 Y23.2
M3 S0
G0 X27.4 Y23.2
M3 S255
G1 X27.4 Y23.2
M3 S255
G1 X26.0 Y23.2
M3 S0
G0 X25.8 Y23.2
M3 S255
G1 X25.8 Y23.2
M3 S255
G1 X23.0 Y23.2
M3 S0
G0 X22.8 Y23.2
M3 S255
G1 X22.8 Y23.2
M3 S255
G1 X22.4 Y23.2
M3 S0
G0 X22.2 Y23.2
M3 S255
G1 X22.2 Y23.2
M3 S255
G1 X19.6 Y23.2
M3 S0
G0 X19.4 Y23.2
M3 S255
G1 X19.4 Y23.2
M3 S255
G1 X16.0 Y23.2
M3 S0
G0 X12.8 Y23.2
M3 S255
G1 X12.8 Y23.2
M3 S255
G1 X10.0 Y23.2
M5 S0
G0 X10.0 Y23.4
M3 S255
G1 X12.8 Y23.4
M3 S0
G0 X16.0 Y23.4
M3 S255
G1 X16.0 Y23.4
M3 S255
G1 X19.4 Y23.4
M3 S0
G0 X19.6 Y23.4
M3 S255
G1 X19.6 Y23.4
M3 S255
G1 X20.6 Y23.4
M3 S0
G0 X20.8 Y23.4
M3 S255
G1 X20.8 Y23.4
M3 S255
G1 X21.6 Y23.4
M3 S0
G0 X21.8 Y23.4
M3 S255
G1 X21.8 Y23.4
M3 S255
G1 X22.2 Y23.4
M3 S0
G0 X22.4 Y23.4
M3 S255
G1 X22.4 Y23.4
M3 S255
G1 X22.8 Y23.4
M3 S0
G0 X23.0 Y23.4
M3 S255
G1 X23.0 Y23.4
M3 S255
G1 X25.8 Y23.4
M3 S0
G0 X26.0 Y23.4
M3 S255
G1 X26.0 Y23.4
M3 S255
G1 X27.6 Y23.4
M3 S0
G0 X29.0 Y23.4
M3 S255
G1 X29.0 Y23.4
M3 S255
G1 X32.8 Y23.4
M3 S0
G0 X33.0 Y23.4
M3 S255
G1 X33.0 Y23.4
M3 S255
G1 X33.2 Y23.4
M3 S0
G0 X37.8 Y23.4
M3 S255
G1 X37.8 Y23.4
M3 S255
G1 X38.0 Y23.4
M3 S0
G0 X38.4 Y23.4
M3 S255
G1 X38.4 Y23.4
M3 S255
G1 X40.0 Y23.4
M3 S0
G0 X42.4 Y23.4
M3 S255
G1 X42.4 Y23.4
M3 S255
G1 X46.0 Y23.4
M3 S0
G0 X46.8 Y23.4
M3 S255
G1 X46.8 Y23.4
M3 S255
G1 X47.8 Y23.4
M3 S0
G0 X54.2 Y23.4
M3 S255
G1 X54.2 Y23.4
M3 S255
G1 X54.4 Y23.4
M3 S0
M5 S0
G0 X47.8 Y23.6
M3 S255
G1 X47.8 Y23.6
M3 S255
G1 X46.8 Y23.6
M3 S0
G0 X46.0 Y23.6
M3 S255
G1 X46.0 Y23.6
M3 S255
G1 X42.6 Y23.6
M3 S0
G0 X39.8 Y23.6
M3 S255
G1 X39.8 Y23.6
M3 S255
G1 X39.4 Y23.6
M3 S0
G0 X38.2 Y23.6
M3 S255
G1 X38.2 Y23.6
M3 S255
G1 X37.6 Y23.6
M3 S0
G0 X32.8 Y23.6
M3 S255
G1 X32.8 Y23.6
M3 S255
G1 X29.2 Y23.6
M3 S0
G0 X27.6 Y23.6
M3 S255
G1 X27.6 Y23.6
M3 S255
G1 X26.2 Y23.6
M3 S0
G0 X26.0 Y23.6
M3 S255
G1 X26.0 Y23.6
M3 S255
G1 X23.0 Y23.6
M3 S0
G0 X22.8 Y23.6
M3 S255
G1 X22.8 Y23.6
M3 S255
G1 X22.4 Y23.6
M3 S0
G0 X22.2 Y23.6
M3 S255
G1 X22.2 Y23.6
M3 S255
G1 X21.8 Y23.6
M3 S0
G0 X21.6 Y23.6
M3 S255
G1 X21.6 Y23.6
M3 S255
G1 X15.8 Y23.6
M3 S0
G0 X12.8 Y23.6
M3 S255
G1 X12.8 Y23.6
M3 S255
G1 X10.0 Y23.6
M5 S0
G0 X10.0 Y23.8
M3 S255
G1 X13.0 Y23.8
M3 S0
G0 X15.8 Y23.8
M3 S255
G1 X15.8 Y23.8
M3 S255
G1 X17.0 Y23.8
M3 S0
G0 X17.4 Y23.8
M3 S255
G1 X17.4 Y23.8
M3 S255
G1 X20.8 Y23.8
M3 S0
G0 X21.0 Y23.8
M3 S255
G1 X21.0 Y23.8
M3 S255
G1 X21.6 Y23.8
M3 S0
G0 X21.8 Y23.8
M3 S255
G1 X21.8 Y23.8
M3 S255
G1 X22.2 Y23.8
M3 S0
G0 X22.4 Y23.8
M3 S255
G1 X22.4 Y23.8
M3 S255
G1 X25.0 Y23.8
M3 S0
G0 X25.4 Y23.8
M3 S255
G1 X25.4 Y23.8
M3 S255
G1 X27.8 Y23.8
M3 S0
G0 X28.6 Y23.8
M3 S255
G1 X28.6 Y23.8
M3 S255
G1 X28.8 Y23.8
M3 S0
G0 X29.4 Y23.8
M3 S255
G1 X29.4 Y23.8
M3 S255
G1 X32.8 Y23.8
M3 S0
G0 X37.6 Y23.8
M3 S255
G1 X37.6 Y23.8
M3 S255
G1 X38.2 Y23.8
M3 S0
G0 X39.4 Y23.8
M3 S255
G1 X39.4 Y23.8
M3 S255
G1 X39.8 Y23.8
M3 S0
G0 X42.8 Y23.8
M3 S255
G1 X42.8 Y23.8
M3 S255
G1 X46.0 Y23.8
M3 S0
G0 X46.8 Y23.8
M3 S255
G1 X46.8 Y23.8
M3 S255
G1 X48.0 Y23.8
M3 S0
M5 S0
G0 X48.0 Y24.0
M3 S255
G1 X48.0 Y24.0
M3 S255
G1 X46.8 Y24.0
M3 S0
G0 X46.0 Y24.0
M3 S255
G1 X46.0 Y24.0
M3 S255
G1 X42.8 Y24.0
M3 S0
G0 X39.6 Y24.0
M3 S255
G1 X39.6 Y24.0
M3 S255
G1 X39.2 Y24.0
M3 S0
G0 X38.2 Y24.0
M3 S255
G1 X38.2 Y24.0
M3 S255
G1 X37.6 Y24.0
M3 S0
G0 X33.0 Y24.0
M3 S255
G1 X33.0 Y24.0
M3 S255
G1 X29.6 Y24.0
M3 S0
G0 X28.8 Y24.0
M3 S255
G1 X28.8 Y24.0
M3 S255
G1 X26.0 Y24.0
M3 S0
G0 X25.6 Y24.0
M3 S255
G1 X25.6 Y24.0
M3 S255
G1 X22.8 Y24.0
M3 S0
G0 X22.6 Y24.0
M3 S255
G1 X22.6 Y24.0
M3 S255
G1 X22.4 Y24.0
M3 S0
G0 X22.0 Y24.0
M3 S255
G1 X22.0 Y24.0
M3 S255
G1 X15.8 Y24.0
M3 S0
G0 X13.0 Y24.0
M3 S255
G1 X13.0 Y24.0
M3 S255
G1 X10.0 Y24.0
M5 S0
G0 X10.0 Y24.2
M3 S255
G1 X13.0 Y24.2
M3 S0
G0 X15.8 Y24.2
M3 S255
G1 X15.8 Y24.2
M3 S255
G1 X17.6 Y24.2
M3 S0
G0 X17.8 Y24.2
M3 S255
G1 X17.8 Y24.2
M3 S255
G1 X18.0 Y24.2
M3 S0
G0 X18.4 Y24.2
M3 S255
G1 X18.4 Y24.2
M3 S255
G1 X21.0 Y24.2
M3 S0
G0 X21.2 Y24.2
M3 S255
G1 X21.2 Y24.2
M3 S255
G1 X22.0 Y24.2
M3 S0
G0 X22.2 Y24.2
M3 S255
G1 X22.2 Y24.2
M3 S255
G1 X22.6 Y24.2
M3 S0
G0 X22.8 Y24.2
M3 S255
G1 X22.8 Y24.2
M3 S255
G1 X25.6 Y24.2
M3 S0
G0 X25.8 Y24.2
M3 S255
G1 X25.8 Y24.2
M3 S255
G1 X28.2 Y24.2
M3 S0
G0 X28.4 Y24.2
M3 S255
G1 X28.4 Y24.2
M3 S255
G1 X28.8 Y24.2
M3 S0
G0 X29.6 Y24.2
M3 S255
G1 X29.6 Y24.2
M3 S255
G1 X32.6 Y24.2
M3 S0
G0 X37.8 Y24.2
M3 S255
G1 X37.8 Y24.2
M3 S255
G1 X38.2 Y24.2
M3 S0
G0 X39.0 Y24.2
M3 S255
G1 X39.0 Y24.2
M3 S255
G1 X39.6 Y24.2
M3 S0
G0 X42.8 Y24.2
M3 S255
G1 X42.8 Y24.2
M3 S255
G1 X46.0 Y24.2
M3 S0
G0 X46.8 Y24.2
M3 S255
G1 X46.8 Y24.2
M3 S255
G1 X48.0 Y24.2
M3 S0
M5 S0
G0 X48.0 Y24.4
M3 S255
G1 X48.0 Y24.4
M3 S255
G1 X46.8 Y24.4
M3 S0
G0 X46.0 Y24.4
M3 S255
G1 X46.0 Y24.4
M3 S255
G1 X43.0 Y24.4
M3 S0
G0 X39.4 Y24.4
M3 S255
G1 X39.4 Y24.4
M3 S255
G1 X38.8 Y24.4
M3 S0
G0 X38.4 Y24.4
M3 S255
G1 X38.4 Y24.4
M3 S255
G1 X37.8 Y24.4
M3 S0
G0 X32.6 Y24.4
M3 S255
G1 X32.6 Y24.4
M3 S255
G1 X29.6 Y24.4
M3 S0
G0 X29.0 Y24.4
M3 S255
G1 X29.0 Y24.4
M3 S255
G1 X28.4 Y24.4
M3 S0
G0 X28.2 Y24.4
M3 S255
G1 X28.2 Y24.4
M3 S255
G1 X26.8 Y24.4
M3 S0
G0 X26.4 Y24.4
M3 S255
G1 X26.4 Y24.4
M3 S255
G1 X21.2 Y24.4
M3 S0
G0 X21.0 Y24.4
M3 S255
G1 X21.0 Y24.4
M3 S255
G1 X18.4 Y24.4
M3 S0
G0 X18.2 Y24.4
M3 S255
G1 X18.2 Y24.4
M3 S255
G1 X15.8 Y24.4
M3 S0
G0 X13.0 Y24.4
M3 S255
G1 X13.0 Y24.4
M3 S255
G1 X10.0 Y24.4
M5 S0
G0 X10.0 Y24.6
M3 S255
G1 X12.8 Y24.6
M3 S0
G0 X15.8 Y24.6
M3 S255
G1 X15.8 Y24.6
M3 S255
G1 X17.2 Y24.6
M3 S0
G0 X17.8 Y24.6
M3 S255
G1 X17.8 Y24.6
M3 S255
G1 X21.2 Y24.6
M3 S0
G0 X21.4 Y24.6
M3 S255
G1 X21.4 Y24.6
M3 S255
G1 X21.6 Y24.6
M3 S0
G0 X21.8 Y24.6
M3 S255
G1 X21.8 Y24.6
M3 S255
G1 X22.4 Y24.6
M3 S0
G0 X22.6 Y24.6
M3 S255
G1 X22.6 Y24.6
M3 S255
G1 X26.4 Y24.6
M3 S0
G0 X26.8 Y24.6
M3 S255
G1 X26.8 Y24.6
M3 S255
G1 X28.4 Y24.6
M3 S0
G0 X28.6 Y24.6
M3 S255
G1 X28.6 Y24.6
M3 S255
G1 X29.0 Y24.6
M3 S0
G0 X29.8 Y24.6
M3 S255
G1 X29.8 Y24.6
M3 S255
G1 X32.2 Y24.6
M3 S0
G0 X32.4 Y24.6
M3 S255
G1 X32.4 Y24.6
M3 S255
G1 X32.8 Y24.6
M3 S0
G0 X38.6 Y24.6
M3 S255
G1 X38.6 Y24.6
M3 S255
G1 X39.6 Y24.6
M3 S0
G0 X43.0 Y24.6
M3 S255
G1 X43.0 Y24.6
M3 S255
G1 X46.0 Y24.6
M3 S0
G0 X46.8 Y24.6
M3 S255
G1 X46.8 Y24.6
M3 S255
G1 X48.2 Y24.6
M3 S0
M5 S0
G0 X48.2 Y24.8
M3 S255
G1 X48.2 Y24.8
M3 S255
G1 X46.8 Y24.8
M3 S0
G0 X45.8 Y24.8
M3 S255
G1 X45.8 Y24.8
M3 S255
G1 X43.2 Y24.8
M3 S0
G0 X39.6 Y24.8
M3 S255
G1 X39.6 Y24.8
M3 S255
G1 X39.0 Y24.8
M3 S0
G0 X32.4 Y24.8
M3 S255
G1 X32.4 Y24.8
M3 S255
G1 X30.0 Y24.8
M3 S0
G0 X29.0 Y24.8
M3 S255
G1 X29.0 Y24.8
M3 S255
G1 X28.6 Y24.8
M3 S0
G0 X28.4 Y24.8
M3 S255
G1 X28.4 Y24.8
M3 S255
G1 X26.8 Y24.8
M3 S0
G0 X26.2 Y24.8
M3 S255
G1 X26.2 Y24.8
M3 S255
G1 X22.6 Y24.8
M3 S0
G0 X22.4 Y24.8
M3 S255
G1 X22.4 Y24.8
M3 S255
G1 X21.4 Y24.8
M3 S0
G0 X21.2 Y24.8
M3 S255
G1 X21.2 Y24.8
M3 S255
G1 X19.6 Y24.8
M3 S0
G0 X19.4 Y24.8
M3 S255
G1 X19.4 Y24.8
M3 S255
G1 X18.6 Y24.8
M3 S0
G0 X18.4 Y24.8
M3 S255
G1 X18.4 Y24.8
M3 S255
G1 X18.2 Y24.8
M3 S0
G0 X17.6 Y24.8
M3 S255
G1 X17.6 Y24.8
M3 S255
G1 X17.2 Y24.8
M3 S0
G0 X17.0 Y24.8
M3 S255
G1 X17.0 Y24.8
M3 S255
G1 X16.0 Y24.8
M3 S0
G0 X12.8 Y24.8
M3 S255
G1 X12.8 Y24.8
M3 S255
G1 X10.0 Y24.8
M5 S0
G0 X10.0 Y25.0
M3 S255
G1 X12.8 Y25.0
M3 S0
G0 X15.8 Y25.0
M3 S255
G1 X15.8 Y25.0
M3 S255
G1 X17.0 Y25.0
M3 S0
G0 X17.2 Y25.0
M3 S255
G1 X17.2 Y25.0
M3 S255
G1 X18.0 Y25.0
M3 S0
G0 X18.6 Y25.0
M3 S255
G1 X18.6 Y25.0
M3 S255
G1 X19.4 Y25.0
M3 S0
G0 X19.8 Y25.0
M3 S255
G1 X19.8 Y25.0
M3 S255
G1 X21.8 Y25.0
M3 S0
G0 X22.2 Y25.0
M3 S255
G1 X22.2 Y25.0
M3 S255
G1 X26.4 Y25.0
M3 S0
G0 X26.8 Y25.0
M3 S255
G1 X26.8 Y25.0
M3 S255
G1 X27.2 Y25.0
M3 S0
G0 X27.6 Y25.0
M3 S255
G1 X27.6 Y25.0
M3 S255
G1 X28.6 Y25.0
M3 S0
G0 X28.8 Y25.0
M3 S255
G1 X28.8 Y25.0
M3 S255
G1 X29.2 Y25.0
M3 S0
G0 X30.2 Y25.0
M3 S255
G1 X30.2 Y25.0
M3 S255
G1 X32.4 Y25.0
M3 S0
G0 X32.6 Y25.0
M3 S255
G1 X32.6 Y25.0
M3 S255
G1 X32.8 Y25.0
M3 S0
G0 X38.8 Y25.0
M3 S255
G1 X38.8 Y25.0
M3 S255
G1 X39.4 Y25.0
M3 S0
G0 X43.0 Y25.0
M3 S255
G1 X43.0 Y25.0
M3 S255
G1 X45.8 Y25.0
M3 S0
G0 X46.2 Y25.0
M3 S255
G1 X46.2 Y25.0
M3 S255
G1 X46.4 Y25.0
M3 S0
G0 X46.6 Y25.0
M3 S255
G1 X46.6 Y25.0
M3 S255
G1 X48.2 Y25.0
M3 S0
M5 S0
G0 X48.2 Y25.2
M3 S255
G1 X48.2 Y25.2
M3 S255
G1 X46.6 Y25.2
M3 S0
G0 X45.8 Y25.2
M3 S255
G1 X45.8 Y25.2
M3 S255
G1 X43.2 Y25.2
M3 S0
G0 X39.4 Y25.2
M3 S255
G1 X39.4 Y25.2
M3 S255
G1 X38.8 Y25.2
M3 S0
G0 X32.8 Y25.2
M3 S255
G1 X32.8 Y25.2
M3 S255
G1 X32.6 Y25.2
M3 S0
G0 X32.2 Y25.2
M3 S255
G1 X32.2 Y25.2
M3 S255
G1 X30.2 Y25.2
M3 S0
G0 X29.2 Y25.2
M3 S255
G1 X29.2 Y25.2
M3 S255
G1 X28.8 Y25.2
M3 S0
G0 X28.6 Y25.2
M3 S255
G1 X28.6 Y25.2
M3 S255
G1 X27.4 Y25.2
M3 S0
G0 X27.2 Y25.2
M3 S255
G1 X27.2 Y25.2
M3 S255
G1 X26.6 Y25.2
M3 S0
G0 X26.4 Y25.2
M3 S255
G1 X26.4 Y25.2
M3 S255
G1 X22.4 Y25.2
M3 S0
G0 X22.0 Y25.2
M3 S255
G1 X22.0 Y25.2
M3 S255
G1 X20.4 Y25.2
M3 S0
G0 X20.2 Y25.2
M3 S255
G1 X20.2 Y25.2
M3 S255
G1 X19.8 Y25.2
M3 S0
G0 X19.6 Y25.2
M3 S255
G1 X19.6 Y25.2
M3 S255
G1 X18.8 Y25.2
M3 S0
G0 X18.2 Y25.2
M3 S255
G1 X18.2 Y25.2
M3 S255
G1 X17.2 Y25.2
M3 S0
G0 X17.0 Y25.2
M3 S255
G1 X17.0 Y25.2
M3 S255
G1 X16.0 Y25.2
M3 S0
G0 X12.8 Y25.2
M3 S255
G1 X12.8 Y25.2
M3 S255
G1 X10.0 Y25.2
M5 S0
G0 X10.0 Y25.4
M3 S255
G1 X12.8 Y25.4
M3 S0
G0 X16.0 Y25.4
M3 S255
G1 X16.0 Y25.4
M3 S255
G1 X18.8 Y25.4
M3 S0
G0 X19.2 Y25.4
M3 S255
G1 X19.2 Y25.4
M3 S255
G1 X26.8 Y25.4
M3 S0
G0 X27.2 Y25.4
M3 S255
G1 X27.2 Y25.4
M3 S255
G1 X28.8 Y25.4
M3 S0
G0 X29.0 Y25.4
M3 S255
G1 X29.0 Y25.4
M3 S255
G1 X29.4 Y25.4
M3 S0
G0 X30.4 Y25.4
M3 S255
G1 X30.4 Y25.4
M3 S255
G1 X32.6 Y25.4
M3 S0
G0 X39.0 Y25.4
M3 S255
G1 X39.0 Y25.4
M3 S255
G1 X39.2 Y25.4
M3 S0
G0 X43.0 Y25.4
M3 S255
G1 X43.0 Y25.4
M3 S255
G1 X45.8 Y25.4
M3 S0
G0 X46.6 Y25.4
M3 S255
G1 X46.6 Y25.4
M3 S255
G1 X48.4 Y25.4
M3 S0
M5 S0
G0 X48.4 Y25.6
M3 S255
G1 X48.4 Y25.6
M3 S255
G1 X46.6 Y25.6
M3 S0
G0 X45.8 Y25.6
M3 S255
G1 X45.8 Y25.6
M3 S255
G1 X42.8 Y25.6
M3 S0
G0 X39.2 Y25.6
M3 S255
G1 X39.2 Y25.6
M3 S255
G1 X39.0 Y25.6
M3 S0
G0 X32.4 Y25.6
M3 S255
G1 X32.4 Y25.6
M3 S255
G1 X30.4 Y25.6
M3 S0
G0 X29.4 Y25.6
M3 S255
G1 X29.4 Y25.6
M3 S255
G1 X29.0 Y25.6
M3 S0
G0 X28.8 Y25.6
M3 S255
G1 X28.8 Y25.6
M3 S255
G1 X27.0 Y25.6
M3 S0
G0 X26.8 Y25.6
M3 S255
G1 X26.8 Y25.6
M3 S255
G1 X26.6 Y25.6
M3 S0
G0 X26.4 Y25.6
M3 S255
G1 X26.4 Y25.6
M3 S255
G1 X22.0 Y25.6
M3 S0
G0 X21.8 Y25.6
M3 S255
G1 X21.8 Y25.6
M3 S255
G1 X16.0 Y25.6
M3 S0
G0 X12.8 Y25.6
M3 S255
G1 X12.8 Y25.6
M3 S255
G1 X10.0 Y25.6
M5 S0
G0 X10.0 Y25.8
M3 S255
G1 X12.8 Y25.8
M3 S0
G0 X15.8 Y25.8
M3 S255
G1 X15.8 Y25.8
M3 S255
G1 X18.4 Y25.8
M3 S0
G0 X18.6 Y25.8
M3 S255
G1 X18.6 Y25.8
M3 S255
G1 X21.8 Y25.8
M3 S0
G0 X22.2 Y25.8
M3 S255
G1 X22.2 Y25.8
M3 S255
G1 X26.4 Y25.8
M3 S0
G0 X26.8 Y25.8
M3 S255
G1 X26.8 Y25.8
M3 S255
G1 X29.0 Y25.8
M3 S0
G0 X29.2 Y25.8
M3 S255
G1 X29.2 Y25.8
M3 S255
G1 X29.6 Y25.8
M3 S0
G0 X30.6 Y25.8
M3 S255
G1 X30.6 Y25.8
M3 S255
G1 X32.4 Y25.8
M3 S0
G0 X32.6 Y25.8
M3 S255
G1 X32.6 Y25.8
M3 S255
G1 X32.8 Y25.8
M3 S0
G0 X39.0 Y25.8
M3 S255
G1 X39.0 Y25.8
M3 S255
G1 X39.2 Y25.8
M3 S0
G0 X43.2 Y25.8
M3 S255
G1 X43.2 Y25.8
M3 S255
G1 X45.8 Y25.8
M3 S0
G0 X46.6 Y25.8
M3 S255
G1 X46.6 Y25.8
M3 S255
G1 X48.4 Y25.8
M3 S0
M5 S0
G0 X48.6 Y26.0
M3 S255
G1 X48.6 Y26.0
M3 S255
G1 X46.4 Y26.0
M3 S0
G0 X45.8 Y26.0
M3 S255
G1 X45.8 Y26.0
M3 S255
G1 X43.0 Y26.0
M3 S0
G0 X39.4 Y26.0
M3 S255
G1 X39.4 Y26.0
M3 S255
G1 X39.2 Y26.0
M3 S0
G0 X32.8 Y26.0
M3 S255
G1 X32.8 Y26.0
M3 S255
G1 X30.8 Y26.0
M3 S0
G0 X29.6 Y26.0
M3 S255
G1 X29.6 Y26.0
M3 S255
G1 X29.2 Y26.0
M3 S0
G0 X29.0 Y26.0
M3 S255
G1 X29.0 Y26.0
M3 S255
G1 X26.6 Y26.0
M3 S0
G0 X26.4 Y26.0
M3 S255
G1 X26.4 Y26.0
M3 S255
G1 X22.0 Y26.0
M3 S0
G0 X21.8 Y26.0
M3 S255
G1 X21.8 Y26.0
M3 S255
G1 X19.0 Y26.0
M3 S0
G0 X18.8 Y26.0
M3 S255
G1 X18.8 Y26.0
M3 S255
G1 X18.6 Y26.0
M3 S0
G0 X18.4 Y26.0
M3 S255
G1 X18.4 Y26.0
M3 S255
G1 X17.8 Y26.0
M3 S0
G0 X17.6 Y26.0
M3 S255
G1 X17.6 Y26.0
M3 S255
G1 X15.8 Y26.0
M3 S0
G0 X12.8 Y26.0
M3 S255
G1 X12.8 Y26.0
M3 S255
G1 X10.0 Y26.0
M5 S0
G0 X10.0 Y26.2
M3 S255
G1 X13.0 Y26.2
M3 S0
G0 X16.0 Y26.2
M3 S255
G1 X16.0 Y26.2
M3 S255
G1 X17.8 Y26.2
M3 S0
G0 X18.6 Y26.2
M3 S255
G1 X18.6 Y26.2
M3 S255
G1 X18.8 Y26.2
M3 S0
G0 X19.2 Y26.2
M3 S255
G1 X19.2 Y26.2
M3 S255
G1 X22.2 Y26.2
M3 S0
G0 X22.6 Y26.2
M3 S255
G1 X22.6 Y26.2
M3 S255
G1 X25.4 Y26.2
M3 S0
G0 X25.6 Y26.2
M3 S255
G1 X25.6 Y26.2
M3 S255
G1 X26.4 Y26.2
M3 S0
G0 X26.6 Y26.2
M3 S255
G1 X26.6 Y26.2
M3 S255
G1 X29.2 Y26.2
M3 S0
G0 X29.4 Y26.2
M3 S255
G1 X29.4 Y26.2
M3 S255
G1 X29.8 Y26.2
M3 S0
G0 X30.8 Y26.2
M3 S255
G1 X30.8 Y26.2
M3 S255
G1 X32.6 Y26.2
M3 S0
G0 X39.0 Y26.2
M3 S255
G1 X39.0 Y26.2
M3 S255
G1 X39.2 Y26.2
M3 S0
G0 X43.2 Y26.2
M3 S255
G1 X43.2 Y26.2
M3 S255
G1 X45.8 Y26.2
M3 S0
G0 X46.4 Y26.2
M3 S255
G1 X46.4 Y26.2
M3 S255
G1 X48.6 Y26.2
M3 S0
M5 S0
G0 X48.6 Y26.4
M3 S255
G1 X48.6 Y26.4
M3 S255
G1 X46.4 Y26.4
M3 S0
G0 X45.8 Y26.4
M3 S255
G1 X45.8 Y26.4
M3 S255
G1 X42.8 Y26.4
M3 S0
G0 X39.2 Y26.4
M3 S255
G1 X39.2 Y26.4
M3 S255
G1 X38.8 Y26.4
M3 S0
G0 X32.8 Y26.4
M3 S255
G1 X32.8 Y26.4
M3 S255
G1 X31.0 Y26.4
M3 S0
G0 X29.8 Y26.4
M3 S255
G1 X29.8 Y26.4
M3 S255
G1 X29.4 Y26.4
M3 S0
G0 X29.2 Y26.4
M3 S255
G1 X29.2 Y26.4
M3 S255
G1 X26.6 Y26.4
M3 S0
G0 X26.4 Y26.4
M3 S255
G1 X26.4 Y26.4
M3 S255
G1 X26.0 Y26.4
M3 S0
G0 X25.8 Y26.4
M3 S255
G1 X25.8 Y26.4
M3 S255
G1 X22.8 Y26.4
M3 S0
G0 X22.6 Y26.4
M3 S255
G1 X22.6 Y26.4
M3 S255
G1 X19.6 Y26.4
M3 S0
G0 X18.2 Y26.4
M3 S255
G1 X18.2 Y26.4
M3 S255
G1 X15.8 Y26.4
M3 S0
G0 X12.8 Y26.4
M3 S255
G1 X12.8 Y26.4
M3 S255
G1 X10.0 Y26.4
M5 S0
G0 X10.0 Y26.6
M3 S255
G1 X12.8 Y26.6
M3 S0
G0 X16.0 Y26.6
M3 S255
G1 X16.0 Y26.6
M3 S255
G1 X19.2 Y26.6
M3 S0
G0 X20.2 Y26.6
M3 S255
G1 X20.2 Y26.6
M3 S255
G1 X22.0 Y26.6
M3 S0
G0 X22.2 Y26.6
M3 S255
G1 X22.2 Y26.6
M3 S255
G1 X22.8 Y26.6
M3 S0
G0 X23.0 Y26.6
M3 S255
G1 X23.0 Y26.6
M3 S255
G1 X25.8 Y26.6
M3 S0
G0 X26.2 Y26.6
M3 S255
G1 X26.2 Y26.6
M3 S255
G1 X29.4 Y26.6
M3 S0
G0 X29.6 Y26.6
M3 S255
G1 X29.6 Y26.6
M3 S255
G1 X30.0 Y26.6
M3 S0
G0 X31.2 Y26.6
M3 S255
G1 X31.2 Y26.6
M3 S255
G1 X32.6 Y26.6
M3 S0
G0 X39.0 Y26.6
M3 S255
G1 X39.0 Y26.6
M3 S255
G1 X39.4 Y26.6
M3 S0
G0 X42.8 Y26.6
M3 S255
G1 X42.8 Y26.6
M3 S255
G1 X45.8 Y26.6
M3 S0
G0 X46.4 Y26.6
M3 S255
G1 X46.4 Y26.6
M3 S255
G1 X48.8 Y26.6
M3 S0
M5 S0
G0 X48.8 Y26.8
M3 S255
G1 X48.8 Y26.8
M3 S255
G1 X46.4 Y26.8
M3 S0
G0 X45.6 Y26.8
M3 S255
G1 X45.6 Y26.8
M3 S255
G1 X42.8 Y26.8
M3 S0
G0 X32.8 Y26.8
M3 S255
G1 X32.8 Y26.8
M3 S255
G1 X31.4 Y26.8
M3 S0
G0 X30.0 Y26.8
M3 S255
G1 X30.0 Y26.8
M3 S255
G1 X29.6 Y26.8
M3 S0
G0 X29.4 Y26.8
M3 S255
G1 X29.4 Y26.8
M3 S255
G1 X26.4 Y26.8
M3 S0
G0 X26.2 Y26.8
M3 S255
G1 X26.2 Y26.8
M3 S255
G1 X25.4 Y26.8
M3 S0
G0 X25.2 Y26.8
M3 S255
G1 X25.2 Y26.8
M3 S255
G1 X19.0 Y26.8
M3 S0
G0 X18.8 Y26.8
M3 S255
G1 X18.8 Y26.8
M3 S255
G1 X16.0 Y26.8
M3 S0
G0 X12.8 Y26.8
M3 S255
G1 X12.8 Y26.8
M3 S255
G1 X10.0 Y26.8
M5 S0
G0 X10.0 Y27.0
M3 S255
G1 X12.8 Y27.0
M3 S0
G0 X15.8 Y27.0
M3 S255
G1 X15.8 Y27.0
M3 S255
G1 X18.8 Y27.0
M3 S0
G0 X19.4 Y27.0
M3 S255
G1 X19.4 Y27.0
M3 S255
G1 X25.0 Y27.0
M3 S0
G0 X25.2 Y27.0
M3 S255
G1 X25.2 Y27.0
M3 S255
G1 X29.6 Y27.0
M3 S0
G0 X29.8 Y27.0
M3 S255
G1 X29.8 Y27.0
M3 S255
G1 X30.2 Y27.0
M3 S0
G0 X31.6 Y27.0
M3 S255
G1 X31.6 Y27.0
M3 S255
G1 X32.6 Y27.0
M3 S0
G0 X39.0 Y27.0
M3 S255
G1 X39.0 Y27.0
M3 S255
G1 X39.2 Y27.0
M3 S0
G0 X42.6 Y27.0
M3 S255
G1 X42.6 Y27.0
M3 S255
G1 X45.6 Y27.0
M3 S0
G0 X46.4 Y27.0
M3 S255
G1 X46.4 Y27.0
M3 S255
G1 X48.8 Y27.0
M3 S0
M5 S0
G0 X48.8 Y27.2
M3 S255
G1 X48.8 Y27.2
M3 S255
G1 X46.4 Y27.2
M3 S0
G0 X45.6 Y27.2
M3 S255
G1 X45.6 Y27.2
M3 S255
G1 X42.2 Y27.2
M3 S0
G0 X39.0 Y27.2
M3 S255
G1 X39.0 Y27.2
M3 S255
G1 X38.8 Y27.2
M3 S0
G0 X32.8 Y27.2
M3 S255
G1 X32.8 Y27.2
M3 S255
G1 X31.6 Y27.2
M3 S0
G0 X30.2 Y27.2
M3 S255
G1 X30.2 Y27.2
M3 S255
G1 X30.0 Y27.2
M3 S0
G0 X29.8 Y27.2
M3 S255
G1 X29.8 Y27.2
M3 S255
G1 X26.2 Y27.2
M3 S0
G0 X26.0 Y27.2
M3 S255
G1 X26.0 Y27.2
M3 S255
G1 X22.8 Y27.2
M3 S0
G0 X22.4 Y27.2
M3 S255
G1 X22.4 Y27.2
M3 S255
G1 X19.6 Y27.2
M3 S0
G0 X18.6 Y27.2
M3 S255
G1 X18.6 Y27.2
M3 S255
G1 X16.0 Y27.2
M3 S0
G0 X12.8 Y27.2
M3 S255
G1 X12.8 Y27.2
M3 S255
G1 X10.0 Y27.2
M5 S0
G0 X10.0 Y27.4
M3 S255
G1 X12.8 Y27.4
M3 S0
G0 X16.0 Y27.4
M3 S255
G1 X16.0 Y27.4
M3 S255
G1 X18.6 Y27.4
M3 S0
G0 X20.0 Y27.4
M3 S255
G1 X20.0 Y27.4
M3 S255
G1 X22.4 Y27.4
M3 S0
G0 X22.6 Y27.4
M3 S255
G1 X22.6 Y27.4
M3 S255
G1 X22.8 Y27.4
M3 S0
G0 X23.0 Y27.4
M3 S255
G1 X23.0 Y27.4
M3 S255
G1 X25.8 Y27.4
M3 S0
G0 X26.4 Y27.4
M3 S255
G1 X26.4 Y27.4
M3 S255
G1 X29.8 Y27.4
M3 S0
G0 X30.0 Y27.4
M3 S255
G1 X30.0 Y27.4
M3 S255
G1 X30.4 Y27.4
M3 S0
G0 X31.8 Y27.4
M3 S255
G1 X31.8 Y27.4
M3 S255
G1 X32.6 Y27.4
M3 S0
G0 X38.0 Y27.4
M3 S255
G1 X38.0 Y27.4
M3 S255
G1 X38.2 Y27.4
M3 S0
G0 X39.0 Y27.4
M3 S255
G1 X39.0 Y27.4
M3 S255
G1 X39.2 Y27.4
M3 S0
G0 X42.2 Y27.4
M3 S255
G1 X42.2 Y27.4
M3 S255
G1 X45.6 Y27.4
M3 S0
G0 X46.2 Y27.4
M3 S255
G1 X46.2 Y27.4
M3 S255
G1 X49.0 Y27.4
M3 S0
M5 S0
G0 X49.0 Y27.6
M3 S255
G1 X49.0 Y27.6
M3 S255
G1 X46.2 Y27.6
M3 S0
G0 X45.6 Y27.6
M3 S255
G1 X45.6 Y27.6
M3 S255
G1 X41.8 Y27.6
M3 S0
G0 X39.2 Y27.6
M3 S255
G1 X39.2 Y27.6
M3 S255
G1 X39.0 Y27.6
M3 S0
G0 X38.4 Y27.6
M3 S255
G1 X38.4 Y27.6
M3 S255
G1 X38.0 Y27.6
M3 S0
G0 X36.4 Y27.6
M3 S255
G1 X36.4 Y27.6
M3 S255
G1 X36.2 Y27.6
M3 S0
G0 X36.0 Y27.6
M3 S255
G1 X36.0 Y27.6
M3 S255
G1 X35.4 Y27.6
M3 S0
G0 X32.8 Y27.6
M3 S255
G1 X32.8 Y27.6
M3 S255
G1 X32.0 Y27.6
M3 S0
G0 X30.4 Y27.6
M3 S255
G1 X30.4 Y27.6
M3 S255
G1 X30.2 Y27.6
M3 S0
G0 X30.0 Y27.6
M3 S255
G1 X30.0 Y27.6
M3 S255
G1 X22.4 Y27.6
M3 S0
G0 X22.2 Y27.6
M3 S255
G1 X22.2 Y27.6
M3 S255
G1 X20.2 Y27.6
M3 S0
G0 X20.0 Y27.6
M3 S255
G1 X20.0 Y27.6
M3 S255
G1 X19.8 Y27.6
M3 S0
G0 X19.2 Y27.6
M3 S255
G1 X19.2 Y27.6
M3 S255
G1 X15.8 Y27.6
M3 S0
G0 X12.8 Y27.6
M3 S255
G1 X12.8 Y27.6
M3 S255
G1 X10.0 Y27.6
M5 S0
G0 X10.0 Y27.8
M3 S255
G1 X12.8 Y27.8
M3 S0
G0 X16.0 Y27.8
M3 S255
G1 X16.0 Y27.8
M3 S255
G1 X18.4 Y27.8
M3 S0
G0 X18.6 Y27.8
M3 S255
G1 X18.6 Y27.8
M3 S255
G1 X19.6 Y27.8
M3 S0
G0 X21.0 Y27.8
M3 S255
G1 X21.0 Y27.8
M3 S255
G1 X25.4 Y27.8
M3 S0
G0 X25.6 Y27.8
M3 S255
G1 X25.6 Y27.8
M3 S255
G1 X25.8 Y27.8
M3 S0
G0 X26.0 Y27.8
M3 S255
G1 X26.0 Y27.8
M3 S255
G1 X30.0 Y27.8
M3 S0
G0 X30.2 Y27.8
M3 S255
G1 X30.2 Y27.8
M3 S255
G1 X30.6 Y27.8
M3 S0
G0 X32.2 Y27.8
M3 S255
G1 X32.2 Y27.8
M3 S255
G1 X33.0 Y27.8
M3 S0
G0 X35.0 Y27.8
M3 S255
G1 X35.0 Y27.8
M3 S255
G1 X35.8 Y27.8
M3 S0
G0 X36.2 Y27.8
M3 S255
G1 X36.2 Y27.8
M3 S255
G1 X36.4 Y27.8
M3 S0
G0 X36.6 Y27.8
M3 S255
G1 X36.6 Y27.8
M3 S255
G1 X36.8 Y27.8
M3 S0
G0 X38.0 Y27.8
M3 S255
G1 X38.0 Y27.8
M3 S255
G1 X38.6 Y27.8
M3 S0
G0 X41.8 Y27.8
M3 S255
G1 X41.8 Y27.8
M3 S255
G1 X42.0 Y27.8
M3 S0
G0 X42.2 Y27.8
M3 S255
G1 X42.2 Y27.8
M3 S255
G1 X45.6 Y27.8
M3 S0
G0 X46.2 Y27.8
M3 S255
G1 X46.2 Y27.8
M3 S255
G1 X49.2 Y27.8
M3 S0
M5 S0
G0 X49.2 Y28.0
M3 S255
G1 X49.2 Y28.0
M3 S255
G1 X46.2 Y28.0
M3 S0
G0 X45.6 Y28.0
M3 S255
G1 X45.6 Y28.0
M3 S255
G1 X42.8 Y28.0
M3 S0
G0 X41.4 Y28.0
M3 S255
G1 X41.4 Y28.0
M3 S255
G1 X40.8 Y28.0
M3 S0
G0 X39.2 Y28.0
M3 S255
G1 X39.2 Y28.0
M3 S255
G1 X39.0 Y28.0
M3 S0
G0 X38.8 Y28.0
M3 S255
G1 X38.8 Y28.0
M3 S255
G1 X38.2 Y28.0
M3 S0
G0 X35.4 Y28.0
M3 S255
G1 X35.4 Y28.0
M3 S255
G1 X34.6 Y28.0
M3 S0
G0 X33.2 Y28.0
M3 S255
G1 X33.2 Y28.0
M3 S255
G1 X32.4 Y28.0
M3 S0
G0 X30.6 Y28.0
M3 S255
G1 X30.6 Y28.0
M3 S255
G1 X30.4 Y28.0
M3 S0
G0 X30.2 Y28.0
M3 S255
G1 X30.2 Y28.0
M3 S255
G1 X25.6 Y28.0
M3 S0
G0 X25.4 Y28.0
M3 S255
G1 X25.4 Y28.0
M3 S255
G1 X23.0 Y28.0
M3 S0
G0 X22.8 Y28.0
M3 S255
G1 X22.8 Y28.0
M3 S255
G1 X21.2 Y28.0
M3 S0
G0 X19.6 Y28.0
M3 S255
G1 X19.6 Y28.0
M3 S255
G1 X16.0 Y28.0
M3 S0
G0 X12.8 Y28.0
M3 S255
G1 X12.8 Y28.0
M3 S255
G1 X10.0 Y28.0
M5 S0
G0 X10.0 Y28.2
M3 S255
G1 X12.8 Y28.2
M3 S0
G0 X15.8 Y28.2
M3 S255
G1 X15.8 Y28.2
M3 S255
G1 X20.2 Y28.2
M3 S0
G0 X21.6 Y28.2
M3 S255
G1 X21.6 Y28.2
M3 S255
G1 X26.0 Y28.2
M3 S0
G0 X26.2 Y28.2
M3 S255
G1 X26.2 Y28.2
M3 S255
G1 X30.2 Y28.2
M3 S0
G0 X30.4 Y28.2
M3 S255
G1 X30.4 Y28.2
M3 S255
G1 X30.6 Y28.2
M3 S0
G0 X32.6 Y28.2
M3 S255
G1 X32.6 Y28.2
M3 S255
G1 X33.6 Y28.2
M3 S0
G0 X34.4 Y28.2
M3 S255
G1 X34.4 Y28.2
M3 S255
G1 X35.2 Y28.2
M3 S0
G0 X37.6 Y28.2
M3 S255
G1 X37.6 Y28.2
M3 S255
G1 X38.0 Y28.2
M3 S0
G0 X38.2 Y28.2
M3 S255
G1 X38.2 Y28.2
M3 S255
G1 X38.8 Y28.2
M3 S0
G0 X40.6 Y28.2
M3 S255
G1 X40.6 Y28.2
M3 S255
G1 X41.2 Y28.2
M3 S0
G0 X41.6 Y28.2
M3 S255
G1 X41.6 Y28.2
M3 S255
G1 X42.0 Y28.2
M3 S0
G0 X43.0 Y28.2
M3 S255
G1 X43.0 Y28.2
M3 S255
G1 X45.6 Y28.2
M3 S0
G0 X46.2 Y28.2
M3 S255
G1 X46.2 Y28.2
M3 S255
G1 X49.2 Y28.2
M3 S0
M5 S0
G0 X58.6 Y28.4
M3 S255
G1 X58.6 Y28.4
M3 S255
G1 X58.4 Y28.4
M3 S0
G0 X49.2 Y28.4
M3 S255
G1 X49.2 Y28.4
M3 S255
G1 X46.2 Y28.4
M3 S0
G0 X45.6 Y28.4
M3 S255
G1 X45.6 Y28.4
M3 S255
G1 X43.0 Y28.4
M3 S0
G0 X42.4 Y28.4
M3 S255
G1 X42.4 Y28.4
M3 S255
G1 X41.4 Y28.4
M3 S0
G0 X41.0 Y28.4
M3 S255
G1 X41.0 Y28.4
M3 S255
G1 X40.6 Y28.4
M3 S0
G0 X39.0 Y28.4
M3 S255
G1 X39.0 Y28.4
M3 S255
G1 X37.6 Y28.4
M3 S0
G0 X36.0 Y28.4
M3 S255
G1 X36.0 Y28.4
M3 S255
G1 X33.8 Y28.4
M3 S0
G0 X33.6 Y28.4
M3 S255
G1 X33.6 Y28.4
M3 S255
G1 X32.8 Y28.4
M3 S0
G0 X30.8 Y28.4
M3 S255
G1 X30.8 Y28.4
M3 S255
G1 X30.6 Y28.4
M3 S0
G0 X30.4 Y28.4
M3 S255
G1 X30.4 Y28.4
M3 S255
G1 X21.8 Y28.4
M3 S0
G0 X20.4 Y28.4
M3 S255
G1 X20.4 Y28.4
M3 S255
G1 X15.8 Y28.4
M3 S0
G0 X12.8 Y28.4
M3 S255
G1 X12.8 Y28.4
M3 S255
G1 X10.0 Y28.4
M5 S0
G0 X10.0 Y28.6
M3 S255
G1 X12.8 Y28.6
M3 S0
G0 X15.8 Y28.6
M3 S255
G1 X15.8 Y28.6
M3 S255
G1 X20.4 Y28.6
M3 S0
G0 X20.6 Y28.6
M3 S255
G1 X20.6 Y28.6
M3 S255
G1 X21.0 Y28.6
M3 S0
G0 X22.0 Y28.6
M3 S255
G1 X22.0 Y28.6
M3 S255
G1 X25.4 Y28.6
M3 S0
G0 X25.6 Y28.6
M3 S255
G1 X25.6 Y28.6
M3 S255
G1 X31.0 Y28.6
M3 S0
G0 X33.0 Y28.6
M3 S255
G1 X33.0 Y28.6
M3 S255
G1 X36.2 Y28.6
M3 S0
G0 X37.4 Y28.6
M3 S255
G1 X37.4 Y28.6
M3 S255
G1 X39.0 Y28.6
M3 S0
G0 X40.8 Y28.6
M3 S255
G1 X40.8 Y28.6
M3 S255
G1 X42.6 Y28.6
M3 S0
G0 X43.0 Y28.6
M3 S255
G1 X43.0 Y28.6
M3 S255
G1 X45.6 Y28.6
M3 S0
G0 X46.2 Y28.6
M3 S255
G1 X46.2 Y28.6
M3 S255
G1 X49.4 Y28.6
M3 S0
G0 X58.6 Y28.6
M3 S255
G1 X58.6 Y28.6
M3 S255
G1 X59.0 Y28.6
M3 S0
M5 S0
G0 X49.4 Y28.8
M3 S255
G1 X49.4 Y28.8
M3 S255
G1 X46.0 Y28.8
M3 S0
G0 X45.6 Y28.8
M3 S255
G1 X45.6 Y28.8
M3 S255
G1 X43.0 Y28.8
M3 S0
G0 X42.6 Y28.8
M3 S255
G1 X42.6 Y28.8
M3 S255
G1 X40.8 Y28.8
M3 S0
G0 X38.8 Y28.8
M3 S255
G1 X38.8 Y28.8
M3 S255
G1 X37.4 Y28.8
M3 S0
G0 X36.4 Y28.8
M3 S255
G1 X36.4 Y28.8
M3 S255
G1 X33.2 Y28.8
M3 S0
G0 X31.0 Y28.8
M3 S255
G1 X31.0 Y28.8
M3 S255
G1 X30.8 Y28.8
M3 S0
G0 X30.6 Y28.8
M3 S255
G1 X30.6 Y28.8
M3 S255
G1 X25.6 Y28.8
M3 S0
G0 X25.4 Y28.8
M3 S255
G1 X25.4 Y28.8
M3 S255
G1 X22.4 Y28.8
M3 S0
G0 X22.2 Y28.8
M3 S255
G1 X22.2 Y28.8
M3 S255
G1 X22.0 Y28.8
M3 S0
G0 X20.2 Y28.8
M3 S255
G1 X20.2 Y28.8
M3 S255
G1 X15.8 Y28.8
M3 S0
G0 X12.8 Y28.8
M3 S255
G1 X12.8 Y28.8
M3 S255
G1 X10.0 Y28.8
M5 S0
G0 X10.0 Y29.0
M3 S255
G1 X12.8 Y29.0
M3 S0
G0 X15.8 Y29.0
M3 S255
G1 X15.8 Y29.0
M3 S255
G1 X20.2 Y29.0
M3 S0
G0 X22.6 Y29.0
M3 S255
G1 X22.6 Y29.0
M3 S255
G1 X30.6 Y29.0
M3 S0
G0 X30.8 Y29.0
M3 S255
G1 X30.8 Y29.0
M3 S255
G1 X31.2 Y29.0
M3 S0
G0 X33.4 Y29.0
M3 S255
G1 X33.4 Y29.0
M3 S255
G1 X36.4 Y29.0
M3 S0
G0 X37.2 Y29.0
M3 S255
G1 X37.2 Y29.0
M3 S255
G1 X38.6 Y29.0
M3 S0
G0 X41.0 Y29.0
M3 S255
G1 X41.0 Y29.0
M3 S255
G1 X42.2 Y29.0
M3 S0
G0 X42.4 Y29.0
M3 S255
G1 X42.4 Y29.0
M3 S255
G1 X42.6 Y29.0
M3 S0
G0 X43.0 Y29.0
M3 S255
G1 X43.0 Y29.0
M3 S255
G1 X45.6 Y29.0
M3 S0
G0 X46.0 Y29.0
M3 S255
G1 X46.0 Y29.0
M3 S255
G1 X49.4 Y29.0
M3 S0
M5 S0
G0 X49.6 Y29.2
M3 S255
G1 X49.6 Y29.2
M3 S255
G1 X46.0 Y29.2
M3 S0
G0 X45.6 Y29.2
M3 S255
G1 X45.6 Y29.2
M3 S255
G1 X42.8 Y29.2
M3 S0
G0 X42.6 Y29.2
M3 S255
G1 X42.6 Y29.2
M3 S255
G1 X41.0 Y29.2
M3 S0
G0 X38.8 Y29.2
M3 S255
G1 X38.8 Y29.2
M3 S255
G1 X38.4 Y29.2
M3 S0
G0 X38.0 Y29.2
M3 S255
G1 X38.0 Y29.2
M3 S255
G1 X36.8 Y29.2
M3 S0
G0 X36.2 Y29.2
M3 S255
G1 X36.2 Y29.2
M3 S255
G1 X33.6 Y29.2
M3 S0
G0 X31.2 Y29.2
M3 S255
G1 X31.2 Y29.2
M3 S255
G1 X31.0 Y29.2
M3 S0
G0 X30.8 Y29.2
M3 S255
G1 X30.8 Y29.2
M3 S255
G1 X27.8 Y29.2
M3 S0
G0 X27.6 Y29.2
M3 S255
G1 X27.6 Y29.2
M3 S255
G1 X26.2 Y29.2
M3 S0
G0 X26.0 Y29.2
M3 S255
G1 X26.0 Y29.2
M3 S255
G1 X22.4 Y29.2
M3 S0
G0 X21.2 Y29.2
M3 S255
G1 X21.2 Y29.2
M3 S255
G1 X21.0 Y29.2
M3 S0
G0 X20.2 Y29.2
M3 S255
G1 X20.2 Y29.2
M3 S255
G1 X15.8 Y29.2
M3 S0
G0 X12.8 Y29.2
M3 S255
G1 X12.8 Y29.2
M3 S255
G1 X10.0 Y29.2
M5 S0
G0 X10.0 Y29.4
M3 S255
G1 X12.8 Y29.4
M3 S0
G0 X15.8 Y29.4
M3 S255
G1 X15.8 Y29.4
M3 S255
G1 X20.4 Y29.4
M3 S0
G0 X21.0 Y29.4
M3 S255
G1 X21.0 Y29.4
M3 S255
G1 X21.2 Y29.4
M3 S0
G0 X22.6 Y29.4
M3 S255
G1 X22.6 Y29.4
M3 S255
G1 X24.8 Y29.4
M3 S0
G0 X25.0 Y29.4
M3 S255
G1 X25.0 Y29.4
M3 S255
G1 X26.0 Y29.4
M3 S0
G0 X26.2 Y29.4
M3 S255
G1 X26.2 Y29.4
M3 S255
G1 X27.6 Y29.4
M3 S0
G0 X27.8 Y29.4
M3 S255
G1 X27.8 Y29.4
M3 S255
G1 X30.8 Y29.4
M3 S0
G0 X31.2 Y29.4
M3 S255
G1 X31.2 Y29.4
M3 S255
G1 X31.4 Y29.4
M3 S0
G0 X33.8 Y29.4
M3 S255
G1 X33.8 Y29.4
M3 S255
G1 X38.0 Y29.4
M3 S0
G0 X38.4 Y29.4
M3 S255
G1 X38.4 Y29.4
M3 S255
G1 X38.6 Y29.4
M3 S0
G0 X41.2 Y29.4
M3 S255
G1 X41.2 Y29.4
M3 S255
G1 X45.6 Y29.4
M3 S0
G0 X46.0 Y29.4
M3 S255
G1 X46.0 Y29.4
M3 S255
G1 X49.6 Y29.4
M3 S0
M5 S0
G0 X49.6 Y29.6
M3 S255
G1 X49.6 Y29.6
M3 S255
G1 X46.0 Y29.6
M3 S0
G0 X45.6 Y29.6
M3 S255
G1 X45.6 Y29.6
M3 S255
G1 X41.6 Y29.6
M3 S0
G0 X38.6 Y29.6
M3 S255
G1 X38.6 Y29.6
M3 S255
G1 X38.4 Y29.6
M3 S0
G0 X37.6 Y29.6
M3 S255
G1 X37.6 Y29.6
M3 S255
G1 X34.0 Y29.6
M3 S0
G0 X31.6 Y29.6
M3 S255
G1 X31.6 Y29.6
M3 S255
G1 X31.4 Y29.6
M3 S0
G0 X31.0 Y29.6
M3 S255
G1 X31.0 Y29.6
M3 S255
G1 X25.2 Y29.6
M3 S0
G0 X25.0 Y29.6
M3 S255
G1 X25.0 Y29.6
M3 S255
G1 X22.6 Y29.6
M3 S0
G0 X20.4 Y29.6
M3 S255
G1 X20.4 Y29.6
M3 S255
G1 X15.8 Y29.6
M3 S0
G0 X12.8 Y29.6
M3 S255
G1 X12.8 Y29.6
M3 S255
G1 X10.0 Y29.6
M5 S0
G0 X10.0 Y29.8
M3 S255
G1 X12.8 Y29.8
M3 S0
G0 X16.0 Y29.8
M3 S255
G1 X16.0 Y29.8
M3 S255
G1 X20.8 Y29.8
M3 S0
G0 X23.2 Y29.8
M3 S255
G1 X23.2 Y29.8
M3 S255
G1 X31.2 Y29.8
M3 S0
G0 X31.4 Y29.8
M3 S255
G1 X31.4 Y29.8
M3 S255
G1 X31.6 Y29.8
M3 S0
G0 X34.2 Y29.8
M3 S255
G1 X34.2 Y29.8
M3 S255
G1 X37.8 Y29.8
M3 S0
G0 X38.0 Y29.8
M3 S255
G1 X38.0 Y29.8
M3 S255
G1 X38.6 Y29.8
M3 S0
G0 X42.0 Y29.8
M3 S255
G1 X42.0 Y29.8
M3 S255
G1 X45.6 Y29.8
M3 S0
G0 X46.0 Y29.8
M3 S255
G1 X46.0 Y29.8
M3 S255
G1 X49.6 Y29.8
M3 S0
M5 S0
G0 X50.6 Y30.0
M3 S255
G1 X50.6 Y30.0
M3 S255
G1 X50.4 Y30.0
M3 S0
G0 X49.8 Y30.0
M3 S255
G1 X49.8 Y30.0
M3 S255
G1 X46.0 Y30.0
M3 S0
G0 X45.6 Y30.0
M3 S255
G1 X45.6 Y30.0
M3 S255
G1 X42.0 Y30.0
M3 S0
G0 X38.6 Y30.0
M3 S255
G1 X38.6 Y30.0
M3 S255
G1 X36.6 Y30.0
M3 S0
G0 X36.2 Y30.0
M3 S255
G1 X36.2 Y30.0
M3 S255
G1 X34.6 Y30.0
M3 S0
G0 X31.8 Y30.0
M3 S255
G1 X31.8 Y30.0
M3 S255
G1 X31.6 Y30.0
M3 S0
G0 X31.4 Y30.0
M3 S255
G1 X31.4 Y30.0
M3 S255
G1 X24.0 Y30.0
M3 S0
G0 X23.8 Y30.0
M3 S255
G1 X23.8 Y30.0
M3 S255
G1 X23.2 Y30.0
M3 S0
G0 X23.0 Y30.0
M3 S255
G1 X23.0 Y30.0
M3 S255
G1 X22.6 Y30.0
M3 S0
G0 X21.4 Y30.0
M3 S255
G1 X21.4 Y30.0
M3 S255
G1 X15.8 Y30.0
M3 S0
G0 X12.8 Y30.0
M3 S255
G1 X12.8 Y30.0
M3 S255
G1 X10.0 Y30.0
M5 S0
G0 X10.0 Y30.2
M3 S255
G1 X12.8 Y30.2
M3 S0
G0 X15.8 Y30.2
M3 S255
G1 X15.8 Y30.2
M3 S255
G1 X21.4 Y30.2
M3 S0
G0 X22.6 Y30.2
M3 S255
G1 X22.6 Y30.2
M3 S255
G1 X23.6 Y30.2
M3 S0
G0 X24.0 Y30.2
M3 S255
G1 X24.0 Y30.2
M3 S255
G1 X31.4 Y30.2
M3 S0
G0 X31.8 Y30.2
M3 S255
G1 X31.8 Y30.2
M3 S255
G1 X32.0 Y30.2
M3 S0
G0 X34.8 Y30.2
M3 S255
G1 X34.8 Y30.2
M3 S255
G1 X35.0 Y30.2
M3 S0
G0 X36.0 Y30.2
M3 S255
G1 X36.0 Y30.2
M3 S255
G1 X36.2 Y30.2
M3 S0
G0 X37.0 Y30.2
M3 S255
G1 X37.0 Y30.2
M3 S255
G1 X38.6 Y30.2
M3 S0
G0 X42.2 Y30.2
M3 S255
G1 X42.2 Y30.2
M3 S255
G1 X43.4 Y30.2
M3 S0
G0 X43.6 Y30.2
M3 S255
G1 X43.6 Y30.2
M3 S255
G1 X45.6 Y30.2
M3 S0
G0 X46.0 Y30.2
M3 S255
G1 X46.0 Y30.2
M3 S255
G1 X49.8 Y30.2
M3 S0
G0 X50.4 Y30.2
M3 S255
G1 X50.4 Y30.2
M3 S255
G1 X50.6 Y30.2
M3 S0
M5 S0
G0 X50.6 Y30.4
M3 S255
G1 X50.6 Y30.4
M3 S255
G1 X50.4 Y30.4
M3 S0
G0 X49.8 Y30.4
M3 S255
G1 X49.8 Y30.4
M3 S255
G1 X46.0 Y30.4
M3 S0
G0 X45.6 Y30.4
M3 S255
G1 X45.6 Y30.4
M3 S255
G1 X42.6 Y30.4
M3 S0
G0 X38.2 Y30.4
M3 S255
G1 X38.2 Y30.4
M3 S255
G1 X36.8 Y30.4
M3 S0
G0 X35.2 Y30.4
M3 S255
G1 X35.2 Y30.4
M3 S255
G1 X35.0 Y30.4
M3 S0
G0 X32.2 Y30.4
M3 S255
G1 X32.2 Y30.4
M3 S255
G1 X31.8 Y30.4
M3 S0
G0 X31.6 Y30.4
M3 S255
G1 X31.6 Y30.4
M3 S255
G1 X26.8 Y30.4
M3 S0
G0 X26.6 Y30.4
M3 S255
G1 X26.6 Y30.4
M3 S255
G1 X24.0 Y30.4
M3 S0
G0 X23.6 Y30.4
M3 S255
G1 X23.6 Y30.4
M3 S255
G1 X22.6 Y30.4
M3 S0
G0 X21.8 Y30.4
M3 S255
G1 X21.8 Y30.4
M3 S255
G1 X15.8 Y30.4
M3 S0
G0 X12.8 Y30.4
M3 S255
G1 X12.8 Y30.4
M3 S255
G1 X10.0 Y30.4
M5 S0
G0 X10.0 Y30.6
M3 S255
G1 X12.8 Y30.6
M3 S0
G0 X15.8 Y30.6
M3 S255
G1 X15.8 Y30.6
M3 S255
G1 X22.0 Y30.6
M3 S0
G0 X22.4 Y30.6
M3 S255
G1 X22.4 Y30.6
M3 S255
G1 X23.6 Y30.6
M3 S0
G0 X24.2 Y30.6
M3 S255
G1 X24.2 Y30.6
M3 S255
G1 X26.6 Y30.6
M3 S0
G0 X26.8 Y30.6
M3 S255
G1 X26.8 Y30.6
M3 S255
G1 X31.8 Y30.6
M3 S0
G0 X32.0 Y30.6
M3 S255
G1 X32.0 Y30.6
M3 S255
G1 X32.4 Y30.6
M3 S0
G0 X35.2 Y30.6
M3 S255
G1 X35.2 Y30.6
M3 S255
G1 X35.4 Y30.6
M3 S0
G0 X36.2 Y30.6
M3 S255
G1 X36.2 Y30.6
M3 S255
G1 X38.0 Y30.6
M3 S0
G0 X43.2 Y30.6
M3 S255
G1 X43.2 Y30.6
M3 S255
G1 X45.6 Y30.6
M3 S0
G0 X46.0 Y30.6
M3 S255
G1 X46.0 Y30.6
M3 S255
G1 X50.0 Y30.6
M3 S0
G0 X50.6 Y30.6
M3 S255
G1 X50.6 Y30.6
M3 S255
G1 X50.8 Y30.6
M3 S0
M5 S0
G0 X50.8 Y30.8
M3 S255
G1 X50.8 Y30.8
M3 S255
G1 X50.6 Y30.8
M3 S0
G0 X50.0 Y30.8
M3 S255
G1 X50.0 Y30.8
M3 S255
G1 X46.0 Y30.8
M3 S0
G0 X45.4 Y30.8
M3 S255
G1 X45.4 Y30.8
M3 S255
G1 X43.4 Y30.8
M3 S0
G0 X37.4 Y30.8
M3 S255
G1 X37.4 Y30.8
M3 S255
G1 X35.4 Y30.8
M3 S0
G0 X32.4 Y30.8
M3 S255
G1 X32.4 Y30.8
M3 S255
G1 X32.2 Y30.8
M3 S0
G0 X31.8 Y30.8
M3 S255
G1 X31.8 Y30.8
M3 S255
G1 X26.8 Y30.8
M3 S0
G0 X26.6 Y30.8
M3 S255
G1 X26.6 Y30.8
M3 S255
G1 X24.2 Y30.8
M3 S0
G0 X23.6 Y30.8
M3 S255
G1 X23.6 Y30.8
M3 S255
G1 X22.4 Y30.8
M3 S0
G0 X22.0 Y30.8
M3 S255
G1 X22.0 Y30.8
M3 S255
G1 X15.8 Y30.8
M3 S0
G0 X12.8 Y30.8
M3 S255
G1 X12.8 Y30.8
M3 S255
G1 X10.0 Y30.8
M5 S0
G0 X10.0 Y31.0
M3 S255
G1 X12.8 Y31.0
M3 S0
G0 X15.8 Y31.0
M3 S255
G1 X15.8 Y31.0
M3 S255
G1 X22.2 Y31.0
M3 S0
G0 X22.8 Y31.0
M3 S255
G1 X22.8 Y31.0
M3 S255
G1 X23.8 Y31.0
M3 S0
G0 X24.0 Y31.0
M3 S255
G1 X24.0 Y31.0
M3 S255
G1 X24.2 Y31.0
M3 S0
G0 X24.6 Y31.0
M3 S255
G1 X24.6 Y31.0
M3 S255
G1 X24.8 Y31.0
M3 S0
G0 X25.0 Y31.0
M3 S255
G1 X25.0 Y31.0
M3 S255
G1 X26.6 Y31.0
M3 S0
G0 X26.8 Y31.0
M3 S255
G1 X26.8 Y31.0
M3 S255
G1 X32.0 Y31.0
M3 S0
G0 X32.2 Y31.0
M3 S255
G1 X32.2 Y31.0
M3 S255
G1 X32.6 Y31.0
M3 S0
G0 X35.6 Y31.0
M3 S255
G1 X35.6 Y31.0
M3 S255
G1 X36.6 Y31.0
M3 S0
G0 X43.6 Y31.0
M3 S255
G1 X43.6 Y31.0
M3 S255
G1 X45.4 Y31.0
M3 S0
G0 X46.0 Y31.0
M3 S255
G1 X46.0 Y31.0
M3 S255
G1 X50.2 Y31.0
M3 S0
M5 S0
G0 X50.2 Y31.2
M3 S255
G1 X50.2 Y31.2
M3 S255
G1 X45.8 Y31.2
M3 S0
G0 X45.4 Y31.2
M3 S255
G1 X45.4 Y31.2
M3 S255
G1 X43.6 Y31.2
M3 S0
G0 X36.2 Y31.2
M3 S255
G1 X36.2 Y31.2
M3 S255
G1 X36.0 Y31.2
M3 S0
G0 X32.8 Y31.2
M3 S255
G1 X32.8 Y31.2
M3 S255
G1 X32.4 Y31.2
M3 S0
G0 X32.2 Y31.2
M3 S255
G1 X32.2 Y31.2
M3 S255
G1 X26.8 Y31.2
M3 S0
G0 X26.6 Y31.2
M3 S255
G1 X26.6 Y31.2
M3 S255
G1 X25.2 Y31.2
M3 S0
G0 X25.0 Y31.2
M3 S255
G1 X25.0 Y31.2
M3 S255
G1 X24.6 Y31.2
M3 S0
G0 X24.2 Y31.2
M3 S255
G1 X24.2 Y31.2
M3 S255
G1 X23.8 Y31.2
M3 S0
G0 X22.6 Y31.2
M3 S255
G1 X22.6 Y31.2
M3 S255
G1 X15.8 Y31.2
M3 S0
G0 X12.8 Y31.2
M3 S255
G1 X12.8 Y31.2
M3 S255
G1 X10.0 Y31.2
M5 S0
G0 X10.0 Y31.4
M3 S255
G1 X12.6 Y31.4
M3 S0
G0 X15.8 Y31.4
M3 S255
G1 X15.8 Y31.4
M3 S255
G1 X22.6 Y31.4
M3 S0
G0 X22.8 Y31.4
M3 S255
G1 X22.8 Y31.4
M3 S255
G1 X23.2 Y31.4
M3 S0
G0 X23.6 Y31.4
M3 S255
G1 X23.6 Y31.4
M3 S255
G1 X23.8 Y31.4
M3 S0
G0 X24.0 Y31.4
M3 S255
G1 X24.0 Y31.4
M3 S255
G1 X24.2 Y31.4
M3 S0
G0 X24.6 Y31.4
M3 S255
G1 X24.6 Y31.4
M3 S255
G1 X25.0 Y31.4
M3 S0
G0 X25.2 Y31.4
M3 S255
G1 X25.2 Y31.4
M3 S255
G1 X33.0 Y31.4
M3 S0
G0 X43.6 Y31.4
M3 S255
G1 X43.6 Y31.4
M3 S255
G1 X45.4 Y31.4
M3 S0
G0 X45.8 Y31.4
M3 S255
G1 X45.8 Y31.4
M3 S255
G1 X50.2 Y31.4
M3 S0
M5 S0
G0 X50.4 Y31.6
M3 S255
G1 X50.4 Y31.6
M3 S255
G1 X45.8 Y31.6
M3 S0
G0 X45.4 Y31.6
M3 S255
G1 X45.4 Y31.6
M3 S255
G1 X43.6 Y31.6
M3 S0
G0 X33.0 Y31.6
M3 S255
G1 X33.0 Y31.6
M3 S255
G1 X32.8 Y31.6
M3 S0
G0 X32.4 Y31.6
M3 S255
G1 X32.4 Y31.6
M3 S255
G1 X25.0 Y31.6
M3 S0
G0 X24.8 Y31.6
M3 S255
G1 X24.8 Y31.6
M3 S255
G1 X24.6 Y31.6
M3 S0
G0 X23.8 Y31.6
M3 S255
G1 X23.8 Y31.6
M3 S255
G1 X23.0 Y31.6
M3 S0
G0 X22.6 Y31.6
M3 S255
G1 X22.6 Y31.6
M3 S255
G1 X15.8 Y31.6
M3 S0
G0 X12.6 Y31.6
M3 S255
G1 X12.6 Y31.6
M3 S255
G1 X10.0 Y31.6
M5 S0
G0 X10.0 Y31.8
M3 S255
G1 X12.6 Y31.8
M3 S0
G0 X15.8 Y31.8
M3 S255
G1 X15.8 Y31.8
M3 S255
G1 X23.2 Y31.8
M3 S0
G0 X23.4 Y31.8
M3 S255
G1 X23.4 Y31.8
M3 S255
G1 X24.0 Y31.8
M3 S0
G0 X25.0 Y31.8
M3 S255
G1 X25.0 Y31.8
M3 S255
G1 X32.6 Y31.8
M3 S0
G0 X33.0 Y31.8
M3 S255
G1 X33.0 Y31.8
M3 S255
G1 X33.2 Y31.8
M3 S0
G0 X35.4 Y31.8
M3 S255
G1 X35.4 Y31.8
M3 S255
G1 X35.6 Y31.8
M3 S0
G0 X43.6 Y31.8
M3 S255
G1 X43.6 Y31.8
M3 S255
G1 X45.4 Y31.8
M3 S0
G0 X45.8 Y31.8
M3 S255
G1 X45.8 Y31.8
M3 S255
G1 X50.4 Y31.8
M3 S0
G0 X51.0 Y31.8
M3 S255
G1 X51.0 Y31.8
M3 S255
G1 X51.2 Y31.8
M3 S0
M5 S0
G0 X50.4 Y32.0
M3 S255
G1 X50.4 Y32.0
M3 S255
G1 X45.8 Y32.0
M3 S0
G0 X45.2 Y32.0
M3 S255
G1 X45.2 Y32.0
M3 S255
G1 X43.4 Y32.0
M3 S0
G0 X33.4 Y32.0
M3 S255
G1 X33.4 Y32.0
M3 S255
G1 X33.0 Y32.0
M3 S0
G0 X32.8 Y32.0
M3 S255
G1 X32.8 Y32.0
M3 S255
G1 X25.4 Y32.0
M3 S0
G0 X24.8 Y32.0
M3 S255
G1 X24.8 Y32.0
M3 S255
G1 X24.6 Y32.0
M3 S0
G0 X24.2 Y32.0
M3 S255
G1 X24.2 Y32.0
M3 S255
G1 X23.4 Y32.0
M3 S0
G0 X23.0 Y32.0
M3 S255
G1 X23.0 Y32.0
M3 S255
G1 X20.8 Y32.0
M3 S0
G0 X20.6 Y32.0
M3 S255
G1 X20.6 Y32.0
M3 S255
G1 X15.8 Y32.0
M3 S0
G0 X12.8 Y32.0
M3 S255
G1 X12.8 Y32.0
M3 S255
G1 X10.0 Y32.0
M5 S0
G0 X10.0 Y32.2
M3 S255
G1 X12.8 Y32.2
M3 S0
G0 X15.8 Y32.2
M3 S255
G1 X15.8 Y32.2
M3 S255
G1 X23.0 Y32.2
M3 S0
G0 X23.4 Y32.2
M3 S255
G1 X23.4 Y32.2
M3 S255
G1 X24.4 Y32.2
M3 S0
G0 X24.6 Y32.2
M3 S255
G1 X24.6 Y32.2
M3 S255
G1 X24.8 Y32.2
M3 S0
G0 X25.2 Y32.2
M3 S255
G1 X25.2 Y32.2
M3 S255
G1 X25.4 Y32.2
M3 S0
G0 X25.6 Y32.2
M3 S255
G1 X25.6 Y32.2
M3 S255
G1 X32.0 Y32.2
M3 S0
G0 X32.2 Y32.2
M3 S255
G1 X32.2 Y32.2
M3 S255
G1 X33.0 Y32.2
M3 S0
G0 X33.2 Y32.2
M3 S255
G1 X33.2 Y32.2
M3 S255
G1 X33.6 Y32.2
M3 S0
G0 X43.4 Y32.2
M3 S255
G1 X43.4 Y32.2
M3 S255
G1 X45.2 Y32.2
M3 S0
G0 X45.8 Y32.2
M3 S255
G1 X45.8 Y32.2
M3 S255
G1 X50.6 Y32.2
M3 S0
M5 S0
G0 X50.6 Y32.4
M3 S255
G1 X50.6 Y32.4
M3 S255
G1 X45.8 Y32.4
M3 S0
G0 X45.2 Y32.4
M3 S255
G1 X45.2 Y32.4
M3 S255
G1 X43.4 Y32.4
M3 S0
G0 X33.8 Y32.4
M3 S255
G1 X33.8 Y32.4
M3 S255
G1 X33.4 Y32.4
M3 S0
G0 X33.0 Y32.4
M3 S255
G1 X33.0 Y32.4
M3 S255
G1 X32.2 Y32.4
M3 S0
G0 X32.0 Y32.4
M3 S255
G1 X32.0 Y32.4
M3 S255
G1 X25.8 Y32.4
M3 S0
G0 X25.6 Y32.4
M3 S255
G1 X25.6 Y32.4
M3 S255
G1 X25.4 Y32.4
M3 S0
G0 X25.2 Y32.4
M3 S255
G1 X25.2 Y32.4
M3 S255
G1 X24.8 Y32.4
M3 S0
G0 X24.6 Y32.4
M3 S255
G1 X24.6 Y32.4
M3 S255
G1 X23.4 Y32.4
M3 S0
G0 X23.0 Y32.4
M3 S255
G1 X23.0 Y32.4
M3 S255
G1 X16.0 Y32.4
M3 S0
G0 X12.8 Y32.4
M3 S255
G1 X12.8 Y32.4
M3 S255
G1 X10.0 Y32.4
M5 S0
G0 X10.0 Y32.6
M3 S255
G1 X12.6 Y32.6
M3 S0
G0 X15.8 Y32.6
M3 S255
G1 X15.8 Y32.6
M3 S255
G1 X20.4 Y32.6
M3 S0
G0 X20.8 Y32.6
M3 S255
G1 X20.8 Y32.6
M3 S255
G1 X22.8 Y32.6
M3 S0
G0 X23.4 Y32.6
M3 S255
G1 X23.4 Y32.6
M3 S255
G1 X25.0 Y32.6
M3 S0
G0 X25.2 Y32.6
M3 S255
G1 X25.2 Y32.6
M3 S255
G1 X25.4 Y32.6
M3 S0
G0 X25.8 Y32.6
M3 S255
G1 X25.8 Y32.6
M3 S255
G1 X32.0 Y32.6
M3 S0
G0 X32.2 Y32.6
M3 S255
G1 X32.2 Y32.6
M3 S255
G1 X33.2 Y32.6
M3 S0
G0 X33.6 Y32.6
M3 S255
G1 X33.6 Y32.6
M3 S255
G1 X34.0 Y32.6
M3 S0
G0 X43.4 Y32.6
M3 S255
G1 X43.4 Y32.6
M3 S255
G1 X45.2 Y32.6
M3 S0
G0 X45.8 Y32.6
M3 S255
G1 X45.8 Y32.6
M3 S255
G1 X50.8 Y32.6
M3 S0
M5 S0
G0 X50.8 Y32.8
M3 S255
G1 X50.8 Y32.8
M3 S255
G1 X45.8 Y32.8
M3 S0
G0 X45.0 Y32.8
M3 S255
G1 X45.0 Y32.8
M3 S255
G1 X43.2 Y32.8
M3 S0
G0 X34.2 Y32.8
M3 S255
G1 X34.2 Y32.8
M3 S255
G1 X33.8 Y32.8
M3 S0
G0 X33.4 Y32.8
M3 S255
G1 X33.4 Y32.8
M3 S255
G1 X32.2 Y32.8
M3 S0
G0 X32.0 Y32.8
M3 S255
G1 X32.0 Y32.8
M3 S255
G1 X25.6 Y32.8
M3 S0
G0 X25.0 Y32.8
M3 S255
G1 X25.0 Y32.8
M3 S255
G1 X23.4 Y32.8
M3 S0
G0 X22.8 Y32.8
M3 S255
G1 X22.8 Y32.8
M3 S255
G1 X21.0 Y32.8
M3 S0
G0 X20.6 Y32.8
M3 S255
G1 X20.6 Y32.8
M3 S255
G1 X15.8 Y32.8
M3 S0
G0 X12.8 Y32.8
M3 S255
G1 X12.8 Y32.8
M3 S255
G1 X10.0 Y32.8
M5 S0
G0 X10.0 Y33.0
M3 S255
G1 X12.6 Y33.0
M3 S0
G0 X15.8 Y33.0
M3 S255
G1 X15.8 Y33.0
M3 S255
G1 X22.6 Y33.0
M3 S0
G0 X23.4 Y33.0
M3 S255
G1 X23.4 Y33.0
M3 S255
G1 X25.2 Y33.0
M3 S0
G0 X25.4 Y33.0
M3 S255
G1 X25.4 Y33.0
M3 S255
G1 X25.8 Y33.0
M3 S0
G0 X26.0 Y33.0
M3 S255
G1 X26.0 Y33.0
M3 S255
G1 X31.8 Y33.0
M3 S0
G0 X32.0 Y33.0
M3 S255
G1 X32.0 Y33.0
M3 S255
G1 X33.6 Y33.0
M3 S0
G0 X34.0 Y33.0
M3 S255
G1 X34.0 Y33.0
M3 S255
G1 X34.2 Y33.0
M3 S0
G0 X43.2 Y33.0
M3 S255
G1 X43.2 Y33.0
M3 S255
G1 X45.0 Y33.0
M3 S0
G0 X45.6 Y33.0
M3 S255
G1 X45.6 Y33.0
M3 S255
G1 X50.8 Y33.0
M3 S0
G0 X51.4 Y33.0
M3 S255
G1 X51.4 Y33.0
M3 S255
G1 X51.6 Y33.0
M3 S0
M5 S0
G0 X51.6 Y33.2
M3 S255
G1 X51.6 Y33.2
M3 S255
G1 X51.4 Y33.2
M3 S0
G0 X51.0 Y33.2
M3 S255
G1 X51.0 Y33.2
M3 S255
G1 X45.6 Y33.2
M3 S0
G0 X45.0 Y33.2
M3 S255
G1 X45.0 Y33.2
M3 S255
G1 X43.2 Y33.2
M3 S0
G0 X35.4 Y33.2
M3 S255
G1 X35.4 Y33.2
M3 S255
G1 X35.2 Y33.2
M3 S0
G0 X34.6 Y33.2
M3 S255
G1 X34.6 Y33.2
M3 S255
G1 X34.2 Y33.2
M3 S0
G0 X33.8 Y33.2
M3 S255
G1 X33.8 Y33.2
M3 S255
G1 X32.0 Y33.2
M3 S0
G0 X31.8 Y33.2
M3 S255
G1 X31.8 Y33.2
M3 S255
G1 X25.8 Y33.2
M3 S0
G0 X25.6 Y33.2
M3 S255
G1 X25.6 Y33.2
M3 S255
G1 X23.4 Y33.2
M3 S0
G0 X22.6 Y33.2
M3 S255
G1 X22.6 Y33.2
M3 S255
G1 X15.8 Y33.2
M3 S0
G0 X12.8 Y33.2
M3 S255
G1 X12.8 Y33.2
M3 S255
G1 X10.0 Y33.2
M5 S0
G0 X10.0 Y33.4
M3 S255
G1 X12.8 Y33.4
M3 S0
G0 X15.8 Y33.4
M3 S255
G1 X15.8 Y33.4
M3 S255
G1 X22.6 Y33.4
M3 S0
G0 X23.6 Y33.4
M3 S255
G1 X23.6 Y33.4
M3 S255
G1 X26.2 Y33.4
M3 S0
G0 X26.4 Y33.4
M3 S255
G1 X26.4 Y33.4
M3 S255
G1 X31.8 Y33.4
M3 S0
G0 X32.0 Y33.4
M3 S255
G1 X32.0 Y33.4
M3 S255
G1 X34.0 Y33.4
M3 S0
G0 X34.2 Y33.4
M3 S255
G1 X34.2 Y33.4
M3 S255
G1 X34.8 Y33.4
M3 S0
G0 X43.2 Y33.4
M3 S255
G1 X43.2 Y33.4
M3 S255
G1 X44.8 Y33.4
M3 S0
G0 X45.8 Y33.4
M3 S255
G1 X45.8 Y33.4
M3 S255
G1 X51.0 Y33.4
M3 S0
M5 S0
G0 X51.8 Y33.6
M3 S255
G1 X51.8 Y33.6
M3 S255
G1 X51.6 Y33.6
M3 S0
G0 X51.2 Y33.6
M3 S255
G1 X51.2 Y33.6
M3 S255
G1 X45.8 Y33.6
M3 S0
G0 X44.8 Y33.6
M3 S255
G1 X44.8 Y33.6
M3 S255
G1 X43.2 Y33.6
M3 S0
G0 X34.8 Y33.6
M3 S255
G1 X34.8 Y33.6
M3 S255
G1 X32.0 Y33.6
M3 S0
G0 X31.8 Y33.6
M3 S255
G1 X31.8 Y33.6
M3 S255
G1 X26.6 Y33.6
M3 S0
G0 X25.8 Y33.6
M3 S255
G1 X25.8 Y33.6
M3 S255
G1 X23.6 Y33.6
M3 S0
G0 X22.4 Y33.6
M3 S255
G1 X22.4 Y33.6
M3 S255
G1 X15.8 Y33.6
M3 S0
G0 X12.8 Y33.6
M3 S255
G1 X12.8 Y33.6
M3 S255
G1 X10.0 Y33.6
M5 S0
G0 X10.0 Y33.8
M3 S255
G1 X12.8 Y33.8
M3 S0
G0 X15.8 Y33.8
M3 S255
G1 X15.8 Y33.8
M3 S255
G1 X22.6 Y33.8
M3 S0
G0 X23.8 Y33.8
M3 S255
G1 X23.8 Y33.8
M3 S255
G1 X24.2 Y33.8
M3 S0
G0 X24.4 Y33.8
M3 S255
G1 X24.4 Y33.8
M3 S255
G1 X26.0 Y33.8
M3 S0
G0 X26.8 Y33.8
M3 S255
G1 X26.8 Y33.8
M3 S255
G1 X31.6 Y33.8
M3 S0
G0 X31.8 Y33.8
M3 S255
G1 X31.8 Y33.8
M3 S255
G1 X34.4 Y33.8
M3 S0
G0 X34.6 Y33.8
M3 S255
G1 X34.6 Y33.8
M3 S255
G1 X35.2 Y33.8
M3 S0
G0 X43.2 Y33.8
M3 S255
G1 X43.2 Y33.8
M3 S255
G1 X44.8 Y33.8
M3 S0
G0 X45.8 Y33.8
M3 S255
G1 X45.8 Y33.8
M3 S255
G1 X51.2 Y33.8
M3 S0
G0 X51.6 Y33.8
M3 S255
G1 X51.6 Y33.8
M3 S255
G1 X51.8 Y33.8
M3 S0
