; imgcode generated code 
; developed by M. "Vidmo" Widomski 
;  github.com/vidmo91 
;  hackaday.io/vidmo91 
 
H5 S0 
F111
G0 Z0 ; for some grbl senders compatibility 
 
G0 X112.0 Y221.0
M3 S1000
G1 X115.0 Y221.0
M3 S0
G0 X118.0 Y221.0
M3 S1000
G1 X118.0 Y221.0
M3 S1000
G1 X118.7 Y221.0
M3 S0
G0 X123.6 Y221.0
M3 S1000
G1 X123.6 Y221.0
M3 S1000
G1 X132.6 Y221.0
M3 S0
G0 X133.0 Y221.0
M3 S1000
G1 X133.0 Y221.0
M3 S1000
G1 X137.7 Y221.0
M3 S0
G0 X137.9 Y221.0
M3 S1000
G1 X137.9 Y221.0
M3 S1000
G1 X139.0 Y221.0
M3 S0
G0 X139.2 Y221.0
M3 S1000
G1 X139.2 Y221.0
M3 S1000
G1 X153.3 Y221.0
M3 S0
G0 X154.1 Y221.0
M3 S1000
G1 X154.1 Y221.0
M3 S1000
G1 X154.5 Y221.0
M3 S0
G0 X154.7 Y221.0
M3 S1000
G1 X154.7 Y221.0
M3 S1000
G1 X155.1 Y221.0
M3 S0
G0 X155.5 Y221.0
M3 S1000
G1 X155.5 Y221.0
M3 S1000
G1 X155.8 Y221.0
M3 S0
G0 X156.2 Y221.0
M3 S1000
G1 X156.2 Y221.0
M3 S1000
G1 X156.4 Y221.0
M3 S0
G0 X186.7 Y221.0
M3 S1000
G1 X186.7 Y221.0
M3 S1000
G1 X191.6 Y221.0
M3 S0
G0 X192.8 Y221.0
M3 S1000
G1 X192.8 Y221.0
M3 S1000
G1 X193.0 Y221.0
M3 S0
G0 X193.1 Y221.0
M3 S1000
G1 X193.1 Y221.0
M3 S1000
G1 X194.5 Y221.0
M3 S0
G0 X196.3 Y221.0
M3 S1000
G1 X196.3 Y221.0
M3 S1000
G1 X204.1 Y221.0
M3 S0
G0 X204.3 Y221.0
M3 S1000
G1 X204.3 Y221.0
M3 S1000
G1 X204.5 Y221.0
M3 S0
G0 X205.1 Y221.0
M3 S1000
G1 X205.1 Y221.0
M3 S1000
M5 S0
G0 X211.9 Y221.1
M3 S1000
G1 X205.0 Y221.1
M3 S0
G0 X204.4 Y221.1
M3 S1000
G1 X204.4 Y221.1
M3 S1000
G1 X204.2 Y221.1
M3 S0
G0 X204.0 Y221.1
M3 S1000
G1 X204.0 Y221.1
M3 S1000
G1 X196.2 Y221.1
M3 S0
G0 X194.4 Y221.1
M3 S1000
G1 X194.4 Y221.1
M3 S1000
G1 X193.0 Y221.1
M3 S0
G0 X192.9 Y221.1
M3 S1000
G1 X192.9 Y221.1
M3 S1000
G1 X192.7 Y221.1
M3 S0
G0 X191.5 Y221.1
M3 S1000
G1 X191.5 Y221.1
M3 S1000
G1 X186.6 Y221.1
M3 S0
G0 X156.3 Y221.1
M3 S1000
G1 X156.3 Y221.1
M3 S1000
G1 X156.1 Y221.1
M3 S0
G0 X155.7 Y221.1
M3 S1000
G1 X155.7 Y221.1
M3 S1000
G1 X155.4 Y221.1
M3 S0
G0 X155.0 Y221.1
M3 S1000
G1 X155.0 Y221.1
M3 S1000
G1 X154.6 Y221.1
M3 S0
G0 X154.4 Y221.1
M3 S1000
G1 X154.4 Y221.1
M3 S1000
G1 X154.0 Y221.1
M3 S0
G0 X153.2 Y221.1
M3 S1000
G1 X153.2 Y221.1
M3 S1000
G1 X139.1 Y221.1
M3 S0
G0 X138.9 Y221.1
M3 S1000
G1 X138.9 Y221.1
M3 S1000
G1 X137.8 Y221.1
M3 S0
G0 X137.6 Y221.1
M3 S1000
G1 X137.6 Y221.1
M3 S1000
G1 X132.9 Y221.1
M3 S0
G0 X132.5 Y221.1
M3 S1000
G1 X132.5 Y221.1
M3 S1000
G1 X123.5 Y221.1
M3 S0
G0 X118.6 Y221.1
M3 S1000
G1 X118.6 Y221.1
M3 S1000
G1 X117.9 Y221.1
M3 S0
G0 X114.9 Y221.1
M3 S1000
G1 X114.9 Y221.1
M3 S1000
M5 S0
G0 X112.0 Y221.2
M3 S1000
G1 X115.0 Y221.2
M3 S0
G0 X118.0 Y221.2
M3 S1000
G1 X118.0 Y221.2
M3 S1000
G1 X118.7 Y221.2
M3 S0
G0 X123.6 Y221.2
M3 S1000
G1 X123.6 Y221.2
M3 S1000
G1 X132.6 Y221.2
M3 S0
G0 X133.0 Y221.2
M3 S1000
G1 X133.0 Y221.2
M3 S1000
G1 X137.7 Y221.2
M3 S0
G0 X137.9 Y221.2
M3 S1000
G1 X137.9 Y221.2
M3 S1000
G1 X139.0 Y221.2
M3 S0
G0 X139.2 Y221.2
M3 S1000
G1 X139.2 Y221.2
M3 S1000
G1 X153.3 Y221.2
M3 S0
G0 X154.1 Y221.2
M3 S1000
G1 X154.1 Y221.2
M3 S1000
G1 X154.5 Y221.2
M3 S0
G0 X154.7 Y221.2
M3 S1000
G1 X154.7 Y221.2
M3 S1000
G1 X155.1 Y221.2
M3 S0
G0 X155.5 Y221.2
M3 S1000
G1 X155.5 Y221.2
M3 S1000
G1 X155.8 Y221.2
M3 S0
G0 X156.2 Y221.2
M3 S1000
G1 X156.2 Y221.2
M3 S1000
G1 X156.4 Y221.2
M3 S0
G0 X186.7 Y221.2
M3 S1000
G1 X186.7 Y221.2
M3 S1000
G1 X191.6 Y221.2
M3 S0
G0 X192.8 Y221.2
M3 S1000
G1 X192.8 Y221.2
M3 S1000
G1 X193.0 Y221.2
M3 S0
G0 X193.1 Y221.2
M3 S1000
G1 X193.1 Y221.2
M3 S1000
G1 X194.5 Y221.2
M3 S0
G0 X196.3 Y221.2
M3 S1000
G1 X196.3 Y221.2
M3 S1000
G1 X204.1 Y221.2
M3 S0
G0 X204.3 Y221.2
M3 S1000
G1 X204.3 Y221.2
M3 S1000
G1 X204.5 Y221.2
M3 S0
G0 X205.1 Y221.2
M3 S1000
G1 X205.1 Y221.2
M3 S1000
M5 S0
G0 X211.9 Y221.3
M3 S1000
G1 X205.0 Y221.3
M3 S0
G0 X204.4 Y221.3
M3 S1000
G1 X204.4 Y221.3
M3 S1000
G1 X204.2 Y221.3
M3 S0
G0 X204.0 Y221.3
M3 S1000
G1 X204.0 Y221.3
M3 S1000
G1 X196.2 Y221.3
M3 S0
G0 X194.4 Y221.3
M3 S1000
G1 X194.4 Y221.3
M3 S1000
G1 X193.0 Y221.3
M3 S0
G0 X192.9 Y221.3
M3 S1000
G1 X192.9 Y221.3
M3 S1000
G1 X192.7 Y221.3
M3 S0
G0 X191.5 Y221.3
M3 S1000
G1 X191.5 Y221.3
M3 S1000
G1 X186.6 Y221.3
M3 S0
G0 X156.3 Y221.3
M3 S1000
G1 X156.3 Y221.3
M3 S1000
G1 X156.1 Y221.3
M3 S0
G0 X155.7 Y221.3
M3 S1000
G1 X155.7 Y221.3
M3 S1000
G1 X155.4 Y221.3
M3 S0
G0 X155.0 Y221.3
M3 S1000
G1 X155.0 Y221.3
M3 S1000
G1 X154.6 Y221.3
M3 S0
G0 X154.4 Y221.3
M3 S1000
G1 X154.4 Y221.3
M3 S1000
G1 X154.0 Y221.3
M3 S0
G0 X153.2 Y221.3
M3 S1000
G1 X153.2 Y221.3
M3 S1000
G1 X139.1 Y221.3
M3 S0
G0 X138.9 Y221.3
M3 S1000
G1 X138.9 Y221.3
M3 S1000
G1 X137.8 Y221.3
M3 S0
G0 X137.6 Y221.3
M3 S1000
G1 X137.6 Y221.3
M3 S1000
G1 X132.9 Y221.3
M3 S0
G0 X132.5 Y221.3
M3 S1000
G1 X132.5 Y221.3
M3 S1000
G1 X123.5 Y221.3
M3 S0
G0 X118.6 Y221.3
M3 S1000
G1 X118.6 Y221.3
M3 S1000
G1 X117.9 Y221.3
M3 S0
G0 X114.9 Y221.3
M3 S1000
G1 X114.9 Y221.3
M3 S1000
M5 S0
G0 X112.0 Y221.4
M3 S1000
G1 X115.0 Y221.4
M3 S0
G0 X118.1 Y221.4
M3 S1000
G1 X118.1 Y221.4
M3 S1000
G1 X118.7 Y221.4
M3 S0
G0 X123.6 Y221.4
M3 S1000
G1 X123.6 Y221.4
M3 S1000
G1 X132.8 Y221.4
M3 S0
G0 X133.0 Y221.4
M3 S1000
G1 X133.0 Y221.4
M3 S1000
G1 X137.5 Y221.4
M3 S0
G0 X137.7 Y221.4
M3 S1000
G1 X137.7 Y221.4
M3 S1000
G1 X139.0 Y221.4
M3 S0
G0 X139.2 Y221.4
M3 S1000
G1 X139.2 Y221.4
M3 S1000
G1 X152.9 Y221.4
M3 S0
G0 X153.1 Y221.4
M3 S1000
G1 X153.1 Y221.4
M3 S1000
G1 X154.3 Y221.4
M3 S0
G0 X154.7 Y221.4
M3 S1000
G1 X154.7 Y221.4
M3 S1000
G1 X155.1 Y221.4
M3 S0
G0 X155.5 Y221.4
M3 S1000
G1 X155.5 Y221.4
M3 S1000
G1 X155.8 Y221.4
M3 S0
G0 X156.2 Y221.4
M3 S1000
G1 X156.2 Y221.4
M3 S1000
G1 X156.4 Y221.4
M3 S0
G0 X186.7 Y221.4
M3 S1000
G1 X186.7 Y221.4
M3 S1000
G1 X191.8 Y221.4
M3 S0
G0 X192.6 Y221.4
M3 S1000
G1 X192.6 Y221.4
M3 S1000
G1 X194.7 Y221.4
M3 S0
G0 X196.3 Y221.4
M3 S1000
G1 X196.3 Y221.4
M3 S1000
G1 X204.5 Y221.4
M3 S0
G0 X204.9 Y221.4
M3 S1000
G1 X204.9 Y221.4
M3 S1000
G1 X205.3 Y221.4
M3 S0
G0 X205.5 Y221.4
M3 S1000
G1 X205.5 Y221.4
M3 S1000
M5 S0
G0 X211.9 Y221.5
M3 S1000
G1 X205.4 Y221.5
M3 S0
G0 X205.2 Y221.5
M3 S1000
G1 X205.2 Y221.5
M3 S1000
G1 X204.8 Y221.5
M3 S0
G0 X204.4 Y221.5
M3 S1000
G1 X204.4 Y221.5
M3 S1000
G1 X196.2 Y221.5
M3 S0
G0 X194.6 Y221.5
M3 S1000
G1 X194.6 Y221.5
M3 S1000
G1 X192.5 Y221.5
M3 S0
G0 X191.7 Y221.5
M3 S1000
G1 X191.7 Y221.5
M3 S1000
G1 X186.6 Y221.5
M3 S0
G0 X156.3 Y221.5
M3 S1000
G1 X156.3 Y221.5
M3 S1000
G1 X156.1 Y221.5
M3 S0
G0 X155.7 Y221.5
M3 S1000
G1 X155.7 Y221.5
M3 S1000
G1 X155.4 Y221.5
M3 S0
G0 X155.0 Y221.5
M3 S1000
G1 X155.0 Y221.5
M3 S1000
G1 X154.6 Y221.5
M3 S0
G0 X154.2 Y221.5
M3 S1000
G1 X154.2 Y221.5
M3 S1000
G1 X153.0 Y221.5
M3 S0
G0 X152.8 Y221.5
M3 S1000
G1 X152.8 Y221.5
M3 S1000
G1 X139.1 Y221.5
M3 S0
G0 X138.9 Y221.5
M3 S1000
G1 X138.9 Y221.5
M3 S1000
G1 X137.6 Y221.5
M3 S0
G0 X137.4 Y221.5
M3 S1000
G1 X137.4 Y221.5
M3 S1000
G1 X132.9 Y221.5
M3 S0
G0 X132.7 Y221.5
M3 S1000
G1 X132.7 Y221.5
M3 S1000
G1 X123.5 Y221.5
M3 S0
G0 X118.6 Y221.5
M3 S1000
G1 X118.6 Y221.5
M3 S1000
G1 X118.0 Y221.5
M3 S0
G0 X114.9 Y221.5
M3 S1000
G1 X114.9 Y221.5
M3 S1000
M5 S0
G0 X112.0 Y221.6
M3 S1000
G1 X115.0 Y221.6
M3 S0
G0 X118.1 Y221.6
M3 S1000
G1 X118.1 Y221.6
M3 S1000
G1 X118.9 Y221.6
M3 S0
G0 X123.6 Y221.6
M3 S1000
G1 X123.6 Y221.6
M3 S1000
G1 X132.8 Y221.6
M3 S0
G0 X133.2 Y221.6
M3 S1000
G1 X133.2 Y221.6
M3 S1000
G1 X137.5 Y221.6
M3 S0
G0 X137.7 Y221.6
M3 S1000
G1 X137.7 Y221.6
M3 S1000
G1 X138.9 Y221.6
M3 S0
G0 X139.0 Y221.6
M3 S1000
G1 X139.0 Y221.6
M3 S1000
G1 X144.7 Y221.6
M3 S0
G0 X145.3 Y221.6
M3 S1000
G1 X145.3 Y221.6
M3 S1000
G1 X153.3 Y221.6
M3 S0
G0 X153.5 Y221.6
M3 S1000
G1 X153.5 Y221.6
M3 S1000
G1 X154.7 Y221.6
M3 S0
G0 X155.1 Y221.6
M3 S1000
G1 X155.1 Y221.6
M3 S1000
G1 X155.5 Y221.6
M3 S0
G0 X155.6 Y221.6
M3 S1000
G1 X155.6 Y221.6
M3 S1000
G1 X155.8 Y221.6
M3 S0
G0 X156.4 Y221.6
M3 S1000
G1 X156.4 Y221.6
M3 S1000
G1 X156.6 Y221.6
M3 S0
G0 X156.8 Y221.6
M3 S1000
G1 X156.8 Y221.6
M3 S1000
G1 X157.0 Y221.6
M3 S0
G0 X186.5 Y221.6
M3 S1000
G1 X186.5 Y221.6
M3 S1000
G1 X192.0 Y221.6
M3 S0
G0 X192.4 Y221.6
M3 S1000
G1 X192.4 Y221.6
M3 S1000
G1 X194.7 Y221.6
M3 S0
G0 X196.3 Y221.6
M3 S1000
G1 X196.3 Y221.6
M3 S1000
G1 X204.5 Y221.6
M3 S0
G0 X205.3 Y221.6
M3 S1000
G1 X205.3 Y221.6
M3 S1000
M5 S0
G0 X211.9 Y221.7
M3 S1000
G1 X205.2 Y221.7
M3 S0
G0 X204.4 Y221.7
M3 S1000
G1 X204.4 Y221.7
M3 S1000
G1 X196.2 Y221.7
M3 S0
G0 X194.6 Y221.7
M3 S1000
G1 X194.6 Y221.7
M3 S1000
G1 X192.3 Y221.7
M3 S0
G0 X191.9 Y221.7
M3 S1000
G1 X191.9 Y221.7
M3 S1000
G1 X186.4 Y221.7
M3 S0
G0 X156.9 Y221.7
M3 S1000
G1 X156.9 Y221.7
M3 S1000
G1 X156.7 Y221.7
M3 S0
G0 X156.5 Y221.7
M3 S1000
G1 X156.5 Y221.7
M3 S1000
G1 X156.3 Y221.7
M3 S0
G0 X155.7 Y221.7
M3 S1000
G1 X155.7 Y221.7
M3 S1000
G1 X155.5 Y221.7
M3 S0
G0 X155.4 Y221.7
M3 S1000
G1 X155.4 Y221.7
M3 S1000
G1 X155.0 Y221.7
M3 S0
G0 X154.6 Y221.7
M3 S1000
G1 X154.6 Y221.7
M3 S1000
G1 X153.4 Y221.7
M3 S0
G0 X153.2 Y221.7
M3 S1000
G1 X153.2 Y221.7
M3 S1000
G1 X145.2 Y221.7
M3 S0
G0 X144.6 Y221.7
M3 S1000
G1 X144.6 Y221.7
M3 S1000
G1 X138.9 Y221.7
M3 S0
G0 X138.8 Y221.7
M3 S1000
G1 X138.8 Y221.7
M3 S1000
G1 X137.6 Y221.7
M3 S0
G0 X137.4 Y221.7
M3 S1000
G1 X137.4 Y221.7
M3 S1000
G1 X133.1 Y221.7
M3 S0
G0 X132.7 Y221.7
M3 S1000
G1 X132.7 Y221.7
M3 S1000
G1 X123.5 Y221.7
M3 S0
G0 X118.8 Y221.7
M3 S1000
G1 X118.8 Y221.7
M3 S1000
G1 X118.0 Y221.7
M3 S0
G0 X114.9 Y221.7
M3 S1000
G1 X114.9 Y221.7
M3 S1000
M5 S0
G0 X112.0 Y221.8
M3 S1000
G1 X115.0 Y221.8
M3 S0
G0 X118.1 Y221.8
M3 S1000
G1 X118.1 Y221.8
M3 S1000
G1 X118.9 Y221.8
M3 S0
G0 X123.6 Y221.8
M3 S1000
G1 X123.6 Y221.8
M3 S1000
G1 X132.8 Y221.8
M3 S0
G0 X133.2 Y221.8
M3 S1000
G1 X133.2 Y221.8
M3 S1000
G1 X137.1 Y221.8
M3 S0
G0 X137.5 Y221.8
M3 S1000
G1 X137.5 Y221.8
M3 S1000
G1 X138.9 Y221.8
M3 S0
G0 X139.0 Y221.8
M3 S1000
G1 X139.0 Y221.8
M3 S1000
G1 X144.5 Y221.8
M3 S0
G0 X144.9 Y221.8
M3 S1000
G1 X144.9 Y221.8
M3 S1000
G1 X152.7 Y221.8
M3 S0
G0 X152.9 Y221.8
M3 S1000
G1 X152.9 Y221.8
M3 S1000
G1 X153.5 Y221.8
M3 S0
G0 X153.7 Y221.8
M3 S1000
G1 X153.7 Y221.8
M3 S1000
G1 X154.9 Y221.8
M3 S0
G0 X156.4 Y221.8
M3 S1000
G1 X156.4 Y221.8
M3 S1000
G1 X156.6 Y221.8
M3 S0
G0 X186.5 Y221.8
M3 S1000
G1 X186.5 Y221.8
M3 S1000
G1 X192.0 Y221.8
M3 S0
G0 X192.2 Y221.8
M3 S1000
G1 X192.2 Y221.8
M3 S1000
G1 X195.5 Y221.8
M3 S0
G0 X196.3 Y221.8
M3 S1000
G1 X196.3 Y221.8
M3 S1000
G1 X204.5 Y221.8
M3 S0
G0 X205.1 Y221.8
M3 S1000
G1 X205.1 Y221.8
M3 S1000
M5 S0
G0 X211.9 Y221.9
M3 S1000
G1 X205.0 Y221.9
M3 S0
G0 X204.4 Y221.9
M3 S1000
G1 X204.4 Y221.9
M3 S1000
G1 X196.2 Y221.9
M3 S0
G0 X195.4 Y221.9
M3 S1000
G1 X195.4 Y221.9
M3 S1000
G1 X192.1 Y221.9
M3 S0
G0 X191.9 Y221.9
M3 S1000
G1 X191.9 Y221.9
M3 S1000
G1 X186.4 Y221.9
M3 S0
G0 X156.5 Y221.9
M3 S1000
G1 X156.5 Y221.9
M3 S1000
G1 X156.3 Y221.9
M3 S0
G0 X154.8 Y221.9
M3 S1000
G1 X154.8 Y221.9
M3 S1000
G1 X153.6 Y221.9
M3 S0
G0 X153.4 Y221.9
M3 S1000
G1 X153.4 Y221.9
M3 S1000
G1 X152.8 Y221.9
M3 S0
G0 X152.6 Y221.9
M3 S1000
G1 X152.6 Y221.9
M3 S1000
G1 X144.8 Y221.9
M3 S0
G0 X144.4 Y221.9
M3 S1000
G1 X144.4 Y221.9
M3 S1000
G1 X138.9 Y221.9
M3 S0
G0 X138.8 Y221.9
M3 S1000
G1 X138.8 Y221.9
M3 S1000
G1 X137.4 Y221.9
M3 S0
G0 X137.0 Y221.9
M3 S1000
G1 X137.0 Y221.9
M3 S1000
G1 X133.1 Y221.9
M3 S0
G0 X132.7 Y221.9
M3 S1000
G1 X132.7 Y221.9
M3 S1000
G1 X123.5 Y221.9
M3 S0
G0 X118.8 Y221.9
M3 S1000
G1 X118.8 Y221.9
M3 S1000
G1 X118.0 Y221.9
M3 S0
G0 X114.9 Y221.9
M3 S1000
G1 X114.9 Y221.9
M3 S1000
M5 S0
G0 X112.0 Y222.0
M3 S1000
G1 X114.8 Y222.0
M3 S0
G0 X118.1 Y222.0
M3 S1000
G1 X118.1 Y222.0
M3 S1000
G1 X118.9 Y222.0
M3 S0
G0 X123.8 Y222.0
M3 S1000
G1 X123.8 Y222.0
M3 S1000
G1 X133.0 Y222.0
M3 S0
G0 X133.2 Y222.0
M3 S1000
G1 X133.2 Y222.0
M3 S1000
G1 X136.9 Y222.0
M3 S0
G0 X137.5 Y222.0
M3 S1000
G1 X137.5 Y222.0
M3 S1000
G1 X139.2 Y222.0
M3 S0
G0 X139.4 Y222.0
M3 S1000
G1 X139.4 Y222.0
M3 S1000
G1 X144.5 Y222.0
M3 S0
G0 X144.7 Y222.0
M3 S1000
G1 X144.7 Y222.0
M3 S1000
G1 X153.3 Y222.0
M3 S0
G0 X153.7 Y222.0
M3 S1000
G1 X153.7 Y222.0
M3 S1000
G1 X153.9 Y222.0
M3 S0
G0 X154.1 Y222.0
M3 S1000
G1 X154.1 Y222.0
M3 S1000
G1 X154.7 Y222.0
M3 S0
G0 X154.9 Y222.0
M3 S1000
G1 X154.9 Y222.0
M3 S1000
G1 X155.3 Y222.0
M3 S0
G0 X155.5 Y222.0
M3 S1000
G1 X155.5 Y222.0
M3 S1000
G1 X155.8 Y222.0
M3 S0
G0 X158.4 Y222.0
M3 S1000
G1 X158.4 Y222.0
M3 S1000
G1 X158.6 Y222.0
M3 S0
G0 X186.5 Y222.0
M3 S1000
G1 X186.5 Y222.0
M3 S1000
G1 X192.4 Y222.0
M3 S0
G0 X192.6 Y222.0
M3 S1000
G1 X192.6 Y222.0
M3 S1000
G1 X195.7 Y222.0
M3 S0
G0 X195.9 Y222.0
M3 S1000
G1 X195.9 Y222.0
M3 S1000
G1 X196.1 Y222.0
M3 S0
G0 X196.3 Y222.0
M3 S1000
G1 X196.3 Y222.0
M3 S1000
G1 X196.5 Y222.0
M3 S0
G0 X196.7 Y222.0
M3 S1000
G1 X196.7 Y222.0
M3 S1000
G1 X204.5 Y222.0
M3 S0
G0 X204.9 Y222.0
M3 S1000
G1 X204.9 Y222.0
M3 S1000
G1 X205.1 Y222.0
M3 S0
G0 X205.3 Y222.0
M3 S1000
G1 X205.3 Y222.0
M3 S1000
M5 S0
G0 X211.9 Y222.1
M3 S1000
G1 X205.2 Y222.1
M3 S0
G0 X205.0 Y222.1
M3 S1000
G1 X205.0 Y222.1
M3 S1000
G1 X204.8 Y222.1
M3 S0
G0 X204.4 Y222.1
M3 S1000
G1 X204.4 Y222.1
M3 S1000
G1 X196.6 Y222.1
M3 S0
G0 X196.4 Y222.1
M3 S1000
G1 X196.4 Y222.1
M3 S1000
G1 X196.2 Y222.1
M3 S0
G0 X196.0 Y222.1
M3 S1000
G1 X196.0 Y222.1
M3 S1000
G1 X195.8 Y222.1
M3 S0
G0 X195.6 Y222.1
M3 S1000
G1 X195.6 Y222.1
M3 S1000
G1 X192.5 Y222.1
M3 S0
G0 X192.3 Y222.1
M3 S1000
G1 X192.3 Y222.1
M3 S1000
G1 X186.4 Y222.1
M3 S0
G0 X158.5 Y222.1
M3 S1000
G1 X158.5 Y222.1
M3 S1000
G1 X158.3 Y222.1
M3 S0
G0 X155.7 Y222.1
M3 S1000
G1 X155.7 Y222.1
M3 S1000
G1 X155.4 Y222.1
M3 S0
G0 X155.2 Y222.1
M3 S1000
G1 X155.2 Y222.1
M3 S1000
G1 X154.8 Y222.1
M3 S0
G0 X154.6 Y222.1
M3 S1000
G1 X154.6 Y222.1
M3 S1000
G1 X154.0 Y222.1
M3 S0
G0 X153.8 Y222.1
M3 S1000
G1 X153.8 Y222.1
M3 S1000
G1 X153.6 Y222.1
M3 S0
G0 X153.2 Y222.1
M3 S1000
G1 X153.2 Y222.1
M3 S1000
G1 X144.6 Y222.1
M3 S0
G0 X144.4 Y222.1
M3 S1000
G1 X144.4 Y222.1
M3 S1000
G1 X139.3 Y222.1
M3 S0
G0 X139.1 Y222.1
M3 S1000
G1 X139.1 Y222.1
M3 S1000
G1 X137.4 Y222.1
M3 S0
G0 X136.8 Y222.1
M3 S1000
G1 X136.8 Y222.1
M3 S1000
G1 X133.1 Y222.1
M3 S0
G0 X132.9 Y222.1
M3 S1000
G1 X132.9 Y222.1
M3 S1000
G1 X123.7 Y222.1
M3 S0
G0 X118.8 Y222.1
M3 S1000
G1 X118.8 Y222.1
M3 S1000
G1 X118.0 Y222.1
M3 S0
G0 X114.7 Y222.1
M3 S1000
G1 X114.7 Y222.1
M3 S1000
M5 S0
G0 X112.0 Y222.2
M3 S1000
G1 X114.8 Y222.2
M3 S0
G0 X118.0 Y222.2
M3 S1000
G1 X118.0 Y222.2
M3 S1000
G1 X118.9 Y222.2
M3 S0
G0 X124.2 Y222.2
M3 S1000
G1 X124.2 Y222.2
M3 S1000
G1 X133.0 Y222.2
M3 S0
G0 X133.2 Y222.2
M3 S1000
G1 X133.2 Y222.2
M3 S1000
G1 X136.9 Y222.2
M3 S0
G0 X137.3 Y222.2
M3 S1000
G1 X137.3 Y222.2
M3 S1000
G1 X144.3 Y222.2
M3 S0
G0 X144.5 Y222.2
M3 S1000
G1 X144.5 Y222.2
M3 S1000
G1 X153.3 Y222.2
M3 S0
G0 X153.9 Y222.2
M3 S1000
G1 X153.9 Y222.2
M3 S1000
G1 X154.7 Y222.2
M3 S0
G0 X154.9 Y222.2
M3 S1000
G1 X154.9 Y222.2
M3 S1000
G1 X155.6 Y222.2
M3 S0
G0 X186.5 Y222.2
M3 S1000
G1 X186.5 Y222.2
M3 S1000
G1 X196.5 Y222.2
M3 S0
G0 X196.7 Y222.2
M3 S1000
G1 X196.7 Y222.2
M3 S1000
G1 X204.9 Y222.2
M3 S0
G0 X205.1 Y222.2
M3 S1000
G1 X205.1 Y222.2
M3 S1000
M5 S0
G0 X211.9 Y222.3
M3 S1000
G1 X205.0 Y222.3
M3 S0
G0 X204.8 Y222.3
M3 S1000
G1 X204.8 Y222.3
M3 S1000
G1 X196.6 Y222.3
M3 S0
G0 X196.4 Y222.3
M3 S1000
G1 X196.4 Y222.3
M3 S1000
G1 X186.4 Y222.3
M3 S0
G0 X155.5 Y222.3
M3 S1000
G1 X155.5 Y222.3
M3 S1000
G1 X154.8 Y222.3
M3 S0
G0 X154.6 Y222.3
M3 S1000
G1 X154.6 Y222.3
M3 S1000
G1 X153.8 Y222.3
M3 S0
G0 X153.2 Y222.3
M3 S1000
G1 X153.2 Y222.3
M3 S1000
G1 X144.4 Y222.3
M3 S0
G0 X144.2 Y222.3
M3 S1000
G1 X144.2 Y222.3
M3 S1000
G1 X137.2 Y222.3
M3 S0
G0 X136.8 Y222.3
M3 S1000
G1 X136.8 Y222.3
M3 S1000
G1 X133.1 Y222.3
M3 S0
G0 X132.9 Y222.3
M3 S1000
G1 X132.9 Y222.3
M3 S1000
G1 X124.1 Y222.3
M3 S0
G0 X118.8 Y222.3
M3 S1000
G1 X118.8 Y222.3
M3 S1000
G1 X117.9 Y222.3
M3 S0
G0 X114.7 Y222.3
M3 S1000
G1 X114.7 Y222.3
M3 S1000
M5 S0
G0 X112.0 Y222.4
M3 S1000
G1 X114.8 Y222.4
M3 S0
G0 X118.0 Y222.4
M3 S1000
G1 X118.0 Y222.4
M3 S1000
G1 X118.9 Y222.4
M3 S0
G0 X123.8 Y222.4
M3 S1000
G1 X123.8 Y222.4
M3 S1000
G1 X124.0 Y222.4
M3 S0
G0 X124.2 Y222.4
M3 S1000
G1 X124.2 Y222.4
M3 S1000
G1 X133.0 Y222.4
M3 S0
G0 X133.4 Y222.4
M3 S1000
G1 X133.4 Y222.4
M3 S1000
G1 X136.7 Y222.4
M3 S0
G0 X137.3 Y222.4
M3 S1000
G1 X137.3 Y222.4
M3 S1000
G1 X153.3 Y222.4
M3 S0
G0 X153.7 Y222.4
M3 S1000
G1 X153.7 Y222.4
M3 S1000
G1 X155.8 Y222.4
M3 S0
G0 X186.3 Y222.4
M3 S1000
G1 X186.3 Y222.4
M3 S1000
G1 X205.5 Y222.4
M3 S0
G0 X205.6 Y222.4
M3 S1000
G1 X205.6 Y222.4
M3 S1000
M5 S0
G0 X211.9 Y222.5
M3 S1000
G1 X205.5 Y222.5
M3 S0
G0 X205.4 Y222.5
M3 S1000
G1 X205.4 Y222.5
M3 S1000
G1 X186.2 Y222.5
M3 S0
G0 X155.7 Y222.5
M3 S1000
G1 X155.7 Y222.5
M3 S1000
G1 X153.6 Y222.5
M3 S0
G0 X153.2 Y222.5
M3 S1000
G1 X153.2 Y222.5
M3 S1000
G1 X137.2 Y222.5
M3 S0
G0 X136.6 Y222.5
M3 S1000
G1 X136.6 Y222.5
M3 S1000
G1 X133.3 Y222.5
M3 S0
G0 X132.9 Y222.5
M3 S1000
G1 X132.9 Y222.5
M3 S1000
G1 X124.1 Y222.5
M3 S0
G0 X123.9 Y222.5
M3 S1000
G1 X123.9 Y222.5
M3 S1000
G1 X123.7 Y222.5
M3 S0
G0 X118.8 Y222.5
M3 S1000
G1 X118.8 Y222.5
M3 S1000
G1 X117.9 Y222.5
M3 S0
G0 X114.7 Y222.5
M3 S1000
G1 X114.7 Y222.5
M3 S1000
M5 S0
G0 X112.0 Y222.6
M3 S1000
G1 X115.0 Y222.6
M3 S0
G0 X118.0 Y222.6
M3 S1000
G1 X118.0 Y222.6
M3 S1000
G1 X118.9 Y222.6
M3 S0
G0 X124.0 Y222.6
M3 S1000
G1 X124.0 Y222.6
M3 S1000
G1 X133.0 Y222.6
M3 S0
G0 X133.4 Y222.6
M3 S1000
G1 X133.4 Y222.6
M3 S1000
G1 X135.5 Y222.6
M3 S0
G0 X135.7 Y222.6
M3 S1000
G1 X135.7 Y222.6
M3 S1000
G1 X136.5 Y222.6
M3 S0
G0 X137.1 Y222.6
M3 S1000
G1 X137.1 Y222.6
M3 S1000
G1 X153.3 Y222.6
M3 S0
G0 X153.5 Y222.6
M3 S1000
G1 X153.5 Y222.6
M3 S1000
G1 X154.5 Y222.6
M3 S0
G0 X154.9 Y222.6
M3 S1000
G1 X154.9 Y222.6
M3 S1000
G1 X155.6 Y222.6
M3 S0
G0 X157.6 Y222.6
M3 S1000
G1 X157.6 Y222.6
M3 S1000
G1 X157.8 Y222.6
M3 S0
G0 X186.3 Y222.6
M3 S1000
G1 X186.3 Y222.6
M3 S1000
M5 S0
G0 X211.9 Y222.7
M3 S1000
G1 X186.2 Y222.7
M3 S0
G0 X157.7 Y222.7
M3 S1000
G1 X157.7 Y222.7
M3 S1000
G1 X157.5 Y222.7
M3 S0
G0 X155.5 Y222.7
M3 S1000
G1 X155.5 Y222.7
M3 S1000
G1 X154.8 Y222.7
M3 S0
G0 X154.4 Y222.7
M3 S1000
G1 X154.4 Y222.7
M3 S1000
G1 X153.4 Y222.7
M3 S0
G0 X153.2 Y222.7
M3 S1000
G1 X153.2 Y222.7
M3 S1000
G1 X137.0 Y222.7
M3 S0
G0 X136.4 Y222.7
M3 S1000
G1 X136.4 Y222.7
M3 S1000
G1 X135.6 Y222.7
M3 S0
G0 X135.4 Y222.7
M3 S1000
G1 X135.4 Y222.7
M3 S1000
G1 X133.3 Y222.7
M3 S0
G0 X132.9 Y222.7
M3 S1000
G1 X132.9 Y222.7
M3 S1000
G1 X123.9 Y222.7
M3 S0
G0 X118.8 Y222.7
M3 S1000
G1 X118.8 Y222.7
M3 S1000
G1 X117.9 Y222.7
M3 S0
G0 X114.9 Y222.7
M3 S1000
G1 X114.9 Y222.7
M3 S1000
M5 S0
G0 X112.0 Y222.8
M3 S1000
G1 X115.0 Y222.8
M3 S0
G0 X118.0 Y222.8
M3 S1000
G1 X118.0 Y222.8
M3 S1000
G1 X118.7 Y222.8
M3 S0
G0 X123.8 Y222.8
M3 S1000
G1 X123.8 Y222.8
M3 S1000
G1 X133.2 Y222.8
M3 S0
G0 X133.4 Y222.8
M3 S1000
G1 X133.4 Y222.8
M3 S1000
G1 X136.5 Y222.8
M3 S0
G0 X137.1 Y222.8
M3 S1000
G1 X137.1 Y222.8
M3 S1000
G1 X141.4 Y222.8
M3 S0
G0 X141.6 Y222.8
M3 S1000
G1 X141.6 Y222.8
M3 S1000
G1 X153.5 Y222.8
M3 S0
G0 X153.7 Y222.8
M3 S1000
G1 X153.7 Y222.8
M3 S1000
G1 X154.5 Y222.8
M3 S0
G0 X154.7 Y222.8
M3 S1000
G1 X154.7 Y222.8
M3 S1000
G1 X155.1 Y222.8
M3 S0
G0 X155.3 Y222.8
M3 S1000
G1 X155.3 Y222.8
M3 S1000
G1 X155.6 Y222.8
M3 S0
G0 X155.8 Y222.8
M3 S1000
G1 X155.8 Y222.8
M3 S1000
G1 X156.0 Y222.8
M3 S0
G0 X156.2 Y222.8
M3 S1000
G1 X156.2 Y222.8
M3 S1000
G1 X156.4 Y222.8
M3 S0
G0 X186.3 Y222.8
M3 S1000
G1 X186.3 Y222.8
M3 S1000
M5 S0
G0 X211.9 Y222.9
M3 S1000
G1 X186.2 Y222.9
M3 S0
G0 X156.3 Y222.9
M3 S1000
G1 X156.3 Y222.9
M3 S1000
G1 X156.1 Y222.9
M3 S0
G0 X155.9 Y222.9
M3 S1000
G1 X155.9 Y222.9
M3 S1000
G1 X155.7 Y222.9
M3 S0
G0 X155.5 Y222.9
M3 S1000
G1 X155.5 Y222.9
M3 S1000
G1 X155.2 Y222.9
M3 S0
G0 X155.0 Y222.9
M3 S1000
G1 X155.0 Y222.9
M3 S1000
G1 X154.6 Y222.9
M3 S0
G0 X154.4 Y222.9
M3 S1000
G1 X154.4 Y222.9
M3 S1000
G1 X153.6 Y222.9
M3 S0
G0 X153.4 Y222.9
M3 S1000
G1 X153.4 Y222.9
M3 S1000
G1 X141.5 Y222.9
M3 S0
G0 X141.3 Y222.9
M3 S1000
G1 X141.3 Y222.9
M3 S1000
G1 X137.0 Y222.9
M3 S0
G0 X136.4 Y222.9
M3 S1000
G1 X136.4 Y222.9
M3 S1000
G1 X133.3 Y222.9
M3 S0
G0 X133.1 Y222.9
M3 S1000
G1 X133.1 Y222.9
M3 S1000
G1 X123.7 Y222.9
M3 S0
G0 X118.6 Y222.9
M3 S1000
G1 X118.6 Y222.9
M3 S1000
G1 X117.9 Y222.9
M3 S0
G0 X114.9 Y222.9
M3 S1000
G1 X114.9 Y222.9
M3 S1000
M5 S0
G0 X112.0 Y223.0
M3 S1000
G1 X115.0 Y223.0
M3 S0
G0 X118.0 Y223.0
M3 S1000
G1 X118.0 Y223.0
M3 S1000
G1 X118.9 Y223.0
M3 S0
G0 X123.6 Y223.0
M3 S1000
G1 X123.6 Y223.0
M3 S1000
G1 X133.2 Y223.0
M3 S0
G0 X133.4 Y223.0
M3 S1000
G1 X133.4 Y223.0
M3 S1000
G1 X136.5 Y223.0
M3 S0
G0 X136.9 Y223.0
M3 S1000
G1 X136.9 Y223.0
M3 S1000
G1 X138.9 Y223.0
M3 S0
G0 X139.0 Y223.0
M3 S1000
G1 X139.0 Y223.0
M3 S1000
G1 X141.2 Y223.0
M3 S0
G0 X141.4 Y223.0
M3 S1000
G1 X141.4 Y223.0
M3 S1000
G1 X154.3 Y223.0
M3 S0
G0 X155.1 Y223.0
M3 S1000
G1 X155.1 Y223.0
M3 S1000
G1 X155.6 Y223.0
M3 S0
G0 X156.0 Y223.0
M3 S1000
G1 X156.0 Y223.0
M3 S1000
G1 X156.2 Y223.0
M3 S0
G0 X186.3 Y223.0
M3 S1000
G1 X186.3 Y223.0
M3 S1000
M5 S0
G0 X211.9 Y223.1
M3 S1000
G1 X205.9 Y223.1
M3 S0
G0 X205.7 Y223.1
M3 S1000
G1 X205.7 Y223.1
M3 S1000
G1 X186.0 Y223.1
M3 S0
G0 X157.3 Y223.1
M3 S1000
G1 X157.3 Y223.1
M3 S1000
G1 X157.1 Y223.1
M3 S0
G0 X155.5 Y223.1
M3 S1000
G1 X155.5 Y223.1
M3 S1000
G1 X155.4 Y223.1
M3 S0
G0 X154.6 Y223.1
M3 S1000
G1 X154.6 Y223.1
M3 S1000
G1 X154.4 Y223.1
M3 S0
G0 X154.2 Y223.1
M3 S1000
G1 X154.2 Y223.1
M3 S1000
G1 X141.3 Y223.1
M3 S0
G0 X141.1 Y223.1
M3 S1000
G1 X141.1 Y223.1
M3 S1000
G1 X136.8 Y223.1
M3 S0
G0 X136.2 Y223.1
M3 S1000
G1 X136.2 Y223.1
M3 S1000
G1 X123.5 Y223.1
M3 S0
G0 X118.6 Y223.1
M3 S1000
G1 X118.6 Y223.1
M3 S1000
G1 X117.7 Y223.1
M3 S0
G0 X114.9 Y223.1
M3 S1000
G1 X114.9 Y223.1
M3 S1000
M5 S0
G0 X112.0 Y223.2
M3 S1000
G1 X115.0 Y223.2
M3 S0
G0 X117.8 Y223.2
M3 S1000
G1 X117.8 Y223.2
M3 S1000
G1 X118.7 Y223.2
M3 S0
G0 X123.6 Y223.2
M3 S1000
G1 X123.6 Y223.2
M3 S1000
G1 X136.3 Y223.2
M3 S0
G0 X136.9 Y223.2
M3 S1000
G1 X136.9 Y223.2
M3 S1000
G1 X141.2 Y223.2
M3 S0
G0 X141.4 Y223.2
M3 S1000
G1 X141.4 Y223.2
M3 S1000
G1 X154.3 Y223.2
M3 S0
G0 X154.5 Y223.2
M3 S1000
G1 X154.5 Y223.2
M3 S1000
G1 X154.7 Y223.2
M3 S0
G0 X155.5 Y223.2
M3 S1000
G1 X155.5 Y223.2
M3 S1000
G1 X155.6 Y223.2
M3 S0
G0 X157.2 Y223.2
M3 S1000
G1 X157.2 Y223.2
M3 S1000
G1 X157.4 Y223.2
M3 S0
G0 X186.1 Y223.2
M3 S1000
G1 X186.1 Y223.2
M3 S1000
G1 X205.8 Y223.2
M3 S0
G0 X206.0 Y223.2
M3 S1000
G1 X206.0 Y223.2
M3 S1000
M5 S0
G0 X211.9 Y223.3
M3 S1000
G1 X186.0 Y223.3
M3 S0
G0 X157.3 Y223.3
M3 S1000
G1 X157.3 Y223.3
M3 S1000
G1 X157.1 Y223.3
M3 S0
G0 X156.5 Y223.3
M3 S1000
G1 X156.5 Y223.3
M3 S1000
G1 X156.3 Y223.3
M3 S0
G0 X156.1 Y223.3
M3 S1000
G1 X156.1 Y223.3
M3 S1000
G1 X155.9 Y223.3
M3 S0
G0 X155.5 Y223.3
M3 S1000
G1 X155.5 Y223.3
M3 S1000
G1 X155.4 Y223.3
M3 S0
G0 X154.4 Y223.3
M3 S1000
G1 X154.4 Y223.3
M3 S1000
G1 X153.8 Y223.3
M3 S0
G0 X153.6 Y223.3
M3 S1000
G1 X153.6 Y223.3
M3 S1000
G1 X141.1 Y223.3
M3 S0
G0 X140.9 Y223.3
M3 S1000
G1 X140.9 Y223.3
M3 S1000
G1 X138.8 Y223.3
M3 S0
G0 X138.6 Y223.3
M3 S1000
G1 X138.6 Y223.3
M3 S1000
G1 X136.6 Y223.3
M3 S0
G0 X136.2 Y223.3
M3 S1000
G1 X136.2 Y223.3
M3 S1000
G1 X123.7 Y223.3
M3 S0
G0 X118.8 Y223.3
M3 S1000
G1 X118.8 Y223.3
M3 S1000
G1 X117.7 Y223.3
M3 S0
G0 X114.9 Y223.3
M3 S1000
G1 X114.9 Y223.3
M3 S1000
M5 S0
G0 X112.0 Y223.4
M3 S1000
G1 X115.0 Y223.4
M3 S0
G0 X117.8 Y223.4
M3 S1000
G1 X117.8 Y223.4
M3 S1000
G1 X118.9 Y223.4
M3 S0
G0 X123.8 Y223.4
M3 S1000
G1 X123.8 Y223.4
M3 S1000
G1 X136.3 Y223.4
M3 S0
G0 X136.7 Y223.4
M3 S1000
G1 X136.7 Y223.4
M3 S1000
G1 X138.7 Y223.4
M3 S0
G0 X138.9 Y223.4
M3 S1000
G1 X138.9 Y223.4
M3 S1000
G1 X141.0 Y223.4
M3 S0
G0 X141.2 Y223.4
M3 S1000
G1 X141.2 Y223.4
M3 S1000
G1 X153.7 Y223.4
M3 S0
G0 X153.9 Y223.4
M3 S1000
G1 X153.9 Y223.4
M3 S1000
G1 X154.5 Y223.4
M3 S0
G0 X155.5 Y223.4
M3 S1000
G1 X155.5 Y223.4
M3 S1000
G1 X155.6 Y223.4
M3 S0
G0 X156.0 Y223.4
M3 S1000
G1 X156.0 Y223.4
M3 S1000
G1 X156.2 Y223.4
M3 S0
G0 X156.4 Y223.4
M3 S1000
G1 X156.4 Y223.4
M3 S1000
G1 X156.6 Y223.4
M3 S0
G0 X157.2 Y223.4
M3 S1000
G1 X157.2 Y223.4
M3 S1000
G1 X157.4 Y223.4
M3 S0
G0 X186.1 Y223.4
M3 S1000
G1 X186.1 Y223.4
M3 S1000
M5 S0
G0 X211.9 Y223.5
M3 S1000
G1 X186.0 Y223.5
M3 S0
G0 X157.5 Y223.5
M3 S1000
G1 X157.5 Y223.5
M3 S1000
G1 X157.3 Y223.5
M3 S0
G0 X156.9 Y223.5
M3 S1000
G1 X156.9 Y223.5
M3 S1000
G1 X156.7 Y223.5
M3 S0
G0 X156.3 Y223.5
M3 S1000
G1 X156.3 Y223.5
M3 S1000
G1 X156.1 Y223.5
M3 S0
G0 X155.7 Y223.5
M3 S1000
G1 X155.7 Y223.5
M3 S1000
G1 X155.5 Y223.5
M3 S0
G0 X155.2 Y223.5
M3 S1000
G1 X155.2 Y223.5
M3 S1000
G1 X154.8 Y223.5
M3 S0
G0 X154.2 Y223.5
M3 S1000
G1 X154.2 Y223.5
M3 S1000
G1 X154.0 Y223.5
M3 S0
G0 X153.6 Y223.5
M3 S1000
G1 X153.6 Y223.5
M3 S1000
G1 X153.4 Y223.5
M3 S0
G0 X153.2 Y223.5
M3 S1000
G1 X153.2 Y223.5
M3 S1000
G1 X138.8 Y223.5
M3 S0
G0 X138.6 Y223.5
M3 S1000
G1 X138.6 Y223.5
M3 S1000
G1 X136.4 Y223.5
M3 S0
G0 X136.2 Y223.5
M3 S1000
G1 X136.2 Y223.5
M3 S1000
G1 X123.9 Y223.5
M3 S0
G0 X118.8 Y223.5
M3 S1000
G1 X118.8 Y223.5
M3 S1000
G1 X117.7 Y223.5
M3 S0
G0 X114.9 Y223.5
M3 S1000
G1 X114.9 Y223.5
M3 S1000
M5 S0
G0 X112.0 Y223.6
M3 S1000
G1 X115.0 Y223.6
M3 S0
G0 X117.8 Y223.6
M3 S1000
G1 X117.8 Y223.6
M3 S1000
G1 X118.9 Y223.6
M3 S0
G0 X124.0 Y223.6
M3 S1000
G1 X124.0 Y223.6
M3 S1000
G1 X136.3 Y223.6
M3 S0
G0 X136.5 Y223.6
M3 S1000
G1 X136.5 Y223.6
M3 S1000
G1 X138.7 Y223.6
M3 S0
G0 X138.9 Y223.6
M3 S1000
G1 X138.9 Y223.6
M3 S1000
G1 X153.3 Y223.6
M3 S0
G0 X153.5 Y223.6
M3 S1000
G1 X153.5 Y223.6
M3 S1000
G1 X153.7 Y223.6
M3 S0
G0 X154.1 Y223.6
M3 S1000
G1 X154.1 Y223.6
M3 S1000
G1 X154.3 Y223.6
M3 S0
G0 X154.9 Y223.6
M3 S1000
G1 X154.9 Y223.6
M3 S1000
G1 X155.3 Y223.6
M3 S0
G0 X155.6 Y223.6
M3 S1000
G1 X155.6 Y223.6
M3 S1000
G1 X155.8 Y223.6
M3 S0
G0 X156.2 Y223.6
M3 S1000
G1 X156.2 Y223.6
M3 S1000
G1 X156.4 Y223.6
M3 S0
G0 X156.8 Y223.6
M3 S1000
G1 X156.8 Y223.6
M3 S1000
G1 X157.0 Y223.6
M3 S0
G0 X157.4 Y223.6
M3 S1000
G1 X157.4 Y223.6
M3 S1000
G1 X157.6 Y223.6
M3 S0
G0 X186.1 Y223.6
M3 S1000
G1 X186.1 Y223.6
M3 S1000
M5 S0
G0 X211.9 Y223.7
M3 S1000
G1 X186.0 Y223.7
M3 S0
G0 X157.5 Y223.7
M3 S1000
G1 X157.5 Y223.7
M3 S1000
G1 X157.1 Y223.7
M3 S0
G0 X156.9 Y223.7
M3 S1000
G1 X156.9 Y223.7
M3 S1000
G1 X156.3 Y223.7
M3 S0
G0 X155.4 Y223.7
M3 S1000
G1 X155.4 Y223.7
M3 S1000
G1 X155.2 Y223.7
M3 S0
G0 X155.0 Y223.7
M3 S1000
G1 X155.0 Y223.7
M3 S1000
G1 X143.0 Y223.7
M3 S0
G0 X142.9 Y223.7
M3 S1000
G1 X142.9 Y223.7
M3 S1000
G1 X138.8 Y223.7
M3 S0
G0 X138.6 Y223.7
M3 S1000
G1 X138.6 Y223.7
M3 S1000
G1 X124.1 Y223.7
M3 S0
G0 X118.8 Y223.7
M3 S1000
G1 X118.8 Y223.7
M3 S1000
G1 X117.5 Y223.7
M3 S0
G0 X114.9 Y223.7
M3 S1000
G1 X114.9 Y223.7
M3 S1000
M5 S0
G0 X112.0 Y223.8
M3 S1000
G1 X115.0 Y223.8
M3 S0
G0 X117.6 Y223.8
M3 S1000
G1 X117.6 Y223.8
M3 S1000
G1 X118.9 Y223.8
M3 S0
G0 X124.2 Y223.8
M3 S1000
G1 X124.2 Y223.8
M3 S1000
G1 X138.7 Y223.8
M3 S0
G0 X138.9 Y223.8
M3 S1000
G1 X138.9 Y223.8
M3 S1000
G1 X143.0 Y223.8
M3 S0
G0 X143.1 Y223.8
M3 S1000
G1 X143.1 Y223.8
M3 S1000
G1 X155.1 Y223.8
M3 S0
G0 X155.3 Y223.8
M3 S1000
G1 X155.3 Y223.8
M3 S1000
G1 X155.5 Y223.8
M3 S0
G0 X156.4 Y223.8
M3 S1000
G1 X156.4 Y223.8
M3 S1000
G1 X157.0 Y223.8
M3 S0
G0 X157.2 Y223.8
M3 S1000
G1 X157.2 Y223.8
M3 S1000
G1 X157.6 Y223.8
M3 S0
G0 X186.1 Y223.8
M3 S1000
G1 X186.1 Y223.8
M3 S1000
M5 S0
G0 X211.9 Y223.9
M3 S1000
G1 X185.8 Y223.9
M3 S0
G0 X158.1 Y223.9
M3 S1000
G1 X158.1 Y223.9
M3 S1000
G1 X157.9 Y223.9
M3 S0
G0 X157.5 Y223.9
M3 S1000
G1 X157.5 Y223.9
M3 S1000
G1 X157.1 Y223.9
M3 S0
G0 X156.7 Y223.9
M3 S1000
G1 X156.7 Y223.9
M3 S1000
G1 X156.3 Y223.9
M3 S0
G0 X155.5 Y223.9
M3 S1000
G1 X155.5 Y223.9
M3 S1000
G1 X155.4 Y223.9
M3 S0
G0 X155.2 Y223.9
M3 S1000
G1 X155.2 Y223.9
M3 S1000
G1 X138.8 Y223.9
M3 S0
G0 X138.6 Y223.9
M3 S1000
G1 X138.6 Y223.9
M3 S1000
G1 X124.1 Y223.9
M3 S0
G0 X118.8 Y223.9
M3 S1000
G1 X118.8 Y223.9
M3 S1000
G1 X117.7 Y223.9
M3 S0
G0 X114.9 Y223.9
M3 S1000
G1 X114.9 Y223.9
M3 S1000
M5 S0
G0 X112.0 Y224.0
M3 S1000
G1 X115.0 Y224.0
M3 S0
G0 X117.8 Y224.0
M3 S1000
G1 X117.8 Y224.0
M3 S1000
G1 X118.9 Y224.0
M3 S0
G0 X124.2 Y224.0
M3 S1000
G1 X124.2 Y224.0
M3 S1000
G1 X138.7 Y224.0
M3 S0
G0 X138.9 Y224.0
M3 S1000
G1 X138.9 Y224.0
M3 S1000
G1 X155.3 Y224.0
M3 S0
G0 X155.5 Y224.0
M3 S1000
G1 X155.5 Y224.0
M3 S1000
G1 X155.6 Y224.0
M3 S0
G0 X156.4 Y224.0
M3 S1000
G1 X156.4 Y224.0
M3 S1000
G1 X156.8 Y224.0
M3 S0
G0 X157.2 Y224.0
M3 S1000
G1 X157.2 Y224.0
M3 S1000
G1 X157.6 Y224.0
M3 S0
G0 X158.0 Y224.0
M3 S1000
G1 X158.0 Y224.0
M3 S1000
G1 X158.2 Y224.0
M3 S0
G0 X185.9 Y224.0
M3 S1000
G1 X185.9 Y224.0
M3 S1000
M5 S0
G0 X211.9 Y224.1
M3 S1000
G1 X185.8 Y224.1
M3 S0
G0 X157.7 Y224.1
M3 S1000
G1 X157.7 Y224.1
M3 S1000
G1 X157.3 Y224.1
M3 S0
G0 X156.5 Y224.1
M3 S1000
G1 X156.5 Y224.1
M3 S1000
G1 X156.1 Y224.1
M3 S0
G0 X155.7 Y224.1
M3 S1000
G1 X155.7 Y224.1
M3 S1000
G1 X155.5 Y224.1
M3 S0
G0 X155.0 Y224.1
M3 S1000
G1 X155.0 Y224.1
M3 S1000
G1 X138.6 Y224.1
M3 S0
G0 X138.4 Y224.1
M3 S1000
G1 X138.4 Y224.1
M3 S1000
G1 X124.1 Y224.1
M3 S0
G0 X118.8 Y224.1
M3 S1000
G1 X118.8 Y224.1
M3 S1000
G1 X117.5 Y224.1
M3 S0
G0 X114.9 Y224.1
M3 S1000
G1 X114.9 Y224.1
M3 S1000
M5 S0
G0 X112.0 Y224.2
M3 S1000
G1 X115.0 Y224.2
M3 S0
G0 X117.6 Y224.2
M3 S1000
G1 X117.6 Y224.2
M3 S1000
G1 X118.9 Y224.2
M3 S0
G0 X124.2 Y224.2
M3 S1000
G1 X124.2 Y224.2
M3 S1000
G1 X138.5 Y224.2
M3 S0
G0 X138.7 Y224.2
M3 S1000
G1 X138.7 Y224.2
M3 S1000
G1 X155.1 Y224.2
M3 S0
G0 X155.6 Y224.2
M3 S1000
G1 X155.6 Y224.2
M3 S1000
G1 X155.8 Y224.2
M3 S0
G0 X156.2 Y224.2
M3 S1000
G1 X156.2 Y224.2
M3 S1000
G1 X156.6 Y224.2
M3 S0
G0 X157.4 Y224.2
M3 S1000
G1 X157.4 Y224.2
M3 S1000
G1 X157.8 Y224.2
M3 S0
G0 X185.9 Y224.2
M3 S1000
G1 X185.9 Y224.2
M3 S1000
M5 S0
G0 X211.9 Y224.3
M3 S1000
G1 X185.8 Y224.3
M3 S0
G0 X157.9 Y224.3
M3 S1000
G1 X157.9 Y224.3
M3 S1000
G1 X157.5 Y224.3
M3 S0
G0 X155.9 Y224.3
M3 S1000
G1 X155.9 Y224.3
M3 S1000
G1 X155.7 Y224.3
M3 S0
G0 X155.5 Y224.3
M3 S1000
G1 X155.5 Y224.3
M3 S1000
G1 X142.7 Y224.3
M3 S0
G0 X142.5 Y224.3
M3 S1000
G1 X142.5 Y224.3
M3 S1000
G1 X142.1 Y224.3
M3 S0
G0 X141.9 Y224.3
M3 S1000
G1 X141.9 Y224.3
M3 S1000
G1 X124.1 Y224.3
M3 S0
G0 X118.8 Y224.3
M3 S1000
G1 X118.8 Y224.3
M3 S1000
G1 X117.5 Y224.3
M3 S0
G0 X114.9 Y224.3
M3 S1000
G1 X114.9 Y224.3
M3 S1000
M5 S0
G0 X112.0 Y224.4
M3 S1000
G1 X115.0 Y224.4
M3 S0
G0 X117.6 Y224.4
M3 S1000
G1 X117.6 Y224.4
M3 S1000
G1 X118.9 Y224.4
M3 S0
G0 X124.2 Y224.4
M3 S1000
G1 X124.2 Y224.4
M3 S1000
G1 X142.0 Y224.4
M3 S0
G0 X142.2 Y224.4
M3 S1000
G1 X142.2 Y224.4
M3 S1000
G1 X142.6 Y224.4
M3 S0
G0 X142.8 Y224.4
M3 S1000
G1 X142.8 Y224.4
M3 S1000
G1 X155.6 Y224.4
M3 S0
G0 X155.8 Y224.4
M3 S1000
G1 X155.8 Y224.4
M3 S1000
G1 X156.0 Y224.4
M3 S0
G0 X157.6 Y224.4
M3 S1000
G1 X157.6 Y224.4
M3 S1000
G1 X158.0 Y224.4
M3 S0
G0 X185.9 Y224.4
M3 S1000
G1 X185.9 Y224.4
M3 S1000
M5 S0
G0 X211.9 Y224.5
M3 S1000
G1 X194.8 Y224.5
M3 S0
G0 X194.6 Y224.5
M3 S1000
G1 X194.6 Y224.5
M3 S1000
G1 X185.8 Y224.5
M3 S0
G0 X158.9 Y224.5
M3 S1000
G1 X158.9 Y224.5
M3 S1000
G1 X158.7 Y224.5
M3 S0
G0 X156.9 Y224.5
M3 S1000
G1 X156.9 Y224.5
M3 S1000
G1 X156.7 Y224.5
M3 S0
G0 X156.1 Y224.5
M3 S1000
G1 X156.1 Y224.5
M3 S1000
G1 X155.9 Y224.5
M3 S0
G0 X155.0 Y224.5
M3 S1000
G1 X155.0 Y224.5
M3 S1000
G1 X143.4 Y224.5
M3 S0
G0 X143.0 Y224.5
M3 S1000
G1 X143.0 Y224.5
M3 S1000
G1 X142.1 Y224.5
M3 S0
G0 X141.9 Y224.5
M3 S1000
G1 X141.9 Y224.5
M3 S1000
G1 X140.3 Y224.5
M3 S0
G0 X140.1 Y224.5
M3 S1000
G1 X140.1 Y224.5
M3 S1000
G1 X124.1 Y224.5
M3 S0
G0 X118.8 Y224.5
M3 S1000
G1 X118.8 Y224.5
M3 S1000
G1 X117.5 Y224.5
M3 S0
G0 X114.7 Y224.5
M3 S1000
G1 X114.7 Y224.5
M3 S1000
M5 S0
G0 X112.0 Y224.6
M3 S1000
G1 X114.8 Y224.6
M3 S0
G0 X117.6 Y224.6
M3 S1000
G1 X117.6 Y224.6
M3 S1000
G1 X118.9 Y224.6
M3 S0
G0 X124.2 Y224.6
M3 S1000
G1 X124.2 Y224.6
M3 S1000
G1 X140.2 Y224.6
M3 S0
G0 X140.4 Y224.6
M3 S1000
G1 X140.4 Y224.6
M3 S1000
G1 X142.0 Y224.6
M3 S0
G0 X142.2 Y224.6
M3 S1000
G1 X142.2 Y224.6
M3 S1000
G1 X143.1 Y224.6
M3 S0
G0 X143.5 Y224.6
M3 S1000
G1 X143.5 Y224.6
M3 S1000
G1 X155.1 Y224.6
M3 S0
G0 X156.0 Y224.6
M3 S1000
G1 X156.0 Y224.6
M3 S1000
G1 X156.2 Y224.6
M3 S0
G0 X156.8 Y224.6
M3 S1000
G1 X156.8 Y224.6
M3 S1000
G1 X157.0 Y224.6
M3 S0
G0 X158.8 Y224.6
M3 S1000
G1 X158.8 Y224.6
M3 S1000
G1 X159.0 Y224.6
M3 S0
G0 X185.9 Y224.6
M3 S1000
G1 X185.9 Y224.6
M3 S1000
G1 X194.7 Y224.6
M3 S0
G0 X194.9 Y224.6
M3 S1000
G1 X194.9 Y224.6
M3 S1000
M5 S0
G0 X211.9 Y224.7
M3 S1000
G1 X195.4 Y224.7
M3 S0
G0 X194.2 Y224.7
M3 S1000
G1 X194.2 Y224.7
M3 S1000
G1 X185.6 Y224.7
M3 S0
G0 X157.1 Y224.7
M3 S1000
G1 X157.1 Y224.7
M3 S1000
G1 X156.9 Y224.7
M3 S0
G0 X155.4 Y224.7
M3 S1000
G1 X155.4 Y224.7
M3 S1000
G1 X155.0 Y224.7
M3 S0
G0 X154.6 Y224.7
M3 S1000
G1 X154.6 Y224.7
M3 S1000
G1 X154.4 Y224.7
M3 S0
G0 X154.0 Y224.7
M3 S1000
G1 X154.0 Y224.7
M3 S1000
G1 X143.2 Y224.7
M3 S0
G0 X142.7 Y224.7
M3 S1000
G1 X142.7 Y224.7
M3 S1000
G1 X140.3 Y224.7
M3 S0
G0 X140.1 Y224.7
M3 S1000
G1 X140.1 Y224.7
M3 S1000
G1 X124.1 Y224.7
M3 S0
G0 X118.6 Y224.7
M3 S1000
G1 X118.6 Y224.7
M3 S1000
G1 X117.3 Y224.7
M3 S0
G0 X114.7 Y224.7
M3 S1000
G1 X114.7 Y224.7
M3 S1000
M5 S0
G0 X112.0 Y224.8
M3 S1000
G1 X114.8 Y224.8
M3 S0
G0 X117.4 Y224.8
M3 S1000
G1 X117.4 Y224.8
M3 S1000
G1 X118.7 Y224.8
M3 S0
G0 X124.2 Y224.8
M3 S1000
G1 X124.2 Y224.8
M3 S1000
G1 X140.2 Y224.8
M3 S0
G0 X140.4 Y224.8
M3 S1000
G1 X140.4 Y224.8
M3 S1000
G1 X142.8 Y224.8
M3 S0
G0 X143.3 Y224.8
M3 S1000
G1 X143.3 Y224.8
M3 S1000
G1 X154.1 Y224.8
M3 S0
G0 X154.5 Y224.8
M3 S1000
G1 X154.5 Y224.8
M3 S1000
G1 X154.7 Y224.8
M3 S0
G0 X155.1 Y224.8
M3 S1000
G1 X155.1 Y224.8
M3 S1000
G1 X155.5 Y224.8
M3 S0
G0 X157.0 Y224.8
M3 S1000
G1 X157.0 Y224.8
M3 S1000
G1 X157.2 Y224.8
M3 S0
G0 X185.7 Y224.8
M3 S1000
G1 X185.7 Y224.8
M3 S1000
G1 X194.3 Y224.8
M3 S0
G0 X195.5 Y224.8
M3 S1000
G1 X195.5 Y224.8
M3 S1000
M5 S0
G0 X211.9 Y224.9
M3 S1000
G1 X195.6 Y224.9
M3 S0
G0 X194.0 Y224.9
M3 S1000
G1 X194.0 Y224.9
M3 S1000
G1 X185.6 Y224.9
M3 S0
G0 X156.9 Y224.9
M3 S1000
G1 X156.9 Y224.9
M3 S1000
G1 X156.5 Y224.9
M3 S0
G0 X156.3 Y224.9
M3 S1000
G1 X156.3 Y224.9
M3 S1000
G1 X143.2 Y224.9
M3 S0
G0 X142.7 Y224.9
M3 S1000
G1 X142.7 Y224.9
M3 S1000
G1 X140.1 Y224.9
M3 S0
G0 X139.9 Y224.9
M3 S1000
G1 X139.9 Y224.9
M3 S1000
G1 X124.1 Y224.9
M3 S0
G0 X118.8 Y224.9
M3 S1000
G1 X118.8 Y224.9
M3 S1000
G1 X117.5 Y224.9
M3 S0
G0 X114.7 Y224.9
M3 S1000
G1 X114.7 Y224.9
M3 S1000
M5 S0
G0 X112.0 Y225.0
M3 S1000
G1 X114.8 Y225.0
M3 S0
G0 X117.6 Y225.0
M3 S1000
G1 X117.6 Y225.0
M3 S1000
G1 X118.9 Y225.0
M3 S0
G0 X124.2 Y225.0
M3 S1000
G1 X124.2 Y225.0
M3 S1000
G1 X140.0 Y225.0
M3 S0
G0 X140.2 Y225.0
M3 S1000
G1 X140.2 Y225.0
M3 S1000
G1 X142.8 Y225.0
M3 S0
G0 X143.3 Y225.0
M3 S1000
G1 X143.3 Y225.0
M3 S1000
G1 X156.4 Y225.0
M3 S0
G0 X156.6 Y225.0
M3 S1000
G1 X156.6 Y225.0
M3 S1000
G1 X157.0 Y225.0
M3 S0
G0 X185.7 Y225.0
M3 S1000
G1 X185.7 Y225.0
M3 S1000
G1 X194.1 Y225.0
M3 S0
G0 X195.7 Y225.0
M3 S1000
G1 X195.7 Y225.0
M3 S1000
M5 S0
G0 X211.9 Y225.1
M3 S1000
G1 X195.8 Y225.1
M3 S0
G0 X194.0 Y225.1
M3 S1000
G1 X194.0 Y225.1
M3 S1000
G1 X185.6 Y225.1
M3 S0
G0 X157.7 Y225.1
M3 S1000
G1 X157.7 Y225.1
M3 S1000
G1 X157.5 Y225.1
M3 S0
G0 X156.3 Y225.1
M3 S1000
G1 X156.3 Y225.1
M3 S1000
G1 X155.0 Y225.1
M3 S0
G0 X154.8 Y225.1
M3 S1000
G1 X154.8 Y225.1
M3 S1000
G1 X143.0 Y225.1
M3 S0
G0 X142.5 Y225.1
M3 S1000
G1 X142.5 Y225.1
M3 S1000
G1 X140.1 Y225.1
M3 S0
G0 X139.7 Y225.1
M3 S1000
G1 X139.7 Y225.1
M3 S1000
G1 X133.7 Y225.1
M3 S0
G0 X133.5 Y225.1
M3 S1000
G1 X133.5 Y225.1
M3 S1000
G1 X123.9 Y225.1
M3 S0
G0 X118.8 Y225.1
M3 S1000
G1 X118.8 Y225.1
M3 S1000
G1 X117.5 Y225.1
M3 S0
G0 X114.5 Y225.1
M3 S1000
G1 X114.5 Y225.1
M3 S1000
M5 S0
G0 X112.0 Y225.2
M3 S1000
G1 X114.6 Y225.2
M3 S0
G0 X117.6 Y225.2
M3 S1000
G1 X117.6 Y225.2
M3 S1000
G1 X118.9 Y225.2
M3 S0
G0 X124.0 Y225.2
M3 S1000
G1 X124.0 Y225.2
M3 S1000
G1 X133.6 Y225.2
M3 S0
G0 X133.8 Y225.2
M3 S1000
G1 X133.8 Y225.2
M3 S1000
G1 X139.8 Y225.2
M3 S0
G0 X140.2 Y225.2
M3 S1000
G1 X140.2 Y225.2
M3 S1000
G1 X142.6 Y225.2
M3 S0
G0 X143.1 Y225.2
M3 S1000
G1 X143.1 Y225.2
M3 S1000
G1 X154.9 Y225.2
M3 S0
G0 X155.1 Y225.2
M3 S1000
G1 X155.1 Y225.2
M3 S1000
G1 X156.4 Y225.2
M3 S0
G0 X157.6 Y225.2
M3 S1000
G1 X157.6 Y225.2
M3 S1000
G1 X157.8 Y225.2
M3 S0
G0 X185.7 Y225.2
M3 S1000
G1 X185.7 Y225.2
M3 S1000
G1 X194.1 Y225.2
M3 S0
G0 X195.9 Y225.2
M3 S1000
G1 X195.9 Y225.2
M3 S1000
M5 S0
G0 X211.9 Y225.3
M3 S1000
G1 X196.2 Y225.3
M3 S0
G0 X193.8 Y225.3
M3 S1000
G1 X193.8 Y225.3
M3 S1000
G1 X185.6 Y225.3
M3 S0
G0 X157.3 Y225.3
M3 S1000
G1 X157.3 Y225.3
M3 S1000
G1 X157.1 Y225.3
M3 S0
G0 X156.1 Y225.3
M3 S1000
G1 X156.1 Y225.3
M3 S1000
G1 X142.9 Y225.3
M3 S0
G0 X142.5 Y225.3
M3 S1000
G1 X142.5 Y225.3
M3 S1000
G1 X139.9 Y225.3
M3 S0
G0 X139.7 Y225.3
M3 S1000
G1 X139.7 Y225.3
M3 S1000
G1 X123.9 Y225.3
M3 S0
G0 X118.8 Y225.3
M3 S1000
G1 X118.8 Y225.3
M3 S1000
G1 X117.3 Y225.3
M3 S0
G0 X114.7 Y225.3
M3 S1000
G1 X114.7 Y225.3
M3 S1000
M5 S0
G0 X112.0 Y225.4
M3 S1000
G1 X114.8 Y225.4
M3 S0
G0 X117.4 Y225.4
M3 S1000
G1 X117.4 Y225.4
M3 S1000
G1 X118.9 Y225.4
M3 S0
G0 X124.0 Y225.4
M3 S1000
G1 X124.0 Y225.4
M3 S1000
G1 X139.8 Y225.4
M3 S0
G0 X140.0 Y225.4
M3 S1000
G1 X140.0 Y225.4
M3 S1000
G1 X142.6 Y225.4
M3 S0
G0 X143.0 Y225.4
M3 S1000
G1 X143.0 Y225.4
M3 S1000
G1 X156.2 Y225.4
M3 S0
G0 X157.2 Y225.4
M3 S1000
G1 X157.2 Y225.4
M3 S1000
G1 X157.4 Y225.4
M3 S0
G0 X185.7 Y225.4
M3 S1000
G1 X185.7 Y225.4
M3 S1000
G1 X193.9 Y225.4
M3 S0
G0 X196.3 Y225.4
M3 S1000
G1 X196.3 Y225.4
M3 S1000
M5 S0
G0 X211.9 Y225.5
M3 S1000
G1 X196.2 Y225.5
M3 S0
G0 X193.8 Y225.5
M3 S1000
G1 X193.8 Y225.5
M3 S1000
G1 X185.4 Y225.5
M3 S0
G0 X156.5 Y225.5
M3 S1000
G1 X156.5 Y225.5
M3 S1000
G1 X142.9 Y225.5
M3 S0
G0 X142.3 Y225.5
M3 S1000
G1 X142.3 Y225.5
M3 S1000
G1 X133.7 Y225.5
M3 S0
G0 X133.5 Y225.5
M3 S1000
G1 X133.5 Y225.5
M3 S1000
G1 X123.9 Y225.5
M3 S0
G0 X118.8 Y225.5
M3 S1000
G1 X118.8 Y225.5
M3 S1000
G1 X117.3 Y225.5
M3 S0
G0 X114.5 Y225.5
M3 S1000
G1 X114.5 Y225.5
M3 S1000
M5 S0
G0 X112.0 Y225.6
M3 S1000
G1 X114.6 Y225.6
M3 S0
G0 X117.4 Y225.6
M3 S1000
G1 X117.4 Y225.6
M3 S1000
G1 X118.9 Y225.6
M3 S0
G0 X124.0 Y225.6
M3 S1000
G1 X124.0 Y225.6
M3 S1000
G1 X133.6 Y225.6
M3 S0
G0 X133.8 Y225.6
M3 S1000
G1 X133.8 Y225.6
M3 S1000
G1 X142.4 Y225.6
M3 S0
G0 X143.0 Y225.6
M3 S1000
G1 X143.0 Y225.6
M3 S1000
G1 X156.6 Y225.6
M3 S0
G0 X185.5 Y225.6
M3 S1000
G1 X185.5 Y225.6
M3 S1000
G1 X193.9 Y225.6
M3 S0
G0 X196.3 Y225.6
M3 S1000
G1 X196.3 Y225.6
M3 S1000
M5 S0
G0 X211.9 Y225.7
M3 S1000
G1 X196.4 Y225.7
M3 S0
G0 X193.8 Y225.7
M3 S1000
G1 X193.8 Y225.7
M3 S1000
G1 X185.4 Y225.7
M3 S0
G0 X156.9 Y225.7
M3 S1000
G1 X156.9 Y225.7
M3 S1000
G1 X156.7 Y225.7
M3 S0
G0 X156.5 Y225.7
M3 S1000
G1 X156.5 Y225.7
M3 S1000
G1 X155.9 Y225.7
M3 S0
G0 X155.7 Y225.7
M3 S1000
G1 X155.7 Y225.7
M3 S1000
G1 X142.9 Y225.7
M3 S0
G0 X142.3 Y225.7
M3 S1000
G1 X142.3 Y225.7
M3 S1000
G1 X123.9 Y225.7
M3 S0
G0 X118.6 Y225.7
M3 S1000
G1 X118.6 Y225.7
M3 S1000
G1 X117.3 Y225.7
M3 S0
G0 X114.5 Y225.7
M3 S1000
G1 X114.5 Y225.7
M3 S1000
M5 S0
G0 X112.0 Y225.8
M3 S1000
G1 X114.6 Y225.8
M3 S0
G0 X117.4 Y225.8
M3 S1000
G1 X117.4 Y225.8
M3 S1000
G1 X118.7 Y225.8
M3 S0
G0 X124.0 Y225.8
M3 S1000
G1 X124.0 Y225.8
M3 S1000
G1 X142.4 Y225.8
M3 S0
G0 X143.0 Y225.8
M3 S1000
G1 X143.0 Y225.8
M3 S1000
G1 X155.8 Y225.8
M3 S0
G0 X156.0 Y225.8
M3 S1000
G1 X156.0 Y225.8
M3 S1000
G1 X156.6 Y225.8
M3 S0
G0 X156.8 Y225.8
M3 S1000
G1 X156.8 Y225.8
M3 S1000
G1 X157.0 Y225.8
M3 S0
G0 X185.5 Y225.8
M3 S1000
G1 X185.5 Y225.8
M3 S1000
G1 X193.9 Y225.8
M3 S0
G0 X196.5 Y225.8
M3 S1000
G1 X196.5 Y225.8
M3 S1000
M5 S0
G0 X211.9 Y225.9
M3 S1000
G1 X196.8 Y225.9
M3 S0
G0 X193.8 Y225.9
M3 S1000
G1 X193.8 Y225.9
M3 S1000
G1 X185.4 Y225.9
M3 S0
G0 X156.3 Y225.9
M3 S1000
G1 X156.3 Y225.9
M3 S1000
G1 X142.7 Y225.9
M3 S0
G0 X142.1 Y225.9
M3 S1000
G1 X142.1 Y225.9
M3 S1000
G1 X123.9 Y225.9
M3 S0
G0 X118.6 Y225.9
M3 S1000
G1 X118.6 Y225.9
M3 S1000
G1 X117.3 Y225.9
M3 S0
G0 X114.5 Y225.9
M3 S1000
G1 X114.5 Y225.9
M3 S1000
M5 S0
G0 X112.0 Y226.0
M3 S1000
G1 X114.6 Y226.0
M3 S0
G0 X117.4 Y226.0
M3 S1000
G1 X117.4 Y226.0
M3 S1000
G1 X118.7 Y226.0
M3 S0
G0 X124.0 Y226.0
M3 S1000
G1 X124.0 Y226.0
M3 S1000
G1 X142.2 Y226.0
M3 S0
G0 X142.8 Y226.0
M3 S1000
G1 X142.8 Y226.0
M3 S1000
G1 X156.4 Y226.0
M3 S0
G0 X185.5 Y226.0
M3 S1000
G1 X185.5 Y226.0
M3 S1000
G1 X193.9 Y226.0
M3 S0
G0 X196.9 Y226.0
M3 S1000
G1 X196.9 Y226.0
M3 S1000
M5 S0
G0 X211.9 Y226.1
M3 S1000
G1 X197.0 Y226.1
M3 S0
G0 X193.8 Y226.1
M3 S1000
G1 X193.8 Y226.1
M3 S1000
G1 X185.2 Y226.1
M3 S0
G0 X156.5 Y226.1
M3 S1000
G1 X156.5 Y226.1
M3 S1000
G1 X156.3 Y226.1
M3 S0
G0 X156.1 Y226.1
M3 S1000
G1 X156.1 Y226.1
M3 S1000
G1 X142.5 Y226.1
M3 S0
G0 X142.1 Y226.1
M3 S1000
G1 X142.1 Y226.1
M3 S1000
G1 X124.7 Y226.1
M3 S0
G0 X124.5 Y226.1
M3 S1000
G1 X124.5 Y226.1
M3 S1000
G1 X123.9 Y226.1
M3 S0
G0 X118.6 Y226.1
M3 S1000
G1 X118.6 Y226.1
M3 S1000
G1 X117.3 Y226.1
M3 S0
G0 X114.1 Y226.1
M3 S1000
G1 X114.1 Y226.1
M3 S1000
M5 S0
G0 X112.0 Y226.2
M3 S1000
G1 X114.2 Y226.2
M3 S0
G0 X117.4 Y226.2
M3 S1000
G1 X117.4 Y226.2
M3 S1000
G1 X118.7 Y226.2
M3 S0
G0 X124.0 Y226.2
M3 S1000
G1 X124.0 Y226.2
M3 S1000
G1 X124.6 Y226.2
M3 S0
G0 X124.8 Y226.2
M3 S1000
G1 X124.8 Y226.2
M3 S1000
G1 X142.2 Y226.2
M3 S0
G0 X142.6 Y226.2
M3 S1000
G1 X142.6 Y226.2
M3 S1000
G1 X156.2 Y226.2
M3 S0
G0 X156.4 Y226.2
M3 S1000
G1 X156.4 Y226.2
M3 S1000
G1 X156.6 Y226.2
M3 S0
G0 X185.3 Y226.2
M3 S1000
G1 X185.3 Y226.2
M3 S1000
G1 X193.9 Y226.2
M3 S0
G0 X197.1 Y226.2
M3 S1000
G1 X197.1 Y226.2
M3 S1000
M5 S0
G0 X211.9 Y226.3
M3 S1000
G1 X197.3 Y226.3
M3 S0
G0 X193.8 Y226.3
M3 S1000
G1 X193.8 Y226.3
M3 S1000
G1 X185.2 Y226.3
M3 S0
G0 X156.9 Y226.3
M3 S1000
G1 X156.9 Y226.3
M3 S1000
G1 X156.7 Y226.3
M3 S0
G0 X156.3 Y226.3
M3 S1000
G1 X156.3 Y226.3
M3 S1000
G1 X142.5 Y226.3
M3 S0
G0 X142.3 Y226.3
M3 S1000
G1 X142.3 Y226.3
M3 S1000
G1 X123.9 Y226.3
M3 S0
G0 X118.6 Y226.3
M3 S1000
G1 X118.6 Y226.3
M3 S1000
G1 X117.3 Y226.3
M3 S0
G0 X114.1 Y226.3
M3 S1000
G1 X114.1 Y226.3
M3 S1000
M5 S0
G0 X112.0 Y226.4
M3 S1000
G1 X114.2 Y226.4
M3 S0
G0 X117.4 Y226.4
M3 S1000
G1 X117.4 Y226.4
M3 S1000
G1 X118.7 Y226.4
M3 S0
G0 X124.0 Y226.4
M3 S1000
G1 X124.0 Y226.4
M3 S1000
G1 X142.4 Y226.4
M3 S0
G0 X142.6 Y226.4
M3 S1000
G1 X142.6 Y226.4
M3 S1000
G1 X156.4 Y226.4
M3 S0
G0 X156.8 Y226.4
M3 S1000
G1 X156.8 Y226.4
M3 S1000
G1 X157.0 Y226.4
M3 S0
G0 X185.3 Y226.4
M3 S1000
G1 X185.3 Y226.4
M3 S1000
G1 X193.9 Y226.4
M3 S0
G0 X197.4 Y226.4
M3 S1000
G1 X197.4 Y226.4
M3 S1000
M5 S0
G0 X211.9 Y226.5
M3 S1000
G1 X197.5 Y226.5
M3 S0
G0 X193.8 Y226.5
M3 S1000
G1 X193.8 Y226.5
M3 S1000
G1 X185.2 Y226.5
M3 S0
G0 X156.9 Y226.5
M3 S1000
G1 X156.9 Y226.5
M3 S1000
G1 X143.8 Y226.5
M3 S0
G0 X143.4 Y226.5
M3 S1000
G1 X143.4 Y226.5
M3 S1000
G1 X123.9 Y226.5
M3 S0
G0 X118.8 Y226.5
M3 S1000
G1 X118.8 Y226.5
M3 S1000
G1 X117.3 Y226.5
M3 S0
G0 X114.1 Y226.5
M3 S1000
G1 X114.1 Y226.5
M3 S1000
M5 S0
G0 X112.0 Y226.6
M3 S1000
G1 X114.2 Y226.6
M3 S0
G0 X117.4 Y226.6
M3 S1000
G1 X117.4 Y226.6
M3 S1000
G1 X118.9 Y226.6
M3 S0
G0 X124.0 Y226.6
M3 S1000
G1 X124.0 Y226.6
M3 S1000
G1 X143.5 Y226.6
M3 S0
G0 X143.9 Y226.6
M3 S1000
G1 X143.9 Y226.6
M3 S1000
G1 X157.0 Y226.6
M3 S0
G0 X185.3 Y226.6
M3 S1000
G1 X185.3 Y226.6
M3 S1000
G1 X193.9 Y226.6
M3 S0
G0 X197.6 Y226.6
M3 S1000
G1 X197.6 Y226.6
M3 S1000
M5 S0
G0 X211.9 Y226.7
M3 S1000
G1 X197.7 Y226.7
M3 S0
G0 X193.8 Y226.7
M3 S1000
G1 X193.8 Y226.7
M3 S1000
G1 X185.2 Y226.7
M3 S0
G0 X156.5 Y226.7
M3 S1000
G1 X156.5 Y226.7
M3 S1000
G1 X143.8 Y226.7
M3 S0
G0 X143.2 Y226.7
M3 S1000
G1 X143.2 Y226.7
M3 S1000
G1 X123.9 Y226.7
M3 S0
G0 X118.6 Y226.7
M3 S1000
G1 X118.6 Y226.7
M3 S1000
G1 X117.3 Y226.7
M3 S0
G0 X114.1 Y226.7
M3 S1000
G1 X114.1 Y226.7
M3 S1000
M5 S0
G0 X112.0 Y226.8
M3 S1000
G1 X114.2 Y226.8
M3 S0
G0 X117.4 Y226.8
M3 S1000
G1 X117.4 Y226.8
M3 S1000
G1 X118.7 Y226.8
M3 S0
G0 X124.0 Y226.8
M3 S1000
G1 X124.0 Y226.8
M3 S1000
G1 X143.3 Y226.8
M3 S0
G0 X143.9 Y226.8
M3 S1000
G1 X143.9 Y226.8
M3 S1000
G1 X156.6 Y226.8
M3 S0
G0 X185.3 Y226.8
M3 S1000
G1 X185.3 Y226.8
M3 S1000
G1 X193.9 Y226.8
M3 S0
G0 X197.8 Y226.8
M3 S1000
G1 X197.8 Y226.8
M3 S1000
M5 S0
G0 X211.9 Y226.9
M3 S1000
G1 X197.9 Y226.9
M3 S0
G0 X193.8 Y226.9
M3 S1000
G1 X193.8 Y226.9
M3 S1000
G1 X185.0 Y226.9
M3 S0
G0 X156.9 Y226.9
M3 S1000
G1 X156.9 Y226.9
M3 S1000
G1 X156.7 Y226.9
M3 S0
G0 X156.3 Y226.9
M3 S1000
G1 X156.3 Y226.9
M3 S1000
G1 X143.2 Y226.9
M3 S0
G0 X142.9 Y226.9
M3 S1000
G1 X142.9 Y226.9
M3 S1000
G1 X123.9 Y226.9
M3 S0
G0 X118.6 Y226.9
M3 S1000
G1 X118.6 Y226.9
M3 S1000
G1 X117.3 Y226.9
M3 S0
G0 X114.3 Y226.9
M3 S1000
G1 X114.3 Y226.9
M3 S1000
M5 S0
G0 X112.0 Y227.0
M3 S1000
G1 X114.4 Y227.0
M3 S0
G0 X117.4 Y227.0
M3 S1000
G1 X117.4 Y227.0
M3 S1000
G1 X118.7 Y227.0
M3 S0
G0 X124.0 Y227.0
M3 S1000
G1 X124.0 Y227.0
M3 S1000
G1 X143.0 Y227.0
M3 S0
G0 X143.3 Y227.0
M3 S1000
G1 X143.3 Y227.0
M3 S1000
G1 X156.4 Y227.0
M3 S0
G0 X156.8 Y227.0
M3 S1000
G1 X156.8 Y227.0
M3 S1000
G1 X157.0 Y227.0
M3 S0
G0 X185.1 Y227.0
M3 S1000
G1 X185.1 Y227.0
M3 S1000
G1 X193.9 Y227.0
M3 S0
G0 X198.0 Y227.0
M3 S1000
G1 X198.0 Y227.0
M3 S1000
M5 S0
G0 X211.9 Y227.1
M3 S1000
G1 X198.1 Y227.1
M3 S0
G0 X193.8 Y227.1
M3 S1000
G1 X193.8 Y227.1
M3 S1000
G1 X185.0 Y227.1
M3 S0
G0 X156.7 Y227.1
M3 S1000
G1 X156.7 Y227.1
M3 S1000
G1 X143.2 Y227.1
M3 S0
G0 X142.7 Y227.1
M3 S1000
G1 X142.7 Y227.1
M3 S1000
G1 X142.5 Y227.1
M3 S0
G0 X142.3 Y227.1
M3 S1000
G1 X142.3 Y227.1
M3 S1000
G1 X123.9 Y227.1
M3 S0
G0 X118.6 Y227.1
M3 S1000
G1 X118.6 Y227.1
M3 S1000
G1 X117.3 Y227.1
M3 S0
G0 X114.3 Y227.1
M3 S1000
G1 X114.3 Y227.1
M3 S1000
M5 S0
G0 X112.0 Y227.2
M3 S1000
G1 X114.4 Y227.2
M3 S0
G0 X117.4 Y227.2
M3 S1000
G1 X117.4 Y227.2
M3 S1000
G1 X118.7 Y227.2
M3 S0
G0 X124.0 Y227.2
M3 S1000
G1 X124.0 Y227.2
M3 S1000
G1 X142.4 Y227.2
M3 S0
G0 X142.6 Y227.2
M3 S1000
G1 X142.6 Y227.2
M3 S1000
G1 X142.8 Y227.2
M3 S0
G0 X143.3 Y227.2
M3 S1000
G1 X143.3 Y227.2
M3 S1000
G1 X156.8 Y227.2
M3 S0
G0 X185.1 Y227.2
M3 S1000
G1 X185.1 Y227.2
M3 S1000
G1 X193.9 Y227.2
M3 S0
G0 X198.2 Y227.2
M3 S1000
G1 X198.2 Y227.2
M3 S1000
M5 S0
G0 X211.9 Y227.3
M3 S1000
G1 X198.3 Y227.3
M3 S0
G0 X193.8 Y227.3
M3 S1000
G1 X193.8 Y227.3
M3 S1000
G1 X185.0 Y227.3
M3 S0
G0 X157.5 Y227.3
M3 S1000
G1 X157.5 Y227.3
M3 S1000
G1 X157.3 Y227.3
M3 S0
G0 X156.9 Y227.3
M3 S1000
G1 X156.9 Y227.3
M3 S1000
G1 X156.5 Y227.3
M3 S0
G0 X156.3 Y227.3
M3 S1000
G1 X156.3 Y227.3
M3 S1000
G1 X144.2 Y227.3
M3 S0
G0 X144.0 Y227.3
M3 S1000
G1 X144.0 Y227.3
M3 S1000
G1 X143.0 Y227.3
M3 S0
G0 X141.9 Y227.3
M3 S1000
G1 X141.9 Y227.3
M3 S1000
G1 X123.9 Y227.3
M3 S0
G0 X118.6 Y227.3
M3 S1000
G1 X118.6 Y227.3
M3 S1000
G1 X117.3 Y227.3
M3 S0
G0 X114.5 Y227.3
M3 S1000
G1 X114.5 Y227.3
M3 S1000
M5 S0
G0 X112.0 Y227.4
M3 S1000
G1 X114.6 Y227.4
M3 S0
G0 X117.4 Y227.4
M3 S1000
G1 X117.4 Y227.4
M3 S1000
G1 X118.7 Y227.4
M3 S0
G0 X124.0 Y227.4
M3 S1000
G1 X124.0 Y227.4
M3 S1000
G1 X124.8 Y227.4
M3 S0
G0 X125.0 Y227.4
M3 S1000
G1 X125.0 Y227.4
M3 S1000
G1 X141.6 Y227.4
M3 S0
G0 X141.8 Y227.4
M3 S1000
G1 X141.8 Y227.4
M3 S1000
G1 X142.0 Y227.4
M3 S0
G0 X143.0 Y227.4
M3 S1000
G1 X143.0 Y227.4
M3 S1000
G1 X144.3 Y227.4
M3 S0
G0 X144.5 Y227.4
M3 S1000
G1 X144.5 Y227.4
M3 S1000
G1 X156.6 Y227.4
M3 S0
G0 X184.9 Y227.4
M3 S1000
G1 X184.9 Y227.4
M3 S1000
G1 X193.9 Y227.4
M3 S0
G0 X198.6 Y227.4
M3 S1000
G1 X198.6 Y227.4
M3 S1000
M5 S0
G0 X211.9 Y227.5
M3 S1000
G1 X198.5 Y227.5
M3 S0
G0 X193.8 Y227.5
M3 S1000
G1 X193.8 Y227.5
M3 S1000
G1 X184.8 Y227.5
M3 S0
G0 X156.5 Y227.5
M3 S1000
G1 X156.5 Y227.5
M3 S1000
G1 X144.4 Y227.5
M3 S0
G0 X144.2 Y227.5
M3 S1000
G1 X144.2 Y227.5
M3 S1000
G1 X142.9 Y227.5
M3 S0
G0 X141.9 Y227.5
M3 S1000
G1 X141.9 Y227.5
M3 S1000
G1 X141.7 Y227.5
M3 S0
G0 X141.5 Y227.5
M3 S1000
G1 X141.5 Y227.5
M3 S1000
G1 X124.9 Y227.5
M3 S0
G0 X124.7 Y227.5
M3 S1000
G1 X124.7 Y227.5
M3 S1000
G1 X123.9 Y227.5
M3 S0
G0 X118.6 Y227.5
M3 S1000
G1 X118.6 Y227.5
M3 S1000
G1 X117.3 Y227.5
M3 S0
G0 X114.5 Y227.5
M3 S1000
G1 X114.5 Y227.5
M3 S1000
M5 S0
G0 X112.0 Y227.6
M3 S1000
G1 X114.6 Y227.6
M3 S0
G0 X117.2 Y227.6
M3 S1000
G1 X117.2 Y227.6
M3 S1000
G1 X118.7 Y227.6
M3 S0
G0 X124.0 Y227.6
M3 S1000
G1 X124.0 Y227.6
M3 S1000
G1 X124.8 Y227.6
M3 S0
G0 X125.2 Y227.6
M3 S1000
G1 X125.2 Y227.6
M3 S1000
G1 X141.4 Y227.6
M3 S0
G0 X141.6 Y227.6
M3 S1000
G1 X141.6 Y227.6
M3 S1000
G1 X141.8 Y227.6
M3 S0
G0 X142.8 Y227.6
M3 S1000
G1 X142.8 Y227.6
M3 S1000
G1 X156.8 Y227.6
M3 S0
G0 X157.4 Y227.6
M3 S1000
G1 X157.4 Y227.6
M3 S1000
G1 X157.6 Y227.6
M3 S0
G0 X184.9 Y227.6
M3 S1000
G1 X184.9 Y227.6
M3 S1000
G1 X193.9 Y227.6
M3 S0
G0 X198.8 Y227.6
M3 S1000
G1 X198.8 Y227.6
M3 S1000
M5 S0
G0 X211.9 Y227.7
M3 S1000
G1 X198.7 Y227.7
M3 S0
G0 X193.8 Y227.7
M3 S1000
G1 X193.8 Y227.7
M3 S1000
G1 X184.8 Y227.7
M3 S0
G0 X157.5 Y227.7
M3 S1000
G1 X157.5 Y227.7
M3 S1000
G1 X157.3 Y227.7
M3 S0
G0 X156.7 Y227.7
M3 S1000
G1 X156.7 Y227.7
M3 S1000
G1 X142.7 Y227.7
M3 S0
G0 X141.7 Y227.7
M3 S1000
G1 X141.7 Y227.7
M3 S1000
G1 X141.5 Y227.7
M3 S0
G0 X141.3 Y227.7
M3 S1000
G1 X141.3 Y227.7
M3 S1000
G1 X125.1 Y227.7
M3 S0
G0 X124.7 Y227.7
M3 S1000
G1 X124.7 Y227.7
M3 S1000
G1 X123.9 Y227.7
M3 S0
G0 X118.6 Y227.7
M3 S1000
G1 X118.6 Y227.7
M3 S1000
G1 X117.1 Y227.7
M3 S0
G0 X114.5 Y227.7
M3 S1000
G1 X114.5 Y227.7
M3 S1000
M5 S0
G0 X112.0 Y227.8
M3 S1000
G1 X114.6 Y227.8
M3 S0
G0 X117.2 Y227.8
M3 S1000
G1 X117.2 Y227.8
M3 S1000
G1 X118.7 Y227.8
M3 S0
G0 X124.0 Y227.8
M3 S1000
G1 X124.0 Y227.8
M3 S1000
G1 X124.8 Y227.8
M3 S0
G0 X125.2 Y227.8
M3 S1000
G1 X125.2 Y227.8
M3 S1000
G1 X141.2 Y227.8
M3 S0
G0 X141.6 Y227.8
M3 S1000
G1 X141.6 Y227.8
M3 S1000
G1 X141.8 Y227.8
M3 S0
G0 X142.6 Y227.8
M3 S1000
G1 X142.6 Y227.8
M3 S1000
G1 X144.1 Y227.8
M3 S0
G0 X144.3 Y227.8
M3 S1000
G1 X144.3 Y227.8
M3 S1000
G1 X156.8 Y227.8
M3 S0
G0 X157.4 Y227.8
M3 S1000
G1 X157.4 Y227.8
M3 S1000
G1 X157.6 Y227.8
M3 S0
G0 X184.9 Y227.8
M3 S1000
G1 X184.9 Y227.8
M3 S1000
G1 X193.9 Y227.8
M3 S0
G0 X199.0 Y227.8
M3 S1000
G1 X199.0 Y227.8
M3 S1000
M5 S0
G0 X211.9 Y227.9
M3 S1000
G1 X198.9 Y227.9
M3 S0
G0 X193.8 Y227.9
M3 S1000
G1 X193.8 Y227.9
M3 S1000
G1 X184.8 Y227.9
M3 S0
G0 X157.5 Y227.9
M3 S1000
G1 X157.5 Y227.9
M3 S1000
G1 X157.3 Y227.9
M3 S0
G0 X156.7 Y227.9
M3 S1000
G1 X156.7 Y227.9
M3 S1000
G1 X144.2 Y227.9
M3 S0
G0 X144.0 Y227.9
M3 S1000
G1 X144.0 Y227.9
M3 S1000
G1 X142.5 Y227.9
M3 S0
G0 X141.7 Y227.9
M3 S1000
G1 X141.7 Y227.9
M3 S1000
G1 X141.5 Y227.9
M3 S0
G0 X141.1 Y227.9
M3 S1000
G1 X141.1 Y227.9
M3 S1000
G1 X125.1 Y227.9
M3 S0
G0 X124.7 Y227.9
M3 S1000
G1 X124.7 Y227.9
M3 S1000
G1 X123.9 Y227.9
M3 S0
G0 X118.6 Y227.9
M3 S1000
G1 X118.6 Y227.9
M3 S1000
G1 X117.1 Y227.9
M3 S0
G0 X114.5 Y227.9
M3 S1000
G1 X114.5 Y227.9
M3 S1000
M5 S0
G0 X112.0 Y228.0
M3 S1000
G1 X114.6 Y228.0
M3 S0
G0 X117.2 Y228.0
M3 S1000
G1 X117.2 Y228.0
M3 S1000
G1 X118.7 Y228.0
M3 S0
G0 X124.0 Y228.0
M3 S1000
G1 X124.0 Y228.0
M3 S1000
G1 X124.8 Y228.0
M3 S0
G0 X125.2 Y228.0
M3 S1000
G1 X125.2 Y228.0
M3 S1000
G1 X141.0 Y228.0
M3 S0
G0 X142.6 Y228.0
M3 S1000
G1 X142.6 Y228.0
M3 S1000
G1 X143.9 Y228.0
M3 S0
G0 X144.3 Y228.0
M3 S1000
G1 X144.3 Y228.0
M3 S1000
G1 X157.0 Y228.0
M3 S0
G0 X184.9 Y228.0
M3 S1000
G1 X184.9 Y228.0
M3 S1000
G1 X193.9 Y228.0
M3 S0
G0 X199.0 Y228.0
M3 S1000
G1 X199.0 Y228.0
M3 S1000
M5 S0
G0 X211.9 Y228.1
M3 S1000
G1 X198.9 Y228.1
M3 S0
G0 X193.8 Y228.1
M3 S1000
G1 X193.8 Y228.1
M3 S1000
G1 X184.8 Y228.1
M3 S0
G0 X156.9 Y228.1
M3 S1000
G1 X156.9 Y228.1
M3 S1000
G1 X144.2 Y228.1
M3 S0
G0 X143.8 Y228.1
M3 S1000
G1 X143.8 Y228.1
M3 S1000
G1 X142.5 Y228.1
M3 S0
G0 X140.9 Y228.1
M3 S1000
G1 X140.9 Y228.1
M3 S1000
G1 X125.1 Y228.1
M3 S0
G0 X124.7 Y228.1
M3 S1000
G1 X124.7 Y228.1
M3 S1000
G1 X123.9 Y228.1
M3 S0
G0 X118.6 Y228.1
M3 S1000
G1 X118.6 Y228.1
M3 S1000
G1 X117.1 Y228.1
M3 S0
G0 X114.5 Y228.1
M3 S1000
G1 X114.5 Y228.1
M3 S1000
M5 S0
G0 X112.0 Y228.2
M3 S1000
G1 X114.6 Y228.2
M3 S0
G0 X117.2 Y228.2
M3 S1000
G1 X117.2 Y228.2
M3 S1000
G1 X118.7 Y228.2
M3 S0
G0 X124.2 Y228.2
M3 S1000
G1 X124.2 Y228.2
M3 S1000
G1 X125.0 Y228.2
M3 S0
G0 X125.2 Y228.2
M3 S1000
G1 X125.2 Y228.2
M3 S1000
G1 X141.0 Y228.2
M3 S0
G0 X142.0 Y228.2
M3 S1000
G1 X142.0 Y228.2
M3 S1000
G1 X142.2 Y228.2
M3 S0
G0 X142.6 Y228.2
M3 S1000
G1 X142.6 Y228.2
M3 S1000
G1 X154.1 Y228.2
M3 S0
G0 X154.3 Y228.2
M3 S1000
G1 X154.3 Y228.2
M3 S1000
G1 X157.0 Y228.2
M3 S0
G0 X184.8 Y228.2
M3 S1000
G1 X184.8 Y228.2
M3 S1000
G1 X193.9 Y228.2
M3 S0
G0 X199.2 Y228.2
M3 S1000
G1 X199.2 Y228.2
M3 S1000
M5 S0
G0 X211.9 Y228.3
M3 S1000
G1 X199.1 Y228.3
M3 S0
G0 X193.8 Y228.3
M3 S1000
G1 X193.8 Y228.3
M3 S1000
G1 X184.7 Y228.3
M3 S0
G0 X156.9 Y228.3
M3 S1000
G1 X156.9 Y228.3
M3 S1000
G1 X154.2 Y228.3
M3 S0
G0 X154.0 Y228.3
M3 S1000
G1 X154.0 Y228.3
M3 S1000
G1 X142.5 Y228.3
M3 S0
G0 X142.1 Y228.3
M3 S1000
G1 X142.1 Y228.3
M3 S1000
G1 X141.9 Y228.3
M3 S0
G0 X140.9 Y228.3
M3 S1000
G1 X140.9 Y228.3
M3 S1000
G1 X125.1 Y228.3
M3 S0
G0 X124.9 Y228.3
M3 S1000
G1 X124.9 Y228.3
M3 S1000
G1 X124.1 Y228.3
M3 S0
G0 X118.6 Y228.3
M3 S1000
G1 X118.6 Y228.3
M3 S1000
G1 X117.1 Y228.3
M3 S0
G0 X114.5 Y228.3
M3 S1000
G1 X114.5 Y228.3
M3 S1000
M5 S0
G0 X112.0 Y228.4
M3 S1000
G1 X114.4 Y228.4
M3 S0
G0 X117.2 Y228.4
M3 S1000
G1 X117.2 Y228.4
M3 S1000
G1 X118.7 Y228.4
M3 S0
G0 X124.2 Y228.4
M3 S1000
G1 X124.2 Y228.4
M3 S1000
G1 X125.0 Y228.4
M3 S0
G0 X125.2 Y228.4
M3 S1000
G1 X125.2 Y228.4
M3 S1000
G1 X141.0 Y228.4
M3 S0
G0 X141.6 Y228.4
M3 S1000
G1 X141.6 Y228.4
M3 S1000
G1 X142.2 Y228.4
M3 S0
G0 X142.6 Y228.4
M3 S1000
G1 X142.6 Y228.4
M3 S1000
G1 X157.4 Y228.4
M3 S0
G0 X184.8 Y228.4
M3 S1000
G1 X184.8 Y228.4
M3 S1000
G1 X194.1 Y228.4
M3 S0
G0 X199.4 Y228.4
M3 S1000
G1 X199.4 Y228.4
M3 S1000
M5 S0
G0 X211.9 Y228.5
M3 S1000
G1 X199.3 Y228.5
M3 S0
G0 X194.0 Y228.5
M3 S1000
G1 X194.0 Y228.5
M3 S1000
G1 X184.7 Y228.5
M3 S0
G0 X157.3 Y228.5
M3 S1000
G1 X157.3 Y228.5
M3 S1000
G1 X142.5 Y228.5
M3 S0
G0 X142.1 Y228.5
M3 S1000
G1 X142.1 Y228.5
M3 S1000
G1 X141.5 Y228.5
M3 S0
G0 X140.9 Y228.5
M3 S1000
G1 X140.9 Y228.5
M3 S1000
G1 X125.1 Y228.5
M3 S0
G0 X124.9 Y228.5
M3 S1000
G1 X124.9 Y228.5
M3 S1000
G1 X124.1 Y228.5
M3 S0
G0 X118.6 Y228.5
M3 S1000
G1 X118.6 Y228.5
M3 S1000
G1 X117.1 Y228.5
M3 S0
G0 X114.3 Y228.5
M3 S1000
G1 X114.3 Y228.5
M3 S1000
M5 S0
G0 X112.0 Y228.6
M3 S1000
G1 X114.4 Y228.6
M3 S0
G0 X117.2 Y228.6
M3 S1000
G1 X117.2 Y228.6
M3 S1000
G1 X118.7 Y228.6
M3 S0
G0 X124.2 Y228.6
M3 S1000
G1 X124.2 Y228.6
M3 S1000
G1 X140.8 Y228.6
M3 S0
G0 X141.4 Y228.6
M3 S1000
G1 X141.4 Y228.6
M3 S1000
G1 X142.0 Y228.6
M3 S0
G0 X142.4 Y228.6
M3 S1000
G1 X142.4 Y228.6
M3 S1000
G1 X157.4 Y228.6
M3 S0
G0 X184.8 Y228.6
M3 S1000
G1 X184.8 Y228.6
M3 S1000
G1 X194.1 Y228.6
M3 S0
G0 X199.4 Y228.6
M3 S1000
G1 X199.4 Y228.6
M3 S1000
M5 S0
G0 X211.9 Y228.7
M3 S1000
G1 X199.3 Y228.7
M3 S0
G0 X194.0 Y228.7
M3 S1000
G1 X194.0 Y228.7
M3 S1000
G1 X184.7 Y228.7
M3 S0
G0 X157.3 Y228.7
M3 S1000
G1 X157.3 Y228.7
M3 S1000
G1 X142.3 Y228.7
M3 S0
G0 X141.9 Y228.7
M3 S1000
G1 X141.9 Y228.7
M3 S1000
G1 X141.3 Y228.7
M3 S0
G0 X140.7 Y228.7
M3 S1000
G1 X140.7 Y228.7
M3 S1000
G1 X124.1 Y228.7
M3 S0
G0 X118.6 Y228.7
M3 S1000
G1 X118.6 Y228.7
M3 S1000
G1 X117.1 Y228.7
M3 S0
G0 X114.3 Y228.7
M3 S1000
G1 X114.3 Y228.7
M3 S1000
M5 S0
G0 X112.0 Y228.8
M3 S1000
G1 X114.4 Y228.8
M3 S0
G0 X117.2 Y228.8
M3 S1000
G1 X117.2 Y228.8
M3 S1000
G1 X118.7 Y228.8
M3 S0
G0 X124.2 Y228.8
M3 S1000
G1 X124.2 Y228.8
M3 S1000
G1 X140.8 Y228.8
M3 S0
G0 X141.2 Y228.8
M3 S1000
G1 X141.2 Y228.8
M3 S1000
G1 X141.6 Y228.8
M3 S0
G0 X142.2 Y228.8
M3 S1000
G1 X142.2 Y228.8
M3 S1000
G1 X142.6 Y228.8
M3 S0
G0 X142.8 Y228.8
M3 S1000
G1 X142.8 Y228.8
M3 S1000
G1 X157.4 Y228.8
M3 S0
G0 X184.6 Y228.8
M3 S1000
G1 X184.6 Y228.8
M3 S1000
G1 X194.3 Y228.8
M3 S0
G0 X199.6 Y228.8
M3 S1000
G1 X199.6 Y228.8
M3 S1000
M5 S0
G0 X211.9 Y228.9
M3 S1000
G1 X199.5 Y228.9
M3 S0
G0 X194.2 Y228.9
M3 S1000
G1 X194.2 Y228.9
M3 S1000
G1 X184.5 Y228.9
M3 S0
G0 X157.3 Y228.9
M3 S1000
G1 X157.3 Y228.9
M3 S1000
G1 X142.7 Y228.9
M3 S0
G0 X142.5 Y228.9
M3 S1000
G1 X142.5 Y228.9
M3 S1000
G1 X142.1 Y228.9
M3 S0
G0 X141.5 Y228.9
M3 S1000
G1 X141.5 Y228.9
M3 S1000
G1 X141.1 Y228.9
M3 S0
G0 X140.7 Y228.9
M3 S1000
G1 X140.7 Y228.9
M3 S1000
G1 X124.1 Y228.9
M3 S0
G0 X118.6 Y228.9
M3 S1000
G1 X118.6 Y228.9
M3 S1000
G1 X117.1 Y228.9
M3 S0
G0 X114.3 Y228.9
M3 S1000
G1 X114.3 Y228.9
M3 S1000
M5 S0
G0 X112.0 Y229.0
M3 S1000
G1 X114.4 Y229.0
M3 S0
G0 X117.0 Y229.0
M3 S1000
G1 X117.0 Y229.0
M3 S1000
G1 X118.7 Y229.0
M3 S0
G0 X124.2 Y229.0
M3 S1000
G1 X124.2 Y229.0
M3 S1000
G1 X141.2 Y229.0
M3 S0
G0 X142.0 Y229.0
M3 S1000
G1 X142.0 Y229.0
M3 S1000
G1 X142.6 Y229.0
M3 S0
G0 X142.8 Y229.0
M3 S1000
G1 X142.8 Y229.0
M3 S1000
G1 X157.6 Y229.0
M3 S0
G0 X184.6 Y229.0
M3 S1000
G1 X184.6 Y229.0
M3 S1000
G1 X194.3 Y229.0
M3 S0
G0 X199.6 Y229.0
M3 S1000
G1 X199.6 Y229.0
M3 S1000
M5 S0
G0 X211.9 Y229.1
M3 S1000
G1 X199.5 Y229.1
M3 S0
G0 X194.2 Y229.1
M3 S1000
G1 X194.2 Y229.1
M3 S1000
G1 X184.5 Y229.1
M3 S0
G0 X157.5 Y229.1
M3 S1000
G1 X157.5 Y229.1
M3 S1000
G1 X142.7 Y229.1
M3 S0
G0 X142.5 Y229.1
M3 S1000
G1 X142.5 Y229.1
M3 S1000
G1 X141.9 Y229.1
M3 S0
G0 X141.1 Y229.1
M3 S1000
G1 X141.1 Y229.1
M3 S1000
G1 X124.1 Y229.1
M3 S0
G0 X118.6 Y229.1
M3 S1000
G1 X118.6 Y229.1
M3 S1000
G1 X116.9 Y229.1
M3 S0
G0 X114.3 Y229.1
M3 S1000
G1 X114.3 Y229.1
M3 S1000
M5 S0
G0 X112.0 Y229.2
M3 S1000
G1 X114.4 Y229.2
M3 S0
G0 X117.0 Y229.2
M3 S1000
G1 X117.0 Y229.2
M3 S1000
G1 X118.7 Y229.2
M3 S0
G0 X124.2 Y229.2
M3 S1000
G1 X124.2 Y229.2
M3 S1000
G1 X125.0 Y229.2
M3 S0
G0 X125.2 Y229.2
M3 S1000
G1 X125.2 Y229.2
M3 S1000
G1 X140.4 Y229.2
M3 S0
G0 X140.6 Y229.2
M3 S1000
G1 X140.6 Y229.2
M3 S1000
G1 X141.0 Y229.2
M3 S0
G0 X141.8 Y229.2
M3 S1000
G1 X141.8 Y229.2
M3 S1000
G1 X143.3 Y229.2
M3 S0
G0 X143.7 Y229.2
M3 S1000
G1 X143.7 Y229.2
M3 S1000
G1 X154.5 Y229.2
M3 S0
G0 X154.7 Y229.2
M3 S1000
G1 X154.7 Y229.2
M3 S1000
G1 X157.8 Y229.2
M3 S0
G0 X184.6 Y229.2
M3 S1000
G1 X184.6 Y229.2
M3 S1000
G1 X193.9 Y229.2
M3 S0
G0 X199.8 Y229.2
M3 S1000
G1 X199.8 Y229.2
M3 S1000
M5 S0
G0 X211.9 Y229.3
M3 S1000
G1 X199.7 Y229.3
M3 S0
G0 X193.8 Y229.3
M3 S1000
G1 X193.8 Y229.3
M3 S1000
G1 X184.5 Y229.3
M3 S0
G0 X157.7 Y229.3
M3 S1000
G1 X157.7 Y229.3
M3 S1000
G1 X154.6 Y229.3
M3 S0
G0 X154.4 Y229.3
M3 S1000
G1 X154.4 Y229.3
M3 S1000
G1 X143.6 Y229.3
M3 S0
G0 X143.2 Y229.3
M3 S1000
G1 X143.2 Y229.3
M3 S1000
G1 X141.7 Y229.3
M3 S0
G0 X140.9 Y229.3
M3 S1000
G1 X140.9 Y229.3
M3 S1000
G1 X140.5 Y229.3
M3 S0
G0 X140.3 Y229.3
M3 S1000
G1 X140.3 Y229.3
M3 S1000
G1 X125.1 Y229.3
M3 S0
G0 X124.9 Y229.3
M3 S1000
G1 X124.9 Y229.3
M3 S1000
G1 X124.1 Y229.3
M3 S0
G0 X118.6 Y229.3
M3 S1000
G1 X118.6 Y229.3
M3 S1000
G1 X116.9 Y229.3
M3 S0
G0 X114.3 Y229.3
M3 S1000
G1 X114.3 Y229.3
M3 S1000
M5 S0
G0 X112.0 Y229.4
M3 S1000
G1 X114.4 Y229.4
M3 S0
G0 X117.0 Y229.4
M3 S1000
G1 X117.0 Y229.4
M3 S1000
G1 X118.7 Y229.4
M3 S0
G0 X124.4 Y229.4
M3 S1000
G1 X124.4 Y229.4
M3 S1000
G1 X125.0 Y229.4
M3 S0
G0 X125.2 Y229.4
M3 S1000
G1 X125.2 Y229.4
M3 S1000
G1 X140.4 Y229.4
M3 S0
G0 X140.6 Y229.4
M3 S1000
G1 X140.6 Y229.4
M3 S1000
G1 X140.8 Y229.4
M3 S0
G0 X141.4 Y229.4
M3 S1000
G1 X141.4 Y229.4
M3 S1000
G1 X143.3 Y229.4
M3 S0
G0 X143.5 Y229.4
M3 S1000
G1 X143.5 Y229.4
M3 S1000
G1 X158.0 Y229.4
M3 S0
G0 X184.4 Y229.4
M3 S1000
G1 X184.4 Y229.4
M3 S1000
G1 X193.5 Y229.4
M3 S0
G0 X199.8 Y229.4
M3 S1000
G1 X199.8 Y229.4
M3 S1000
M5 S0
G0 X211.9 Y229.5
M3 S1000
G1 X199.7 Y229.5
M3 S0
G0 X193.4 Y229.5
M3 S1000
G1 X193.4 Y229.5
M3 S1000
G1 X184.3 Y229.5
M3 S0
G0 X157.9 Y229.5
M3 S1000
G1 X157.9 Y229.5
M3 S1000
G1 X143.4 Y229.5
M3 S0
G0 X143.2 Y229.5
M3 S1000
G1 X143.2 Y229.5
M3 S1000
G1 X141.3 Y229.5
M3 S0
G0 X140.7 Y229.5
M3 S1000
G1 X140.7 Y229.5
M3 S1000
G1 X140.5 Y229.5
M3 S0
G0 X140.3 Y229.5
M3 S1000
G1 X140.3 Y229.5
M3 S1000
G1 X125.1 Y229.5
M3 S0
G0 X124.9 Y229.5
M3 S1000
G1 X124.9 Y229.5
M3 S1000
G1 X124.3 Y229.5
M3 S0
G0 X118.6 Y229.5
M3 S1000
G1 X118.6 Y229.5
M3 S1000
G1 X116.9 Y229.5
M3 S0
G0 X114.3 Y229.5
M3 S1000
G1 X114.3 Y229.5
M3 S1000
M5 S0
G0 X112.0 Y229.6
M3 S1000
G1 X114.4 Y229.6
M3 S0
G0 X117.0 Y229.6
M3 S1000
G1 X117.0 Y229.6
M3 S1000
G1 X118.7 Y229.6
M3 S0
G0 X124.4 Y229.6
M3 S1000
G1 X124.4 Y229.6
M3 S1000
G1 X140.2 Y229.6
M3 S0
G0 X140.4 Y229.6
M3 S1000
G1 X140.4 Y229.6
M3 S1000
G1 X140.8 Y229.6
M3 S0
G0 X141.2 Y229.6
M3 S1000
G1 X141.2 Y229.6
M3 S1000
G1 X144.3 Y229.6
M3 S0
G0 X144.5 Y229.6
M3 S1000
G1 X144.5 Y229.6
M3 S1000
G1 X158.0 Y229.6
M3 S0
G0 X184.4 Y229.6
M3 S1000
G1 X184.4 Y229.6
M3 S1000
G1 X193.1 Y229.6
M3 S0
G0 X200.0 Y229.6
M3 S1000
G1 X200.0 Y229.6
M3 S1000
M5 S0
G0 X211.9 Y229.7
M3 S1000
G1 X199.9 Y229.7
M3 S0
G0 X193.0 Y229.7
M3 S1000
G1 X193.0 Y229.7
M3 S1000
G1 X184.3 Y229.7
M3 S0
G0 X157.9 Y229.7
M3 S1000
G1 X157.9 Y229.7
M3 S1000
G1 X144.4 Y229.7
M3 S0
G0 X144.2 Y229.7
M3 S1000
G1 X144.2 Y229.7
M3 S1000
G1 X141.1 Y229.7
M3 S0
G0 X140.7 Y229.7
M3 S1000
G1 X140.7 Y229.7
M3 S1000
G1 X140.3 Y229.7
M3 S0
G0 X140.1 Y229.7
M3 S1000
G1 X140.1 Y229.7
M3 S1000
G1 X124.3 Y229.7
M3 S0
G0 X118.6 Y229.7
M3 S1000
G1 X118.6 Y229.7
M3 S1000
G1 X116.9 Y229.7
M3 S0
G0 X114.3 Y229.7
M3 S1000
G1 X114.3 Y229.7
M3 S1000
M5 S0
G0 X112.0 Y229.8
M3 S1000
G1 X114.4 Y229.8
M3 S0
G0 X117.0 Y229.8
M3 S1000
G1 X117.0 Y229.8
M3 S1000
G1 X118.7 Y229.8
M3 S0
G0 X124.4 Y229.8
M3 S1000
G1 X124.4 Y229.8
M3 S1000
G1 X140.2 Y229.8
M3 S0
G0 X140.4 Y229.8
M3 S1000
G1 X140.4 Y229.8
M3 S1000
G1 X140.6 Y229.8
M3 S0
G0 X141.0 Y229.8
M3 S1000
G1 X141.0 Y229.8
M3 S1000
G1 X144.3 Y229.8
M3 S0
G0 X144.7 Y229.8
M3 S1000
G1 X144.7 Y229.8
M3 S1000
G1 X158.2 Y229.8
M3 S0
G0 X184.4 Y229.8
M3 S1000
G1 X184.4 Y229.8
M3 S1000
G1 X193.0 Y229.8
M3 S0
G0 X200.2 Y229.8
M3 S1000
G1 X200.2 Y229.8
M3 S1000
M5 S0
G0 X211.9 Y229.9
M3 S1000
G1 X200.1 Y229.9
M3 S0
G0 X192.9 Y229.9
M3 S1000
G1 X192.9 Y229.9
M3 S1000
G1 X184.3 Y229.9
M3 S0
G0 X158.1 Y229.9
M3 S1000
G1 X158.1 Y229.9
M3 S1000
G1 X144.6 Y229.9
M3 S0
G0 X144.2 Y229.9
M3 S1000
G1 X144.2 Y229.9
M3 S1000
G1 X140.9 Y229.9
M3 S0
G0 X140.5 Y229.9
M3 S1000
G1 X140.5 Y229.9
M3 S1000
G1 X140.3 Y229.9
M3 S0
G0 X140.1 Y229.9
M3 S1000
G1 X140.1 Y229.9
M3 S1000
G1 X124.3 Y229.9
M3 S0
G0 X118.6 Y229.9
M3 S1000
G1 X118.6 Y229.9
M3 S1000
G1 X116.9 Y229.9
M3 S0
G0 X114.3 Y229.9
M3 S1000
G1 X114.3 Y229.9
M3 S1000
M5 S0
G0 X112.0 Y230.0
M3 S1000
G1 X114.4 Y230.0
M3 S0
G0 X117.0 Y230.0
M3 S1000
G1 X117.0 Y230.0
M3 S1000
G1 X118.7 Y230.0
M3 S0
G0 X124.6 Y230.0
M3 S1000
G1 X124.6 Y230.0
M3 S1000
G1 X140.0 Y230.0
M3 S0
G0 X140.8 Y230.0
M3 S1000
G1 X140.8 Y230.0
M3 S1000
G1 X144.5 Y230.0
M3 S0
G0 X144.7 Y230.0
M3 S1000
G1 X144.7 Y230.0
M3 S1000
G1 X145.7 Y230.0
M3 S0
G0 X145.9 Y230.0
M3 S1000
G1 X145.9 Y230.0
M3 S1000
G1 X158.0 Y230.0
M3 S0
G0 X184.4 Y230.0
M3 S1000
G1 X184.4 Y230.0
M3 S1000
G1 X192.4 Y230.0
M3 S0
G0 X192.6 Y230.0
M3 S1000
G1 X192.6 Y230.0
M3 S1000
G1 X192.8 Y230.0
M3 S0
G0 X200.2 Y230.0
M3 S1000
G1 X200.2 Y230.0
M3 S1000
M5 S0
G0 X211.9 Y230.1
M3 S1000
G1 X200.1 Y230.1
M3 S0
G0 X192.7 Y230.1
M3 S1000
G1 X192.7 Y230.1
M3 S1000
G1 X192.5 Y230.1
M3 S0
G0 X192.3 Y230.1
M3 S1000
G1 X192.3 Y230.1
M3 S1000
G1 X184.3 Y230.1
M3 S0
G0 X157.9 Y230.1
M3 S1000
G1 X157.9 Y230.1
M3 S1000
G1 X145.8 Y230.1
M3 S0
G0 X145.6 Y230.1
M3 S1000
G1 X145.6 Y230.1
M3 S1000
G1 X144.6 Y230.1
M3 S0
G0 X144.4 Y230.1
M3 S1000
G1 X144.4 Y230.1
M3 S1000
G1 X140.7 Y230.1
M3 S0
G0 X139.9 Y230.1
M3 S1000
G1 X139.9 Y230.1
M3 S1000
G1 X124.5 Y230.1
M3 S0
G0 X118.6 Y230.1
M3 S1000
G1 X118.6 Y230.1
M3 S1000
G1 X116.9 Y230.1
M3 S0
G0 X114.3 Y230.1
M3 S1000
G1 X114.3 Y230.1
M3 S1000
M5 S0
G0 X112.0 Y230.2
M3 S1000
G1 X114.6 Y230.2
M3 S0
G0 X117.0 Y230.2
M3 S1000
G1 X117.0 Y230.2
M3 S1000
G1 X118.7 Y230.2
M3 S0
G0 X124.4 Y230.2
M3 S1000
G1 X124.4 Y230.2
M3 S1000
G1 X124.6 Y230.2
M3 S0
G0 X124.8 Y230.2
M3 S1000
G1 X124.8 Y230.2
M3 S1000
G1 X140.0 Y230.2
M3 S0
G0 X140.2 Y230.2
M3 S1000
G1 X140.2 Y230.2
M3 S1000
G1 X140.4 Y230.2
M3 S0
G0 X140.8 Y230.2
M3 S1000
G1 X140.8 Y230.2
M3 S1000
G1 X144.5 Y230.2
M3 S0
G0 X144.7 Y230.2
M3 S1000
G1 X144.7 Y230.2
M3 S1000
G1 X158.0 Y230.2
M3 S0
G0 X184.4 Y230.2
M3 S1000
G1 X184.4 Y230.2
M3 S1000
G1 X191.6 Y230.2
M3 S0
G0 X191.8 Y230.2
M3 S1000
G1 X191.8 Y230.2
M3 S1000
G1 X192.2 Y230.2
M3 S0
G0 X195.5 Y230.2
M3 S1000
G1 X195.5 Y230.2
M3 S1000
G1 X196.1 Y230.2
M3 S0
G0 X200.4 Y230.2
M3 S1000
G1 X200.4 Y230.2
M3 S1000
M5 S0
G0 X211.9 Y230.3
M3 S1000
G1 X200.3 Y230.3
M3 S0
G0 X196.0 Y230.3
M3 S1000
G1 X196.0 Y230.3
M3 S1000
G1 X195.4 Y230.3
M3 S0
G0 X192.1 Y230.3
M3 S1000
G1 X192.1 Y230.3
M3 S1000
G1 X191.7 Y230.3
M3 S0
G0 X191.5 Y230.3
M3 S1000
G1 X191.5 Y230.3
M3 S1000
G1 X184.3 Y230.3
M3 S0
G0 X157.9 Y230.3
M3 S1000
G1 X157.9 Y230.3
M3 S1000
G1 X144.6 Y230.3
M3 S0
G0 X144.4 Y230.3
M3 S1000
G1 X144.4 Y230.3
M3 S1000
G1 X140.7 Y230.3
M3 S0
G0 X140.3 Y230.3
M3 S1000
G1 X140.3 Y230.3
M3 S1000
G1 X140.1 Y230.3
M3 S0
G0 X139.9 Y230.3
M3 S1000
G1 X139.9 Y230.3
M3 S1000
G1 X124.7 Y230.3
M3 S0
G0 X124.5 Y230.3
M3 S1000
G1 X124.5 Y230.3
M3 S1000
G1 X124.3 Y230.3
M3 S0
G0 X118.6 Y230.3
M3 S1000
G1 X118.6 Y230.3
M3 S1000
G1 X116.9 Y230.3
M3 S0
G0 X114.5 Y230.3
M3 S1000
G1 X114.5 Y230.3
M3 S1000
M5 S0
G0 X112.0 Y230.4
M3 S1000
G1 X114.4 Y230.4
M3 S0
G0 X116.8 Y230.4
M3 S1000
G1 X116.8 Y230.4
M3 S1000
G1 X118.7 Y230.4
M3 S0
G0 X124.4 Y230.4
M3 S1000
G1 X124.4 Y230.4
M3 S1000
G1 X124.6 Y230.4
M3 S0
G0 X124.8 Y230.4
M3 S1000
G1 X124.8 Y230.4
M3 S1000
G1 X140.0 Y230.4
M3 S0
G0 X140.2 Y230.4
M3 S1000
G1 X140.2 Y230.4
M3 S1000
G1 X140.4 Y230.4
M3 S0
G0 X140.6 Y230.4
M3 S1000
G1 X140.6 Y230.4
M3 S1000
G1 X145.7 Y230.4
M3 S0
G0 X145.9 Y230.4
M3 S1000
G1 X145.9 Y230.4
M3 S1000
G1 X158.2 Y230.4
M3 S0
G0 X184.2 Y230.4
M3 S1000
G1 X184.2 Y230.4
M3 S1000
G1 X190.6 Y230.4
M3 S0
G0 X190.8 Y230.4
M3 S1000
G1 X190.8 Y230.4
M3 S1000
G1 X191.4 Y230.4
M3 S0
G0 X191.8 Y230.4
M3 S1000
G1 X191.8 Y230.4
M3 S1000
G1 X192.0 Y230.4
M3 S0
G0 X195.7 Y230.4
M3 S1000
G1 X195.7 Y230.4
M3 S1000
G1 X195.9 Y230.4
M3 S0
G0 X200.4 Y230.4
M3 S1000
G1 X200.4 Y230.4
M3 S1000
M5 S0
G0 X211.9 Y230.5
M3 S1000
G1 X200.3 Y230.5
M3 S0
G0 X195.8 Y230.5
M3 S1000
G1 X195.8 Y230.5
M3 S1000
G1 X195.6 Y230.5
M3 S0
G0 X191.9 Y230.5
M3 S1000
G1 X191.9 Y230.5
M3 S1000
G1 X191.7 Y230.5
M3 S0
G0 X191.3 Y230.5
M3 S1000
G1 X191.3 Y230.5
M3 S1000
G1 X190.7 Y230.5
M3 S0
G0 X190.5 Y230.5
M3 S1000
G1 X190.5 Y230.5
M3 S1000
G1 X184.1 Y230.5
M3 S0
G0 X158.1 Y230.5
M3 S1000
G1 X158.1 Y230.5
M3 S1000
G1 X145.8 Y230.5
M3 S0
G0 X145.6 Y230.5
M3 S1000
G1 X145.6 Y230.5
M3 S1000
G1 X140.5 Y230.5
M3 S0
G0 X140.3 Y230.5
M3 S1000
G1 X140.3 Y230.5
M3 S1000
G1 X140.1 Y230.5
M3 S0
G0 X139.9 Y230.5
M3 S1000
G1 X139.9 Y230.5
M3 S1000
G1 X124.7 Y230.5
M3 S0
G0 X124.5 Y230.5
M3 S1000
G1 X124.5 Y230.5
M3 S1000
G1 X124.3 Y230.5
M3 S0
G0 X118.6 Y230.5
M3 S1000
G1 X118.6 Y230.5
M3 S1000
G1 X116.7 Y230.5
M3 S0
G0 X114.3 Y230.5
M3 S1000
G1 X114.3 Y230.5
M3 S1000
M5 S0
G0 X112.0 Y230.6
M3 S1000
G1 X114.4 Y230.6
M3 S0
G0 X116.8 Y230.6
M3 S1000
G1 X116.8 Y230.6
M3 S1000
G1 X118.5 Y230.6
M3 S0
G0 X124.4 Y230.6
M3 S1000
G1 X124.4 Y230.6
M3 S1000
G1 X124.6 Y230.6
M3 S0
G0 X125.0 Y230.6
M3 S1000
G1 X125.0 Y230.6
M3 S1000
G1 X140.4 Y230.6
M3 S0
G0 X140.6 Y230.6
M3 S1000
G1 X140.6 Y230.6
M3 S1000
G1 X145.7 Y230.6
M3 S0
G0 X145.9 Y230.6
M3 S1000
G1 X145.9 Y230.6
M3 S1000
G1 X155.1 Y230.6
M3 S0
G0 X155.3 Y230.6
M3 S1000
G1 X155.3 Y230.6
M3 S1000
G1 X158.2 Y230.6
M3 S0
G0 X184.4 Y230.6
M3 S1000
G1 X184.4 Y230.6
M3 S1000
G1 X190.6 Y230.6
M3 S0
G0 X200.4 Y230.6
M3 S1000
G1 X200.4 Y230.6
M3 S1000
M5 S0
G0 X211.9 Y230.7
M3 S1000
G1 X200.3 Y230.7
M3 S0
G0 X190.5 Y230.7
M3 S1000
G1 X190.5 Y230.7
M3 S1000
G1 X184.3 Y230.7
M3 S0
G0 X158.1 Y230.7
M3 S1000
G1 X158.1 Y230.7
M3 S1000
G1 X155.2 Y230.7
M3 S0
G0 X155.0 Y230.7
M3 S1000
G1 X155.0 Y230.7
M3 S1000
G1 X145.8 Y230.7
M3 S0
G0 X145.6 Y230.7
M3 S1000
G1 X145.6 Y230.7
M3 S1000
G1 X140.5 Y230.7
M3 S0
G0 X140.3 Y230.7
M3 S1000
G1 X140.3 Y230.7
M3 S1000
G1 X124.9 Y230.7
M3 S0
G0 X124.5 Y230.7
M3 S1000
G1 X124.5 Y230.7
M3 S1000
G1 X124.3 Y230.7
M3 S0
G0 X118.4 Y230.7
M3 S1000
G1 X118.4 Y230.7
M3 S1000
G1 X116.7 Y230.7
M3 S0
G0 X114.3 Y230.7
M3 S1000
G1 X114.3 Y230.7
M3 S1000
M5 S0
G0 X112.0 Y230.8
M3 S1000
G1 X114.4 Y230.8
M3 S0
G0 X116.8 Y230.8
M3 S1000
G1 X116.8 Y230.8
M3 S1000
G1 X118.5 Y230.8
M3 S0
G0 X125.0 Y230.8
M3 S1000
G1 X125.0 Y230.8
M3 S1000
G1 X140.2 Y230.8
M3 S0
G0 X140.4 Y230.8
M3 S1000
G1 X140.4 Y230.8
M3 S1000
G1 X143.1 Y230.8
M3 S0
G0 X143.3 Y230.8
M3 S1000
G1 X143.3 Y230.8
M3 S1000
G1 X145.7 Y230.8
M3 S0
G0 X145.9 Y230.8
M3 S1000
G1 X145.9 Y230.8
M3 S1000
G1 X158.4 Y230.8
M3 S0
G0 X184.6 Y230.8
M3 S1000
G1 X184.6 Y230.8
M3 S1000
G1 X189.6 Y230.8
M3 S0
G0 X200.6 Y230.8
M3 S1000
G1 X200.6 Y230.8
M3 S1000
M5 S0
G0 X211.9 Y230.9
M3 S1000
G1 X200.5 Y230.9
M3 S0
G0 X189.5 Y230.9
M3 S1000
G1 X189.5 Y230.9
M3 S1000
G1 X184.5 Y230.9
M3 S0
G0 X158.3 Y230.9
M3 S1000
G1 X158.3 Y230.9
M3 S1000
G1 X145.8 Y230.9
M3 S0
G0 X145.6 Y230.9
M3 S1000
G1 X145.6 Y230.9
M3 S1000
G1 X143.2 Y230.9
M3 S0
G0 X143.0 Y230.9
M3 S1000
G1 X143.0 Y230.9
M3 S1000
G1 X140.3 Y230.9
M3 S0
G0 X140.1 Y230.9
M3 S1000
G1 X140.1 Y230.9
M3 S1000
G1 X124.9 Y230.9
M3 S0
G0 X118.4 Y230.9
M3 S1000
G1 X118.4 Y230.9
M3 S1000
G1 X116.7 Y230.9
M3 S0
G0 X114.3 Y230.9
M3 S1000
G1 X114.3 Y230.9
M3 S1000
M5 S0
G0 X112.0 Y231.0
M3 S1000
G1 X114.2 Y231.0
M3 S0
G0 X116.8 Y231.0
M3 S1000
G1 X116.8 Y231.0
M3 S1000
G1 X118.7 Y231.0
M3 S0
G0 X124.2 Y231.0
M3 S1000
G1 X124.2 Y231.0
M3 S1000
G1 X124.4 Y231.0
M3 S0
G0 X125.0 Y231.0
M3 S1000
G1 X125.0 Y231.0
M3 S1000
G1 X143.0 Y231.0
M3 S0
G0 X143.3 Y231.0
M3 S1000
G1 X143.3 Y231.0
M3 S1000
G1 X145.5 Y231.0
M3 S0
G0 X146.1 Y231.0
M3 S1000
G1 X146.1 Y231.0
M3 S1000
G1 X155.3 Y231.0
M3 S0
G0 X155.5 Y231.0
M3 S1000
G1 X155.5 Y231.0
M3 S1000
G1 X158.6 Y231.0
M3 S0
G0 X184.6 Y231.0
M3 S1000
G1 X184.6 Y231.0
M3 S1000
G1 X188.7 Y231.0
M3 S0
G0 X200.6 Y231.0
M3 S1000
G1 X200.6 Y231.0
M3 S1000
M5 S0
G0 X211.9 Y231.1
M3 S1000
G1 X200.5 Y231.1
M3 S0
G0 X188.6 Y231.1
M3 S1000
G1 X188.6 Y231.1
M3 S1000
G1 X184.5 Y231.1
M3 S0
G0 X158.5 Y231.1
M3 S1000
G1 X158.5 Y231.1
M3 S1000
G1 X155.4 Y231.1
M3 S0
G0 X155.2 Y231.1
M3 S1000
G1 X155.2 Y231.1
M3 S1000
G1 X146.0 Y231.1
M3 S0
G0 X145.4 Y231.1
M3 S1000
G1 X145.4 Y231.1
M3 S1000
G1 X143.2 Y231.1
M3 S0
G0 X142.9 Y231.1
M3 S1000
G1 X142.9 Y231.1
M3 S1000
G1 X124.9 Y231.1
M3 S0
G0 X124.3 Y231.1
M3 S1000
G1 X124.3 Y231.1
M3 S1000
G1 X124.1 Y231.1
M3 S0
G0 X118.6 Y231.1
M3 S1000
G1 X118.6 Y231.1
M3 S1000
G1 X116.7 Y231.1
M3 S0
G0 X114.1 Y231.1
M3 S1000
G1 X114.1 Y231.1
M3 S1000
M5 S0
G0 X112.0 Y231.2
M3 S1000
G1 X114.4 Y231.2
M3 S0
G0 X116.8 Y231.2
M3 S1000
G1 X116.8 Y231.2
M3 S1000
G1 X118.7 Y231.2
M3 S0
G0 X125.0 Y231.2
M3 S1000
G1 X125.0 Y231.2
M3 S1000
G1 X143.0 Y231.2
M3 S0
G0 X143.3 Y231.2
M3 S1000
G1 X143.3 Y231.2
M3 S1000
G1 X145.5 Y231.2
M3 S0
G0 X146.1 Y231.2
M3 S1000
G1 X146.1 Y231.2
M3 S1000
G1 X155.3 Y231.2
M3 S0
G0 X155.6 Y231.2
M3 S1000
G1 X155.6 Y231.2
M3 S1000
G1 X158.6 Y231.2
M3 S0
G0 X184.0 Y231.2
M3 S1000
G1 X184.0 Y231.2
M3 S1000
G1 X184.2 Y231.2
M3 S0
G0 X184.8 Y231.2
M3 S1000
G1 X184.8 Y231.2
M3 S1000
G1 X188.3 Y231.2
M3 S0
G0 X188.7 Y231.2
M3 S1000
G1 X188.7 Y231.2
M3 S1000
G1 X188.9 Y231.2
M3 S0
G0 X200.6 Y231.2
M3 S1000
G1 X200.6 Y231.2
M3 S1000
M5 S0
G0 X211.9 Y231.3
M3 S1000
G1 X200.5 Y231.3
M3 S0
G0 X188.8 Y231.3
M3 S1000
G1 X188.8 Y231.3
M3 S1000
G1 X188.6 Y231.3
M3 S0
G0 X188.2 Y231.3
M3 S1000
G1 X188.2 Y231.3
M3 S1000
G1 X184.7 Y231.3
M3 S0
G0 X184.1 Y231.3
M3 S1000
G1 X184.1 Y231.3
M3 S1000
G1 X183.9 Y231.3
M3 S0
G0 X158.5 Y231.3
M3 S1000
G1 X158.5 Y231.3
M3 S1000
G1 X155.5 Y231.3
M3 S0
G0 X155.2 Y231.3
M3 S1000
G1 X155.2 Y231.3
M3 S1000
G1 X146.0 Y231.3
M3 S0
G0 X145.4 Y231.3
M3 S1000
G1 X145.4 Y231.3
M3 S1000
G1 X143.2 Y231.3
M3 S0
G0 X142.9 Y231.3
M3 S1000
G1 X142.9 Y231.3
M3 S1000
G1 X124.9 Y231.3
M3 S0
G0 X118.6 Y231.3
M3 S1000
G1 X118.6 Y231.3
M3 S1000
G1 X116.7 Y231.3
M3 S0
G0 X114.3 Y231.3
M3 S1000
G1 X114.3 Y231.3
M3 S1000
M5 S0
G0 X112.0 Y231.4
M3 S1000
G1 X114.4 Y231.4
M3 S0
G0 X116.8 Y231.4
M3 S1000
G1 X116.8 Y231.4
M3 S1000
G1 X118.5 Y231.4
M3 S0
G0 X125.0 Y231.4
M3 S1000
G1 X125.0 Y231.4
M3 S1000
G1 X142.8 Y231.4
M3 S0
G0 X143.1 Y231.4
M3 S1000
G1 X143.1 Y231.4
M3 S1000
G1 X144.9 Y231.4
M3 S0
G0 X145.1 Y231.4
M3 S1000
G1 X145.1 Y231.4
M3 S1000
G1 X145.3 Y231.4
M3 S0
G0 X146.3 Y231.4
M3 S1000
G1 X146.3 Y231.4
M3 S1000
G1 X158.8 Y231.4
M3 S0
G0 X184.0 Y231.4
M3 S1000
G1 X184.0 Y231.4
M3 S1000
G1 X184.2 Y231.4
M3 S0
G0 X184.8 Y231.4
M3 S1000
G1 X184.8 Y231.4
M3 S1000
G1 X187.5 Y231.4
M3 S0
G0 X187.7 Y231.4
M3 S1000
G1 X187.7 Y231.4
M3 S1000
G1 X187.9 Y231.4
M3 S0
G0 X200.8 Y231.4
M3 S1000
G1 X200.8 Y231.4
M3 S1000
M5 S0
G0 X211.9 Y231.5
M3 S1000
G1 X200.7 Y231.5
M3 S0
G0 X187.8 Y231.5
M3 S1000
G1 X187.8 Y231.5
M3 S1000
G1 X187.6 Y231.5
M3 S0
G0 X187.2 Y231.5
M3 S1000
G1 X187.2 Y231.5
M3 S1000
G1 X185.0 Y231.5
M3 S0
G0 X184.1 Y231.5
M3 S1000
G1 X184.1 Y231.5
M3 S1000
G1 X183.7 Y231.5
M3 S0
G0 X158.7 Y231.5
M3 S1000
G1 X158.7 Y231.5
M3 S1000
G1 X155.4 Y231.5
M3 S0
G0 X155.2 Y231.5
M3 S1000
G1 X155.2 Y231.5
M3 S1000
G1 X146.4 Y231.5
M3 S0
G0 X145.2 Y231.5
M3 S1000
G1 X145.2 Y231.5
M3 S1000
G1 X145.0 Y231.5
M3 S0
G0 X144.8 Y231.5
M3 S1000
G1 X144.8 Y231.5
M3 S1000
G1 X142.9 Y231.5
M3 S0
G0 X142.7 Y231.5
M3 S1000
G1 X142.7 Y231.5
M3 S1000
G1 X124.9 Y231.5
M3 S0
G0 X118.4 Y231.5
M3 S1000
G1 X118.4 Y231.5
M3 S1000
G1 X116.7 Y231.5
M3 S0
G0 X114.3 Y231.5
M3 S1000
G1 X114.3 Y231.5
M3 S1000
M5 S0
G0 X112.0 Y231.6
M3 S1000
G1 X114.4 Y231.6
M3 S0
G0 X116.8 Y231.6
M3 S1000
G1 X116.8 Y231.6
M3 S1000
G1 X118.5 Y231.6
M3 S0
G0 X125.0 Y231.6
M3 S1000
G1 X125.0 Y231.6
M3 S1000
G1 X142.8 Y231.6
M3 S0
G0 X143.0 Y231.6
M3 S1000
G1 X143.0 Y231.6
M3 S1000
G1 X144.9 Y231.6
M3 S0
G0 X145.1 Y231.6
M3 S1000
G1 X145.1 Y231.6
M3 S1000
G1 X145.3 Y231.6
M3 S0
G0 X146.5 Y231.6
M3 S1000
G1 X146.5 Y231.6
M3 S1000
G1 X155.3 Y231.6
M3 S0
G0 X155.5 Y231.6
M3 S1000
G1 X155.5 Y231.6
M3 S1000
G1 X158.8 Y231.6
M3 S0
G0 X183.8 Y231.6
M3 S1000
G1 X183.8 Y231.6
M3 S1000
G1 X184.2 Y231.6
M3 S0
G0 X185.1 Y231.6
M3 S1000
G1 X185.1 Y231.6
M3 S1000
G1 X187.3 Y231.6
M3 S0
G0 X187.7 Y231.6
M3 S1000
G1 X187.7 Y231.6
M3 S1000
G1 X187.9 Y231.6
M3 S0
G0 X200.8 Y231.6
M3 S1000
G1 X200.8 Y231.6
M3 S1000
M5 S0
G0 X211.9 Y231.7
M3 S1000
G1 X200.7 Y231.7
M3 S0
G0 X186.0 Y231.7
M3 S1000
G1 X186.0 Y231.7
M3 S1000
G1 X185.0 Y231.7
M3 S0
G0 X184.1 Y231.7
M3 S1000
G1 X184.1 Y231.7
M3 S1000
G1 X183.7 Y231.7
M3 S0
G0 X158.9 Y231.7
M3 S1000
G1 X158.9 Y231.7
M3 S1000
G1 X146.4 Y231.7
M3 S0
G0 X146.0 Y231.7
M3 S1000
G1 X146.0 Y231.7
M3 S1000
G1 X145.4 Y231.7
M3 S0
G0 X145.0 Y231.7
M3 S1000
G1 X145.0 Y231.7
M3 S1000
G1 X144.8 Y231.7
M3 S0
G0 X144.6 Y231.7
M3 S1000
G1 X144.6 Y231.7
M3 S1000
G1 X142.9 Y231.7
M3 S0
G0 X142.7 Y231.7
M3 S1000
G1 X142.7 Y231.7
M3 S1000
G1 X142.1 Y231.7
M3 S0
G0 X141.9 Y231.7
M3 S1000
G1 X141.9 Y231.7
M3 S1000
G1 X124.9 Y231.7
M3 S0
G0 X118.4 Y231.7
M3 S1000
G1 X118.4 Y231.7
M3 S1000
G1 X116.7 Y231.7
M3 S0
G0 X114.3 Y231.7
M3 S1000
G1 X114.3 Y231.7
M3 S1000
M5 S0
G0 X112.0 Y231.8
M3 S1000
G1 X114.4 Y231.8
M3 S0
G0 X116.8 Y231.8
M3 S1000
G1 X116.8 Y231.8
M3 S1000
G1 X118.5 Y231.8
M3 S0
G0 X125.0 Y231.8
M3 S1000
G1 X125.0 Y231.8
M3 S1000
G1 X142.0 Y231.8
M3 S0
G0 X142.2 Y231.8
M3 S1000
G1 X142.2 Y231.8
M3 S1000
G1 X142.8 Y231.8
M3 S0
G0 X143.0 Y231.8
M3 S1000
G1 X143.0 Y231.8
M3 S1000
G1 X144.7 Y231.8
M3 S0
G0 X144.9 Y231.8
M3 S1000
G1 X144.9 Y231.8
M3 S1000
G1 X145.1 Y231.8
M3 S0
G0 X145.5 Y231.8
M3 S1000
G1 X145.5 Y231.8
M3 S1000
G1 X146.1 Y231.8
M3 S0
G0 X146.5 Y231.8
M3 S1000
G1 X146.5 Y231.8
M3 S1000
G1 X159.0 Y231.8
M3 S0
G0 X183.8 Y231.8
M3 S1000
G1 X183.8 Y231.8
M3 S1000
G1 X184.2 Y231.8
M3 S0
G0 X185.1 Y231.8
M3 S1000
G1 X185.1 Y231.8
M3 S1000
G1 X186.1 Y231.8
M3 S0
G0 X200.8 Y231.8
M3 S1000
G1 X200.8 Y231.8
M3 S1000
M5 S0
G0 X211.9 Y231.9
M3 S1000
G1 X200.9 Y231.9
M3 S0
G0 X185.6 Y231.9
M3 S1000
G1 X185.6 Y231.9
M3 S1000
G1 X185.2 Y231.9
M3 S0
G0 X184.1 Y231.9
M3 S1000
G1 X184.1 Y231.9
M3 S1000
G1 X183.7 Y231.9
M3 S0
G0 X158.9 Y231.9
M3 S1000
G1 X158.9 Y231.9
M3 S1000
G1 X155.9 Y231.9
M3 S0
G0 X155.7 Y231.9
M3 S1000
G1 X155.7 Y231.9
M3 S1000
G1 X155.4 Y231.9
M3 S0
G0 X155.2 Y231.9
M3 S1000
G1 X155.2 Y231.9
M3 S1000
G1 X146.6 Y231.9
M3 S0
G0 X146.0 Y231.9
M3 S1000
G1 X146.0 Y231.9
M3 S1000
G1 X145.8 Y231.9
M3 S0
G0 X145.6 Y231.9
M3 S1000
G1 X145.6 Y231.9
M3 S1000
G1 X145.2 Y231.9
M3 S0
G0 X145.0 Y231.9
M3 S1000
G1 X145.0 Y231.9
M3 S1000
G1 X144.6 Y231.9
M3 S0
G0 X144.4 Y231.9
M3 S1000
G1 X144.4 Y231.9
M3 S1000
G1 X142.7 Y231.9
M3 S0
G0 X142.5 Y231.9
M3 S1000
G1 X142.5 Y231.9
M3 S1000
G1 X142.3 Y231.9
M3 S0
G0 X141.9 Y231.9
M3 S1000
G1 X141.9 Y231.9
M3 S1000
G1 X141.5 Y231.9
M3 S0
G0 X140.9 Y231.9
M3 S1000
G1 X140.9 Y231.9
M3 S1000
G1 X124.9 Y231.9
M3 S0
G0 X118.4 Y231.9
M3 S1000
G1 X118.4 Y231.9
M3 S1000
G1 X116.7 Y231.9
M3 S0
G0 X114.1 Y231.9
M3 S1000
G1 X114.1 Y231.9
M3 S1000
M5 S0
G0 X112.0 Y232.0
M3 S1000
G1 X114.2 Y232.0
M3 S0
G0 X116.8 Y232.0
M3 S1000
G1 X116.8 Y232.0
M3 S1000
G1 X118.5 Y232.0
M3 S0
G0 X125.0 Y232.0
M3 S1000
G1 X125.0 Y232.0
M3 S1000
G1 X141.0 Y232.0
M3 S0
G0 X141.6 Y232.0
M3 S1000
G1 X141.6 Y232.0
M3 S1000
G1 X142.0 Y232.0
M3 S0
G0 X142.4 Y232.0
M3 S1000
G1 X142.4 Y232.0
M3 S1000
G1 X142.6 Y232.0
M3 S0
G0 X142.8 Y232.0
M3 S1000
G1 X142.8 Y232.0
M3 S1000
G1 X144.5 Y232.0
M3 S0
G0 X144.7 Y232.0
M3 S1000
G1 X144.7 Y232.0
M3 S1000
G1 X145.1 Y232.0
M3 S0
G0 X145.3 Y232.0
M3 S1000
G1 X145.3 Y232.0
M3 S1000
G1 X145.7 Y232.0
M3 S0
G0 X145.9 Y232.0
M3 S1000
G1 X145.9 Y232.0
M3 S1000
G1 X146.1 Y232.0
M3 S0
G0 X146.7 Y232.0
M3 S1000
G1 X146.7 Y232.0
M3 S1000
G1 X155.3 Y232.0
M3 S0
G0 X155.5 Y232.0
M3 S1000
G1 X155.5 Y232.0
M3 S1000
G1 X155.8 Y232.0
M3 S0
G0 X156.0 Y232.0
M3 S1000
G1 X156.0 Y232.0
M3 S1000
G1 X159.0 Y232.0
M3 S0
G0 X183.8 Y232.0
M3 S1000
G1 X183.8 Y232.0
M3 S1000
G1 X184.2 Y232.0
M3 S0
G0 X185.3 Y232.0
M3 S1000
G1 X185.3 Y232.0
M3 S1000
G1 X185.7 Y232.0
M3 S0
G0 X201.0 Y232.0
M3 S1000
G1 X201.0 Y232.0
M3 S1000
M5 S0
G0 X211.9 Y232.1
M3 S1000
G1 X200.9 Y232.1
M3 S0
G0 X193.0 Y232.1
M3 S1000
G1 X193.0 Y232.1
M3 S1000
G1 X192.9 Y232.1
M3 S0
G0 X185.4 Y232.1
M3 S1000
G1 X185.4 Y232.1
M3 S1000
G1 X185.2 Y232.1
M3 S0
G0 X184.1 Y232.1
M3 S1000
G1 X184.1 Y232.1
M3 S1000
G1 X183.5 Y232.1
M3 S0
G0 X158.9 Y232.1
M3 S1000
G1 X158.9 Y232.1
M3 S1000
G1 X146.4 Y232.1
M3 S0
G0 X146.2 Y232.1
M3 S1000
G1 X146.2 Y232.1
M3 S1000
G1 X145.2 Y232.1
M3 S0
G0 X144.8 Y232.1
M3 S1000
G1 X144.8 Y232.1
M3 S1000
G1 X142.7 Y232.1
M3 S0
G0 X142.5 Y232.1
M3 S1000
G1 X142.5 Y232.1
M3 S1000
G1 X142.1 Y232.1
M3 S0
G0 X141.9 Y232.1
M3 S1000
G1 X141.9 Y232.1
M3 S1000
G1 X141.7 Y232.1
M3 S0
G0 X140.7 Y232.1
M3 S1000
G1 X140.7 Y232.1
M3 S1000
G1 X124.9 Y232.1
M3 S0
G0 X118.4 Y232.1
M3 S1000
G1 X118.4 Y232.1
M3 S1000
G1 X116.5 Y232.1
M3 S0
G0 X114.1 Y232.1
M3 S1000
G1 X114.1 Y232.1
M3 S1000
M5 S0
G0 X112.0 Y232.2
M3 S1000
G1 X114.2 Y232.2
M3 S0
G0 X116.6 Y232.2
M3 S1000
G1 X116.6 Y232.2
M3 S1000
G1 X118.5 Y232.2
M3 S0
G0 X125.0 Y232.2
M3 S1000
G1 X125.0 Y232.2
M3 S1000
G1 X140.8 Y232.2
M3 S0
G0 X141.8 Y232.2
M3 S1000
G1 X141.8 Y232.2
M3 S1000
G1 X142.0 Y232.2
M3 S0
G0 X142.2 Y232.2
M3 S1000
G1 X142.2 Y232.2
M3 S1000
G1 X142.6 Y232.2
M3 S0
G0 X142.8 Y232.2
M3 S1000
G1 X142.8 Y232.2
M3 S1000
G1 X144.9 Y232.2
M3 S0
G0 X145.3 Y232.2
M3 S1000
G1 X145.3 Y232.2
M3 S1000
G1 X146.3 Y232.2
M3 S0
G0 X146.5 Y232.2
M3 S1000
G1 X146.5 Y232.2
M3 S1000
G1 X159.0 Y232.2
M3 S0
G0 X183.6 Y232.2
M3 S1000
G1 X183.6 Y232.2
M3 S1000
G1 X184.2 Y232.2
M3 S0
G0 X185.3 Y232.2
M3 S1000
G1 X185.3 Y232.2
M3 S1000
G1 X185.5 Y232.2
M3 S0
G0 X193.0 Y232.2
M3 S1000
G1 X193.0 Y232.2
M3 S1000
G1 X193.1 Y232.2
M3 S0
G0 X201.0 Y232.2
M3 S1000
G1 X201.0 Y232.2
M3 S1000
M5 S0
G0 X211.9 Y232.3
M3 S1000
G1 X200.9 Y232.3
M3 S0
G0 X184.1 Y232.3
M3 S1000
G1 X184.1 Y232.3
M3 S1000
G1 X183.5 Y232.3
M3 S0
G0 X159.1 Y232.3
M3 S1000
G1 X159.1 Y232.3
M3 S1000
G1 X156.7 Y232.3
M3 S0
G0 X155.9 Y232.3
M3 S1000
G1 X155.9 Y232.3
M3 S1000
G1 X145.0 Y232.3
M3 S0
G0 X144.6 Y232.3
M3 S1000
G1 X144.6 Y232.3
M3 S1000
G1 X142.9 Y232.3
M3 S0
G0 X142.5 Y232.3
M3 S1000
G1 X142.5 Y232.3
M3 S1000
G1 X142.3 Y232.3
M3 S0
G0 X142.1 Y232.3
M3 S1000
G1 X142.1 Y232.3
M3 S1000
G1 X141.7 Y232.3
M3 S0
G0 X141.5 Y232.3
M3 S1000
G1 X141.5 Y232.3
M3 S1000
G1 X124.9 Y232.3
M3 S0
G0 X118.4 Y232.3
M3 S1000
G1 X118.4 Y232.3
M3 S1000
G1 X116.5 Y232.3
M3 S0
G0 X114.1 Y232.3
M3 S1000
G1 X114.1 Y232.3
M3 S1000
M5 S0
G0 X112.0 Y232.4
M3 S1000
G1 X114.2 Y232.4
M3 S0
G0 X116.6 Y232.4
M3 S1000
G1 X116.6 Y232.4
M3 S1000
G1 X118.5 Y232.4
M3 S0
G0 X125.0 Y232.4
M3 S1000
G1 X125.0 Y232.4
M3 S1000
G1 X141.6 Y232.4
M3 S0
G0 X141.8 Y232.4
M3 S1000
G1 X141.8 Y232.4
M3 S1000
G1 X142.2 Y232.4
M3 S0
G0 X142.4 Y232.4
M3 S1000
G1 X142.4 Y232.4
M3 S1000
G1 X142.6 Y232.4
M3 S0
G0 X143.0 Y232.4
M3 S1000
G1 X143.0 Y232.4
M3 S1000
G1 X144.7 Y232.4
M3 S0
G0 X145.1 Y232.4
M3 S1000
G1 X145.1 Y232.4
M3 S1000
G1 X156.0 Y232.4
M3 S0
G0 X156.8 Y232.4
M3 S1000
G1 X156.8 Y232.4
M3 S1000
G1 X159.2 Y232.4
M3 S0
G0 X183.6 Y232.4
M3 S1000
G1 X183.6 Y232.4
M3 S1000
G1 X184.2 Y232.4
M3 S0
G0 X201.0 Y232.4
M3 S1000
G1 X201.0 Y232.4
M3 S1000
M5 S0
G0 X211.9 Y232.5
M3 S1000
G1 X200.9 Y232.5
M3 S0
G0 X184.3 Y232.5
M3 S1000
G1 X184.3 Y232.5
M3 S1000
G1 X183.5 Y232.5
M3 S0
G0 X159.1 Y232.5
M3 S1000
G1 X159.1 Y232.5
M3 S1000
G1 X156.3 Y232.5
M3 S0
G0 X156.1 Y232.5
M3 S1000
G1 X156.1 Y232.5
M3 S1000
G1 X155.9 Y232.5
M3 S0
G0 X155.5 Y232.5
M3 S1000
G1 X155.5 Y232.5
M3 S1000
G1 X145.0 Y232.5
M3 S0
G0 X144.2 Y232.5
M3 S1000
G1 X144.2 Y232.5
M3 S1000
G1 X142.5 Y232.5
M3 S0
G0 X142.1 Y232.5
M3 S1000
G1 X142.1 Y232.5
M3 S1000
G1 X124.7 Y232.5
M3 S0
G0 X118.4 Y232.5
M3 S1000
G1 X118.4 Y232.5
M3 S1000
G1 X116.5 Y232.5
M3 S0
G0 X114.1 Y232.5
M3 S1000
G1 X114.1 Y232.5
M3 S1000
M5 S0
G0 X112.0 Y232.6
M3 S1000
G1 X114.2 Y232.6
M3 S0
G0 X116.6 Y232.6
M3 S1000
G1 X116.6 Y232.6
M3 S1000
G1 X118.5 Y232.6
M3 S0
G0 X124.8 Y232.6
M3 S1000
G1 X124.8 Y232.6
M3 S1000
G1 X142.2 Y232.6
M3 S0
G0 X142.6 Y232.6
M3 S1000
G1 X142.6 Y232.6
M3 S1000
G1 X144.3 Y232.6
M3 S0
G0 X145.1 Y232.6
M3 S1000
G1 X145.1 Y232.6
M3 S1000
G1 X155.6 Y232.6
M3 S0
G0 X156.0 Y232.6
M3 S1000
G1 X156.0 Y232.6
M3 S1000
G1 X156.2 Y232.6
M3 S0
G0 X156.4 Y232.6
M3 S1000
G1 X156.4 Y232.6
M3 S1000
G1 X159.2 Y232.6
M3 S0
G0 X183.6 Y232.6
M3 S1000
G1 X183.6 Y232.6
M3 S1000
G1 X184.4 Y232.6
M3 S0
G0 X201.0 Y232.6
M3 S1000
G1 X201.0 Y232.6
M3 S1000
M5 S0
G0 X211.9 Y232.7
M3 S1000
G1 X200.9 Y232.7
M3 S0
G0 X193.2 Y232.7
M3 S1000
G1 X193.2 Y232.7
M3 S1000
G1 X193.0 Y232.7
M3 S0
G0 X184.3 Y232.7
M3 S1000
G1 X184.3 Y232.7
M3 S1000
G1 X183.3 Y232.7
M3 S0
G0 X159.1 Y232.7
M3 S1000
G1 X159.1 Y232.7
M3 S1000
G1 X156.5 Y232.7
M3 S0
G0 X155.7 Y232.7
M3 S1000
G1 X155.7 Y232.7
M3 S1000
G1 X144.8 Y232.7
M3 S0
G0 X144.0 Y232.7
M3 S1000
G1 X144.0 Y232.7
M3 S1000
G1 X142.5 Y232.7
M3 S0
G0 X142.1 Y232.7
M3 S1000
G1 X142.1 Y232.7
M3 S1000
G1 X124.5 Y232.7
M3 S0
G0 X118.4 Y232.7
M3 S1000
G1 X118.4 Y232.7
M3 S1000
G1 X116.5 Y232.7
M3 S0
G0 X114.1 Y232.7
M3 S1000
G1 X114.1 Y232.7
M3 S1000
M5 S0
G0 X112.0 Y232.8
M3 S1000
G1 X114.2 Y232.8
M3 S0
G0 X116.6 Y232.8
M3 S1000
G1 X116.6 Y232.8
M3 S1000
G1 X118.5 Y232.8
M3 S0
G0 X124.6 Y232.8
M3 S1000
G1 X124.6 Y232.8
M3 S1000
G1 X142.2 Y232.8
M3 S0
G0 X142.6 Y232.8
M3 S1000
G1 X142.6 Y232.8
M3 S1000
G1 X144.1 Y232.8
M3 S0
G0 X144.9 Y232.8
M3 S1000
G1 X144.9 Y232.8
M3 S1000
G1 X155.8 Y232.8
M3 S0
G0 X156.6 Y232.8
M3 S1000
G1 X156.6 Y232.8
M3 S1000
G1 X159.2 Y232.8
M3 S0
G0 X183.4 Y232.8
M3 S1000
G1 X183.4 Y232.8
M3 S1000
G1 X184.4 Y232.8
M3 S0
G0 X193.1 Y232.8
M3 S1000
G1 X193.1 Y232.8
M3 S1000
G1 X193.3 Y232.8
M3 S0
G0 X201.0 Y232.8
M3 S1000
G1 X201.0 Y232.8
M3 S1000
M5 S0
G0 X211.9 Y232.9
M3 S1000
G1 X200.9 Y232.9
M3 S0
G0 X193.2 Y232.9
M3 S1000
G1 X193.2 Y232.9
M3 S1000
G1 X193.0 Y232.9
M3 S0
G0 X184.3 Y232.9
M3 S1000
G1 X184.3 Y232.9
M3 S1000
G1 X183.3 Y232.9
M3 S0
G0 X159.1 Y232.9
M3 S1000
G1 X159.1 Y232.9
M3 S1000
G1 X156.7 Y232.9
M3 S0
G0 X155.9 Y232.9
M3 S1000
G1 X155.9 Y232.9
M3 S1000
G1 X155.4 Y232.9
M3 S0
G0 X155.2 Y232.9
M3 S1000
G1 X155.2 Y232.9
M3 S1000
G1 X144.6 Y232.9
M3 S0
G0 X144.0 Y232.9
M3 S1000
G1 X144.0 Y232.9
M3 S1000
G1 X124.5 Y232.9
M3 S0
G0 X118.4 Y232.9
M3 S1000
G1 X118.4 Y232.9
M3 S1000
G1 X116.5 Y232.9
M3 S0
G0 X114.1 Y232.9
M3 S1000
G1 X114.1 Y232.9
M3 S1000
M5 S0
G0 X112.0 Y233.0
M3 S1000
G1 X114.2 Y233.0
M3 S0
G0 X116.6 Y233.0
M3 S1000
G1 X116.6 Y233.0
M3 S1000
G1 X118.5 Y233.0
M3 S0
G0 X124.6 Y233.0
M3 S1000
G1 X124.6 Y233.0
M3 S1000
G1 X144.1 Y233.0
M3 S0
G0 X144.7 Y233.0
M3 S1000
G1 X144.7 Y233.0
M3 S1000
G1 X155.3 Y233.0
M3 S0
G0 X155.5 Y233.0
M3 S1000
G1 X155.5 Y233.0
M3 S1000
G1 X156.0 Y233.0
M3 S0
G0 X156.8 Y233.0
M3 S1000
G1 X156.8 Y233.0
M3 S1000
G1 X159.2 Y233.0
M3 S0
G0 X183.4 Y233.0
M3 S1000
G1 X183.4 Y233.0
M3 S1000
G1 X184.4 Y233.0
M3 S0
G0 X193.1 Y233.0
M3 S1000
G1 X193.1 Y233.0
M3 S1000
G1 X193.3 Y233.0
M3 S0
G0 X201.0 Y233.0
M3 S1000
G1 X201.0 Y233.0
M3 S1000
M5 S0
G0 X211.9 Y233.1
M3 S1000
G1 X201.1 Y233.1
M3 S0
G0 X194.8 Y233.1
M3 S1000
G1 X194.8 Y233.1
M3 S1000
G1 X194.6 Y233.1
M3 S0
G0 X193.4 Y233.1
M3 S1000
G1 X193.4 Y233.1
M3 S1000
G1 X193.2 Y233.1
M3 S0
G0 X184.3 Y233.1
M3 S1000
G1 X184.3 Y233.1
M3 S1000
G1 X184.1 Y233.1
M3 S0
G0 X183.9 Y233.1
M3 S1000
G1 X183.9 Y233.1
M3 S1000
G1 X183.3 Y233.1
M3 S0
G0 X159.1 Y233.1
M3 S1000
G1 X159.1 Y233.1
M3 S1000
G1 X156.9 Y233.1
M3 S0
G0 X155.9 Y233.1
M3 S1000
G1 X155.9 Y233.1
M3 S1000
G1 X155.7 Y233.1
M3 S0
G0 X155.4 Y233.1
M3 S1000
G1 X155.4 Y233.1
M3 S1000
G1 X144.4 Y233.1
M3 S0
G0 X143.6 Y233.1
M3 S1000
G1 X143.6 Y233.1
M3 S1000
G1 X143.0 Y233.1
M3 S0
G0 X142.9 Y233.1
M3 S1000
G1 X142.9 Y233.1
M3 S1000
G1 X124.5 Y233.1
M3 S0
G0 X118.4 Y233.1
M3 S1000
G1 X118.4 Y233.1
M3 S1000
G1 X116.5 Y233.1
M3 S0
G0 X114.1 Y233.1
M3 S1000
G1 X114.1 Y233.1
M3 S1000
M5 S0
G0 X112.0 Y233.2
M3 S1000
G1 X114.2 Y233.2
M3 S0
G0 X116.6 Y233.2
M3 S1000
G1 X116.6 Y233.2
M3 S1000
G1 X118.5 Y233.2
M3 S0
G0 X124.6 Y233.2
M3 S1000
G1 X124.6 Y233.2
M3 S1000
G1 X143.0 Y233.2
M3 S0
G0 X143.1 Y233.2
M3 S1000
G1 X143.1 Y233.2
M3 S1000
G1 X143.7 Y233.2
M3 S0
G0 X144.5 Y233.2
M3 S1000
G1 X144.5 Y233.2
M3 S1000
G1 X155.5 Y233.2
M3 S0
G0 X155.8 Y233.2
M3 S1000
G1 X155.8 Y233.2
M3 S1000
G1 X156.0 Y233.2
M3 S0
G0 X157.0 Y233.2
M3 S1000
G1 X157.0 Y233.2
M3 S1000
G1 X159.2 Y233.2
M3 S0
G0 X183.4 Y233.2
M3 S1000
G1 X183.4 Y233.2
M3 S1000
G1 X184.0 Y233.2
M3 S0
G0 X184.2 Y233.2
M3 S1000
G1 X184.2 Y233.2
M3 S1000
G1 X184.4 Y233.2
M3 S0
G0 X193.3 Y233.2
M3 S1000
G1 X193.3 Y233.2
M3 S1000
G1 X193.5 Y233.2
M3 S0
G0 X194.7 Y233.2
M3 S1000
G1 X194.7 Y233.2
M3 S1000
G1 X194.9 Y233.2
M3 S0
G0 X201.2 Y233.2
M3 S1000
G1 X201.2 Y233.2
M3 S1000
M5 S0
G0 X211.9 Y233.3
M3 S1000
G1 X201.1 Y233.3
M3 S0
G0 X195.0 Y233.3
M3 S1000
G1 X195.0 Y233.3
M3 S1000
G1 X194.4 Y233.3
M3 S0
G0 X194.2 Y233.3
M3 S1000
G1 X194.2 Y233.3
M3 S1000
G1 X194.0 Y233.3
M3 S0
G0 X193.8 Y233.3
M3 S1000
G1 X193.8 Y233.3
M3 S1000
G1 X193.4 Y233.3
M3 S0
G0 X184.5 Y233.3
M3 S1000
G1 X184.5 Y233.3
M3 S1000
G1 X184.3 Y233.3
M3 S0
G0 X184.1 Y233.3
M3 S1000
G1 X184.1 Y233.3
M3 S1000
G1 X183.3 Y233.3
M3 S0
G0 X159.3 Y233.3
M3 S1000
G1 X159.3 Y233.3
M3 S1000
G1 X156.9 Y233.3
M3 S0
G0 X156.1 Y233.3
M3 S1000
G1 X156.1 Y233.3
M3 S1000
G1 X155.7 Y233.3
M3 S0
G0 X155.5 Y233.3
M3 S1000
G1 X155.5 Y233.3
M3 S1000
G1 X144.4 Y233.3
M3 S0
G0 X144.2 Y233.3
M3 S1000
G1 X144.2 Y233.3
M3 S1000
G1 X143.8 Y233.3
M3 S0
G0 X143.6 Y233.3
M3 S1000
G1 X143.6 Y233.3
M3 S1000
G1 X142.9 Y233.3
M3 S0
G0 X142.3 Y233.3
M3 S1000
G1 X142.3 Y233.3
M3 S1000
G1 X124.5 Y233.3
M3 S0
G0 X118.4 Y233.3
M3 S1000
G1 X118.4 Y233.3
M3 S1000
G1 X116.5 Y233.3
M3 S0
G0 X114.1 Y233.3
M3 S1000
G1 X114.1 Y233.3
M3 S1000
M5 S0
G0 X112.0 Y233.4
M3 S1000
G1 X114.2 Y233.4
M3 S0
G0 X116.6 Y233.4
M3 S1000
G1 X116.6 Y233.4
M3 S1000
G1 X118.5 Y233.4
M3 S0
G0 X124.6 Y233.4
M3 S1000
G1 X124.6 Y233.4
M3 S1000
G1 X142.4 Y233.4
M3 S0
G0 X143.0 Y233.4
M3 S1000
G1 X143.0 Y233.4
M3 S1000
G1 X143.7 Y233.4
M3 S0
G0 X143.9 Y233.4
M3 S1000
G1 X143.9 Y233.4
M3 S1000
G1 X144.3 Y233.4
M3 S0
G0 X144.5 Y233.4
M3 S1000
G1 X144.5 Y233.4
M3 S1000
G1 X155.6 Y233.4
M3 S0
G0 X155.8 Y233.4
M3 S1000
G1 X155.8 Y233.4
M3 S1000
G1 X156.2 Y233.4
M3 S0
G0 X157.0 Y233.4
M3 S1000
G1 X157.0 Y233.4
M3 S1000
G1 X159.4 Y233.4
M3 S0
G0 X183.4 Y233.4
M3 S1000
G1 X183.4 Y233.4
M3 S1000
G1 X184.2 Y233.4
M3 S0
G0 X184.4 Y233.4
M3 S1000
G1 X184.4 Y233.4
M3 S1000
G1 X184.6 Y233.4
M3 S0
G0 X193.5 Y233.4
M3 S1000
G1 X193.5 Y233.4
M3 S1000
G1 X193.9 Y233.4
M3 S0
G0 X194.1 Y233.4
M3 S1000
G1 X194.1 Y233.4
M3 S1000
G1 X194.3 Y233.4
M3 S0
G0 X194.5 Y233.4
M3 S1000
G1 X194.5 Y233.4
M3 S1000
G1 X195.1 Y233.4
M3 S0
G0 X201.2 Y233.4
M3 S1000
G1 X201.2 Y233.4
M3 S1000
M5 S0
G0 X211.9 Y233.5
M3 S1000
G1 X201.3 Y233.5
M3 S0
G0 X194.6 Y233.5
M3 S1000
G1 X194.6 Y233.5
M3 S1000
G1 X194.4 Y233.5
M3 S0
G0 X194.0 Y233.5
M3 S1000
G1 X194.0 Y233.5
M3 S1000
G1 X193.8 Y233.5
M3 S0
G0 X193.6 Y233.5
M3 S1000
G1 X193.6 Y233.5
M3 S1000
G1 X193.4 Y233.5
M3 S0
G0 X184.1 Y233.5
M3 S1000
G1 X184.1 Y233.5
M3 S1000
G1 X183.1 Y233.5
M3 S0
G0 X159.3 Y233.5
M3 S1000
G1 X159.3 Y233.5
M3 S1000
G1 X156.7 Y233.5
M3 S0
G0 X156.1 Y233.5
M3 S1000
G1 X156.1 Y233.5
M3 S1000
G1 X155.7 Y233.5
M3 S0
G0 X155.5 Y233.5
M3 S1000
G1 X155.5 Y233.5
M3 S1000
G1 X150.3 Y233.5
M3 S0
G0 X150.1 Y233.5
M3 S1000
G1 X150.1 Y233.5
M3 S1000
G1 X143.8 Y233.5
M3 S0
G0 X143.4 Y233.5
M3 S1000
G1 X143.4 Y233.5
M3 S1000
G1 X142.7 Y233.5
M3 S0
G0 X142.3 Y233.5
M3 S1000
G1 X142.3 Y233.5
M3 S1000
G1 X141.7 Y233.5
M3 S0
G0 X141.5 Y233.5
M3 S1000
G1 X141.5 Y233.5
M3 S1000
G1 X124.5 Y233.5
M3 S0
G0 X118.4 Y233.5
M3 S1000
G1 X118.4 Y233.5
M3 S1000
G1 X116.5 Y233.5
M3 S0
G0 X114.1 Y233.5
M3 S1000
G1 X114.1 Y233.5
M3 S1000
M5 S0
G0 X112.0 Y233.6
M3 S1000
G1 X114.2 Y233.6
M3 S0
G0 X116.6 Y233.6
M3 S1000
G1 X116.6 Y233.6
M3 S1000
G1 X118.5 Y233.6
M3 S0
G0 X124.6 Y233.6
M3 S1000
G1 X124.6 Y233.6
M3 S1000
G1 X141.6 Y233.6
M3 S0
G0 X141.8 Y233.6
M3 S1000
G1 X141.8 Y233.6
M3 S1000
G1 X142.4 Y233.6
M3 S0
G0 X142.8 Y233.6
M3 S1000
G1 X142.8 Y233.6
M3 S1000
G1 X143.5 Y233.6
M3 S0
G0 X143.9 Y233.6
M3 S1000
G1 X143.9 Y233.6
M3 S1000
G1 X150.2 Y233.6
M3 S0
G0 X150.4 Y233.6
M3 S1000
G1 X150.4 Y233.6
M3 S1000
G1 X155.6 Y233.6
M3 S0
G0 X155.8 Y233.6
M3 S1000
G1 X155.8 Y233.6
M3 S1000
G1 X156.2 Y233.6
M3 S0
G0 X156.8 Y233.6
M3 S1000
G1 X156.8 Y233.6
M3 S1000
G1 X159.4 Y233.6
M3 S0
G0 X183.2 Y233.6
M3 S1000
G1 X183.2 Y233.6
M3 S1000
G1 X184.2 Y233.6
M3 S0
G0 X193.5 Y233.6
M3 S1000
G1 X193.5 Y233.6
M3 S1000
G1 X193.7 Y233.6
M3 S0
G0 X193.9 Y233.6
M3 S1000
G1 X193.9 Y233.6
M3 S1000
G1 X194.1 Y233.6
M3 S0
G0 X194.5 Y233.6
M3 S1000
G1 X194.5 Y233.6
M3 S1000
G1 X194.7 Y233.6
M3 S0
G0 X201.4 Y233.6
M3 S1000
G1 X201.4 Y233.6
M3 S1000
M5 S0
G0 X211.9 Y233.7
M3 S1000
G1 X201.3 Y233.7
M3 S0
G0 X194.8 Y233.7
M3 S1000
G1 X194.8 Y233.7
M3 S1000
G1 X194.6 Y233.7
M3 S0
G0 X194.2 Y233.7
M3 S1000
G1 X194.2 Y233.7
M3 S1000
G1 X194.0 Y233.7
M3 S0
G0 X193.2 Y233.7
M3 S1000
G1 X193.2 Y233.7
M3 S1000
G1 X193.0 Y233.7
M3 S0
G0 X192.9 Y233.7
M3 S1000
G1 X192.9 Y233.7
M3 S1000
G1 X192.7 Y233.7
M3 S0
G0 X184.1 Y233.7
M3 S1000
G1 X184.1 Y233.7
M3 S1000
G1 X183.1 Y233.7
M3 S0
G0 X160.0 Y233.7
M3 S1000
G1 X160.0 Y233.7
M3 S1000
G1 X159.8 Y233.7
M3 S0
G0 X159.3 Y233.7
M3 S1000
G1 X159.3 Y233.7
M3 S1000
G1 X156.9 Y233.7
M3 S0
G0 X156.5 Y233.7
M3 S1000
G1 X156.5 Y233.7
M3 S1000
G1 X156.3 Y233.7
M3 S0
G0 X155.7 Y233.7
M3 S1000
G1 X155.7 Y233.7
M3 S1000
G1 X149.5 Y233.7
M3 S0
G0 X149.1 Y233.7
M3 S1000
G1 X149.1 Y233.7
M3 S1000
G1 X143.6 Y233.7
M3 S0
G0 X143.2 Y233.7
M3 S1000
G1 X143.2 Y233.7
M3 S1000
G1 X142.7 Y233.7
M3 S0
G0 X142.3 Y233.7
M3 S1000
G1 X142.3 Y233.7
M3 S1000
G1 X141.7 Y233.7
M3 S0
G0 X141.5 Y233.7
M3 S1000
G1 X141.5 Y233.7
M3 S1000
G1 X124.5 Y233.7
M3 S0
G0 X118.4 Y233.7
M3 S1000
G1 X118.4 Y233.7
M3 S1000
G1 X116.5 Y233.7
M3 S0
G0 X113.9 Y233.7
M3 S1000
G1 X113.9 Y233.7
M3 S1000
M5 S0
G0 X112.0 Y233.8
M3 S1000
G1 X114.0 Y233.8
M3 S0
G0 X116.6 Y233.8
M3 S1000
G1 X116.6 Y233.8
M3 S1000
G1 X118.5 Y233.8
M3 S0
G0 X124.6 Y233.8
M3 S1000
G1 X124.6 Y233.8
M3 S1000
G1 X141.6 Y233.8
M3 S0
G0 X141.8 Y233.8
M3 S1000
G1 X141.8 Y233.8
M3 S1000
G1 X142.4 Y233.8
M3 S0
G0 X142.8 Y233.8
M3 S1000
G1 X142.8 Y233.8
M3 S1000
G1 X143.3 Y233.8
M3 S0
G0 X143.7 Y233.8
M3 S1000
G1 X143.7 Y233.8
M3 S1000
G1 X149.2 Y233.8
M3 S0
G0 X149.6 Y233.8
M3 S1000
G1 X149.6 Y233.8
M3 S1000
G1 X155.8 Y233.8
M3 S0
G0 X156.4 Y233.8
M3 S1000
G1 X156.4 Y233.8
M3 S1000
G1 X156.6 Y233.8
M3 S0
G0 X157.0 Y233.8
M3 S1000
G1 X157.0 Y233.8
M3 S1000
G1 X159.4 Y233.8
M3 S0
G0 X159.9 Y233.8
M3 S1000
G1 X159.9 Y233.8
M3 S1000
G1 X160.1 Y233.8
M3 S0
G0 X183.2 Y233.8
M3 S1000
G1 X183.2 Y233.8
M3 S1000
G1 X184.2 Y233.8
M3 S0
G0 X192.8 Y233.8
M3 S1000
G1 X192.8 Y233.8
M3 S1000
G1 X193.0 Y233.8
M3 S0
G0 X193.1 Y233.8
M3 S1000
G1 X193.1 Y233.8
M3 S1000
G1 X193.3 Y233.8
M3 S0
G0 X194.1 Y233.8
M3 S1000
G1 X194.1 Y233.8
M3 S1000
G1 X194.3 Y233.8
M3 S0
G0 X194.7 Y233.8
M3 S1000
G1 X194.7 Y233.8
M3 S1000
G1 X194.9 Y233.8
M3 S0
G0 X201.4 Y233.8
M3 S1000
G1 X201.4 Y233.8
M3 S1000
M5 S0
G0 X211.9 Y233.9
M3 S1000
G1 X201.3 Y233.9
M3 S0
G0 X195.0 Y233.9
M3 S1000
G1 X195.0 Y233.9
M3 S1000
G1 X193.2 Y233.9
M3 S0
G0 X193.0 Y233.9
M3 S1000
G1 X193.0 Y233.9
M3 S1000
G1 X192.9 Y233.9
M3 S0
G0 X184.1 Y233.9
M3 S1000
G1 X184.1 Y233.9
M3 S1000
G1 X183.1 Y233.9
M3 S0
G0 X159.7 Y233.9
M3 S1000
G1 X159.7 Y233.9
M3 S1000
G1 X156.7 Y233.9
M3 S0
G0 X156.5 Y233.9
M3 S1000
G1 X156.5 Y233.9
M3 S1000
G1 X156.3 Y233.9
M3 S0
G0 X156.1 Y233.9
M3 S1000
G1 X156.1 Y233.9
M3 S1000
G1 X155.5 Y233.9
M3 S0
G0 X155.4 Y233.9
M3 S1000
G1 X155.4 Y233.9
M3 S1000
G1 X149.9 Y233.9
M3 S0
G0 X148.9 Y233.9
M3 S1000
G1 X148.9 Y233.9
M3 S1000
G1 X148.5 Y233.9
M3 S0
G0 X148.1 Y233.9
M3 S1000
G1 X148.1 Y233.9
M3 S1000
G1 X143.4 Y233.9
M3 S0
G0 X143.2 Y233.9
M3 S1000
G1 X143.2 Y233.9
M3 S1000
G1 X142.9 Y233.9
M3 S0
G0 X142.3 Y233.9
M3 S1000
G1 X142.3 Y233.9
M3 S1000
G1 X142.1 Y233.9
M3 S0
G0 X141.5 Y233.9
M3 S1000
G1 X141.5 Y233.9
M3 S1000
G1 X124.9 Y233.9
M3 S0
G0 X118.4 Y233.9
M3 S1000
G1 X118.4 Y233.9
M3 S1000
G1 X116.5 Y233.9
M3 S0
G0 X113.9 Y233.9
M3 S1000
G1 X113.9 Y233.9
M3 S1000
M5 S0
G0 X112.0 Y234.0
M3 S1000
G1 X114.0 Y234.0
M3 S0
G0 X116.6 Y234.0
M3 S1000
G1 X116.6 Y234.0
M3 S1000
G1 X118.5 Y234.0
M3 S0
G0 X125.0 Y234.0
M3 S1000
G1 X125.0 Y234.0
M3 S1000
G1 X141.6 Y234.0
M3 S0
G0 X142.2 Y234.0
M3 S1000
G1 X142.2 Y234.0
M3 S1000
G1 X142.4 Y234.0
M3 S0
G0 X143.0 Y234.0
M3 S1000
G1 X143.0 Y234.0
M3 S1000
G1 X143.3 Y234.0
M3 S0
G0 X143.5 Y234.0
M3 S1000
G1 X143.5 Y234.0
M3 S1000
G1 X148.2 Y234.0
M3 S0
G0 X148.6 Y234.0
M3 S1000
G1 X148.6 Y234.0
M3 S1000
G1 X149.0 Y234.0
M3 S0
G0 X150.0 Y234.0
M3 S1000
G1 X150.0 Y234.0
M3 S1000
G1 X155.5 Y234.0
M3 S0
G0 X155.6 Y234.0
M3 S1000
G1 X155.6 Y234.0
M3 S1000
G1 X156.2 Y234.0
M3 S0
G0 X156.4 Y234.0
M3 S1000
G1 X156.4 Y234.0
M3 S1000
G1 X156.6 Y234.0
M3 S0
G0 X156.8 Y234.0
M3 S1000
G1 X156.8 Y234.0
M3 S1000
G1 X159.8 Y234.0
M3 S0
G0 X183.2 Y234.0
M3 S1000
G1 X183.2 Y234.0
M3 S1000
G1 X184.2 Y234.0
M3 S0
G0 X193.0 Y234.0
M3 S1000
G1 X193.0 Y234.0
M3 S1000
G1 X193.1 Y234.0
M3 S0
G0 X193.3 Y234.0
M3 S1000
G1 X193.3 Y234.0
M3 S1000
G1 X195.1 Y234.0
M3 S0
G0 X201.4 Y234.0
M3 S1000
G1 X201.4 Y234.0
M3 S1000
M5 S0
G0 X211.9 Y234.1
M3 S1000
G1 X201.4 Y234.1
M3 S0
G0 X194.8 Y234.1
M3 S1000
G1 X194.8 Y234.1
M3 S1000
G1 X194.6 Y234.1
M3 S0
G0 X194.2 Y234.1
M3 S1000
G1 X194.2 Y234.1
M3 S1000
G1 X193.4 Y234.1
M3 S0
G0 X193.2 Y234.1
M3 S1000
G1 X193.2 Y234.1
M3 S1000
G1 X193.0 Y234.1
M3 S0
G0 X184.1 Y234.1
M3 S1000
G1 X184.1 Y234.1
M3 S1000
G1 X182.9 Y234.1
M3 S0
G0 X160.0 Y234.1
M3 S1000
G1 X160.0 Y234.1
M3 S1000
G1 X159.8 Y234.1
M3 S0
G0 X159.7 Y234.1
M3 S1000
G1 X159.7 Y234.1
M3 S1000
G1 X156.7 Y234.1
M3 S0
G0 X156.1 Y234.1
M3 S1000
G1 X156.1 Y234.1
M3 S1000
G1 X155.5 Y234.1
M3 S0
G0 X155.4 Y234.1
M3 S1000
G1 X155.4 Y234.1
M3 S1000
G1 X148.3 Y234.1
M3 S0
G0 X147.3 Y234.1
M3 S1000
G1 X147.3 Y234.1
M3 S1000
G1 X147.2 Y234.1
M3 S0
G0 X147.0 Y234.1
M3 S1000
G1 X147.0 Y234.1
M3 S1000
G1 X143.4 Y234.1
M3 S0
G0 X143.2 Y234.1
M3 S1000
G1 X143.2 Y234.1
M3 S1000
G1 X143.0 Y234.1
M3 S0
G0 X142.7 Y234.1
M3 S1000
G1 X142.7 Y234.1
M3 S1000
G1 X142.5 Y234.1
M3 S0
G0 X142.3 Y234.1
M3 S1000
G1 X142.3 Y234.1
M3 S1000
G1 X142.1 Y234.1
M3 S0
G0 X141.3 Y234.1
M3 S1000
G1 X141.3 Y234.1
M3 S1000
G1 X124.9 Y234.1
M3 S0
G0 X118.4 Y234.1
M3 S1000
G1 X118.4 Y234.1
M3 S1000
G1 X116.5 Y234.1
M3 S0
G0 X113.9 Y234.1
M3 S1000
G1 X113.9 Y234.1
M3 S1000
M5 S0
G0 X112.0 Y234.2
M3 S1000
G1 X114.0 Y234.2
M3 S0
G0 X116.6 Y234.2
M3 S1000
G1 X116.6 Y234.2
M3 S1000
G1 X118.5 Y234.2
M3 S0
G0 X125.0 Y234.2
M3 S1000
G1 X125.0 Y234.2
M3 S1000
G1 X141.4 Y234.2
M3 S0
G0 X142.2 Y234.2
M3 S1000
G1 X142.2 Y234.2
M3 S1000
G1 X142.4 Y234.2
M3 S0
G0 X142.6 Y234.2
M3 S1000
G1 X142.6 Y234.2
M3 S1000
G1 X142.8 Y234.2
M3 S0
G0 X143.1 Y234.2
M3 S1000
G1 X143.1 Y234.2
M3 S1000
G1 X143.3 Y234.2
M3 S0
G0 X143.5 Y234.2
M3 S1000
G1 X143.5 Y234.2
M3 S1000
G1 X147.1 Y234.2
M3 S0
G0 X147.3 Y234.2
M3 S1000
G1 X147.3 Y234.2
M3 S1000
G1 X147.4 Y234.2
M3 S0
G0 X148.4 Y234.2
M3 S1000
G1 X148.4 Y234.2
M3 S1000
G1 X155.5 Y234.2
M3 S0
G0 X155.6 Y234.2
M3 S1000
G1 X155.6 Y234.2
M3 S1000
G1 X156.2 Y234.2
M3 S0
G0 X156.8 Y234.2
M3 S1000
G1 X156.8 Y234.2
M3 S1000
G1 X159.8 Y234.2
M3 S0
G0 X159.9 Y234.2
M3 S1000
G1 X159.9 Y234.2
M3 S1000
G1 X160.1 Y234.2
M3 S0
G0 X183.0 Y234.2
M3 S1000
G1 X183.0 Y234.2
M3 S1000
G1 X184.2 Y234.2
M3 S0
G0 X193.1 Y234.2
M3 S1000
G1 X193.1 Y234.2
M3 S1000
G1 X193.3 Y234.2
M3 S0
G0 X193.5 Y234.2
M3 S1000
G1 X193.5 Y234.2
M3 S1000
G1 X194.3 Y234.2
M3 S0
G0 X194.7 Y234.2
M3 S1000
G1 X194.7 Y234.2
M3 S1000
G1 X194.9 Y234.2
M3 S0
G0 X201.5 Y234.2
M3 S1000
G1 X201.5 Y234.2
M3 S1000
M5 S0
G0 X211.9 Y234.3
M3 S1000
G1 X201.4 Y234.3
M3 S0
G0 X194.8 Y234.3
M3 S1000
G1 X194.8 Y234.3
M3 S1000
G1 X193.4 Y234.3
M3 S0
G0 X184.3 Y234.3
M3 S1000
G1 X184.3 Y234.3
M3 S1000
G1 X182.9 Y234.3
M3 S0
G0 X160.2 Y234.3
M3 S1000
G1 X160.2 Y234.3
M3 S1000
G1 X156.9 Y234.3
M3 S0
G0 X156.7 Y234.3
M3 S1000
G1 X156.7 Y234.3
M3 S1000
G1 X147.5 Y234.3
M3 S0
G0 X145.8 Y234.3
M3 S1000
G1 X145.8 Y234.3
M3 S1000
G1 X143.4 Y234.3
M3 S0
G0 X143.2 Y234.3
M3 S1000
G1 X143.2 Y234.3
M3 S1000
G1 X143.0 Y234.3
M3 S0
G0 X142.7 Y234.3
M3 S1000
G1 X142.7 Y234.3
M3 S1000
G1 X142.1 Y234.3
M3 S0
G0 X141.3 Y234.3
M3 S1000
G1 X141.3 Y234.3
M3 S1000
G1 X124.9 Y234.3
M3 S0
G0 X124.7 Y234.3
M3 S1000
G1 X124.7 Y234.3
M3 S1000
G1 X124.5 Y234.3
M3 S0
G0 X118.4 Y234.3
M3 S1000
G1 X118.4 Y234.3
M3 S1000
G1 X116.5 Y234.3
M3 S0
G0 X113.9 Y234.3
M3 S1000
G1 X113.9 Y234.3
M3 S1000
M5 S0
G0 X112.0 Y234.4
M3 S1000
G1 X114.0 Y234.4
M3 S0
G0 X116.6 Y234.4
M3 S1000
G1 X116.6 Y234.4
M3 S1000
G1 X118.5 Y234.4
M3 S0
G0 X124.6 Y234.4
M3 S1000
G1 X124.6 Y234.4
M3 S1000
G1 X124.8 Y234.4
M3 S0
G0 X125.0 Y234.4
M3 S1000
G1 X125.0 Y234.4
M3 S1000
G1 X141.4 Y234.4
M3 S0
G0 X142.2 Y234.4
M3 S1000
G1 X142.2 Y234.4
M3 S1000
G1 X142.8 Y234.4
M3 S0
G0 X143.1 Y234.4
M3 S1000
G1 X143.1 Y234.4
M3 S1000
G1 X143.3 Y234.4
M3 S0
G0 X143.5 Y234.4
M3 S1000
G1 X143.5 Y234.4
M3 S1000
G1 X145.9 Y234.4
M3 S0
G0 X147.6 Y234.4
M3 S1000
G1 X147.6 Y234.4
M3 S1000
G1 X156.8 Y234.4
M3 S0
G0 X157.0 Y234.4
M3 S1000
G1 X157.0 Y234.4
M3 S1000
G1 X160.3 Y234.4
M3 S0
G0 X183.0 Y234.4
M3 S1000
G1 X183.0 Y234.4
M3 S1000
G1 X184.4 Y234.4
M3 S0
G0 X193.5 Y234.4
M3 S1000
G1 X193.5 Y234.4
M3 S1000
G1 X194.9 Y234.4
M3 S0
G0 X201.5 Y234.4
M3 S1000
G1 X201.5 Y234.4
M3 S1000
M5 S0
G0 X211.9 Y234.5
M3 S1000
G1 X201.4 Y234.5
M3 S0
G0 X195.0 Y234.5
M3 S1000
G1 X195.0 Y234.5
M3 S1000
G1 X193.6 Y234.5
M3 S0
G0 X193.0 Y234.5
M3 S1000
G1 X193.0 Y234.5
M3 S1000
G1 X192.9 Y234.5
M3 S0
G0 X184.1 Y234.5
M3 S1000
G1 X184.1 Y234.5
M3 S1000
G1 X182.9 Y234.5
M3 S0
G0 X159.8 Y234.5
M3 S1000
G1 X159.8 Y234.5
M3 S1000
G1 X156.3 Y234.5
M3 S0
G0 X156.1 Y234.5
M3 S1000
G1 X156.1 Y234.5
M3 S1000
G1 X155.9 Y234.5
M3 S0
G0 X155.7 Y234.5
M3 S1000
G1 X155.7 Y234.5
M3 S1000
G1 X147.3 Y234.5
M3 S0
G0 X147.2 Y234.5
M3 S1000
G1 X147.2 Y234.5
M3 S1000
G1 X146.8 Y234.5
M3 S0
G0 X145.6 Y234.5
M3 S1000
G1 X145.6 Y234.5
M3 S1000
G1 X145.4 Y234.5
M3 S0
G0 X144.8 Y234.5
M3 S1000
G1 X144.8 Y234.5
M3 S1000
G1 X143.0 Y234.5
M3 S0
G0 X142.7 Y234.5
M3 S1000
G1 X142.7 Y234.5
M3 S1000
G1 X142.5 Y234.5
M3 S0
G0 X141.5 Y234.5
M3 S1000
G1 X141.5 Y234.5
M3 S1000
G1 X124.5 Y234.5
M3 S0
G0 X118.4 Y234.5
M3 S1000
G1 X118.4 Y234.5
M3 S1000
G1 X116.3 Y234.5
M3 S0
G0 X113.8 Y234.5
M3 S1000
G1 X113.8 Y234.5
M3 S1000
M5 S0
G0 X112.0 Y234.6
M3 S1000
G1 X113.9 Y234.6
M3 S0
G0 X116.4 Y234.6
M3 S1000
G1 X116.4 Y234.6
M3 S1000
G1 X118.5 Y234.6
M3 S0
G0 X124.6 Y234.6
M3 S1000
G1 X124.6 Y234.6
M3 S1000
G1 X141.6 Y234.6
M3 S0
G0 X142.6 Y234.6
M3 S1000
G1 X142.6 Y234.6
M3 S1000
G1 X142.8 Y234.6
M3 S0
G0 X143.1 Y234.6
M3 S1000
G1 X143.1 Y234.6
M3 S1000
G1 X144.9 Y234.6
M3 S0
G0 X145.5 Y234.6
M3 S1000
G1 X145.5 Y234.6
M3 S1000
G1 X145.7 Y234.6
M3 S0
G0 X146.9 Y234.6
M3 S1000
