( imgcode generated code )
( developed by M. "Vidmo" Widomski )
(  github.com/vidmo91 )
(  hackaday.io/vidmo91 )
 
M4 S0 
F100
G0 Z0 ( for some grbl senders compatibility )
 
G0 X0.0 Y0.0
S255
G1 X3.0 Y0.0
S0
G0 X6.0 Y0.0
S255
G1 X6.0 Y0.0
S255
G1 X6.8 Y0.0
S0
G0 X11.7 Y0.0
S255
G1 X11.7 Y0.0
S255
G1 X20.7 Y0.0
S0
G0 X21.0 Y0.0
S255
G1 X21.0 Y0.0
S255
G1 X25.6 Y0.0
S0
G0 X25.9 Y0.0
S255
G1 X25.9 Y0.0
S255
G1 X27.0 Y0.0
S0
G0 X27.2 Y0.0
S255
G1 X27.2 Y0.0
S255
G1 X41.3 Y0.0
S0
G0 X42.1 Y0.0
S255
G1 X42.1 Y0.0
S255
G1 X42.5 Y0.0
S0
G0 X42.6 Y0.0
S255
G1 X42.6 Y0.0
S255
G1 X43.1 Y0.0
S0
G0 X43.4 Y0.0
S255
G1 X43.4 Y0.0
S255
G1 X43.8 Y0.0
S0
G0 X44.2 Y0.0
S255
G1 X44.2 Y0.0
S255
G1 X44.4 Y0.0
S0
G0 X74.7 Y0.0
S255
G1 X74.7 Y0.0
S255
G1 X79.5 Y0.0
S0
G0 X80.8 Y0.0
S255
G1 X80.8 Y0.0
S255
G1 X81.0 Y0.0
S0
G0 X81.1 Y0.0
S255
G1 X81.1 Y0.0
S255
G1 X82.6 Y0.0
S0
G0 X84.3 Y0.0
S255
G1 X84.3 Y0.0
S255
G1 X92.1 Y0.0
S0
G0 X92.2 Y0.0
S255
G1 X92.2 Y0.0
S255
G1 X92.5 Y0.0
S0
G0 X93.0 Y0.0
S255
G1 X93.0 Y0.0
S255
G1 X99.9 Y0.0
S0
G0 X99.9 Y0.1
S255
G1 X93.0 Y0.1
S0
G0 X92.5 Y0.1
S255
G1 X92.5 Y0.1
S255
G1 X92.2 Y0.1
S0
G0 X92.1 Y0.1
S255
G1 X92.1 Y0.1
S255
G1 X84.3 Y0.1
S0
G0 X82.6 Y0.1
S255
G1 X82.6 Y0.1
S255
G1 X81.1 Y0.1
S0
G0 X81.0 Y0.1
S255
G1 X81.0 Y0.1
S255
G1 X80.8 Y0.1
S0
G0 X79.5 Y0.1
S255
G1 X79.5 Y0.1
S255
G1 X74.7 Y0.1
S0
G0 X44.4 Y0.1
S255
G1 X44.4 Y0.1
S255
G1 X44.2 Y0.1
S0
G0 X43.8 Y0.1
S255
G1 X43.8 Y0.1
S255
G1 X43.4 Y0.1
S0
G0 X43.1 Y0.1
S255
G1 X43.1 Y0.1
S255
G1 X42.6 Y0.1
S0
G0 X42.5 Y0.1
S255
G1 X42.5 Y0.1
S255
G1 X42.1 Y0.1
S0
G0 X41.3 Y0.1
S255
G1 X41.3 Y0.1
S255
G1 X27.2 Y0.1
S0
G0 X27.0 Y0.1
S255
G1 X27.0 Y0.1
S255
G1 X25.9 Y0.1
S0
G0 X25.6 Y0.1
S255
G1 X25.6 Y0.1
S255
G1 X21.0 Y0.1
S0
G0 X20.7 Y0.1
S255
G1 X20.7 Y0.1
S255
G1 X11.7 Y0.1
S0
G0 X6.8 Y0.1
S255
G1 X6.8 Y0.1
S255
G1 X6.0 Y0.1
S0
G0 X3.0 Y0.1
S255
G1 X3.0 Y0.1
S255
G1 X0.0 Y0.1
S0
G0 X0.0 Y0.2
S255
G1 X3.0 Y0.2
S0
G0 X6.0 Y0.2
S255
G1 X6.0 Y0.2
S255
G1 X6.8 Y0.2
S0
G0 X11.7 Y0.2
S255
G1 X11.7 Y0.2
S255
G1 X20.7 Y0.2
S0
G0 X21.0 Y0.2
S255
G1 X21.0 Y0.2
S255
G1 X25.6 Y0.2
S0
G0 X25.9 Y0.2
S255
G1 X25.9 Y0.2
S255
G1 X27.0 Y0.2
S0
G0 X27.2 Y0.2
S255
G1 X27.2 Y0.2
S255
G1 X41.3 Y0.2
S0
G0 X42.1 Y0.2
S255
G1 X42.1 Y0.2
S255
G1 X42.5 Y0.2
S0
G0 X42.6 Y0.2
S255
G1 X42.6 Y0.2
S255
G1 X43.1 Y0.2
S0
G0 X43.4 Y0.2
S255
G1 X43.4 Y0.2
S255
G1 X43.8 Y0.2
S0
G0 X44.2 Y0.2
S255
G1 X44.2 Y0.2
S255
G1 X44.4 Y0.2
S0
G0 X74.7 Y0.2
S255
G1 X74.7 Y0.2
S255
G1 X79.5 Y0.2
S0
G0 X80.8 Y0.2
S255
G1 X80.8 Y0.2
S255
G1 X81.0 Y0.2
S0
G0 X81.1 Y0.2
S255
G1 X81.1 Y0.2
S255
G1 X82.6 Y0.2
S0
G0 X84.3 Y0.2
S255
G1 X84.3 Y0.2
S255
G1 X92.0 Y0.2
S0
G0 X92.2 Y0.2
S255
G1 X92.2 Y0.2
S255
G1 X92.5 Y0.2
S0
G0 X93.0 Y0.2
S255
G1 X93.0 Y0.2
S255
G1 X99.9 Y0.2
S0
G0 X99.9 Y0.3
S255
G1 X93.0 Y0.3
S0
G0 X92.5 Y0.3
S255
G1 X92.5 Y0.3
S255
G1 X84.2 Y0.3
S0
G0 X82.6 Y0.3
S255
G1 X82.6 Y0.3
S255
G1 X80.7 Y0.3
S0
G0 X79.6 Y0.3
S255
G1 X79.6 Y0.3
S255
G1 X74.7 Y0.3
S0
G0 X44.4 Y0.3
S255
G1 X44.4 Y0.3
S255
G1 X44.2 Y0.3
S0
G0 X43.8 Y0.3
S255
G1 X43.8 Y0.3
S255
G1 X43.4 Y0.3
S0
G0 X43.1 Y0.3
S255
G1 X43.1 Y0.3
S255
G1 X42.6 Y0.3
S0
G0 X42.5 Y0.3
S255
G1 X42.5 Y0.3
S255
G1 X42.0 Y0.3
S0
G0 X41.3 Y0.3
S255
G1 X41.3 Y0.3
S255
G1 X27.2 Y0.3
S0
G0 X27.0 Y0.3
S255
G1 X27.0 Y0.3
S255
G1 X25.9 Y0.3
S0
G0 X25.6 Y0.3
S255
G1 X25.6 Y0.3
S255
G1 X21.0 Y0.3
S0
G0 X20.7 Y0.3
S255
G1 X20.7 Y0.3
S255
G1 X11.7 Y0.3
S0
G0 X6.8 Y0.3
S255
G1 X6.8 Y0.3
S255
G1 X6.0 Y0.3
S0
G0 X3.0 Y0.3
S255
G1 X3.0 Y0.3
S255
G1 X0.0 Y0.3
S0
G0 X0.0 Y0.4
S255
G1 X3.0 Y0.4
S0
G0 X6.0 Y0.4
S255
G1 X6.0 Y0.4
S255
G1 X6.8 Y0.4
S0
G0 X11.7 Y0.4
S255
G1 X11.7 Y0.4
S255
G1 X20.8 Y0.4
S0
G0 X21.0 Y0.4
S255
G1 X21.0 Y0.4
S255
G1 X25.5 Y0.4
S0
G0 X25.7 Y0.4
S255
G1 X25.7 Y0.4
S255
G1 X27.0 Y0.4
S0
G0 X27.2 Y0.4
S255
G1 X27.2 Y0.4
S255
G1 X40.9 Y0.4
S0
G0 X41.1 Y0.4
S255
G1 X41.1 Y0.4
S255
G1 X42.3 Y0.4
S0
G0 X42.7 Y0.4
S255
G1 X42.7 Y0.4
S255
G1 X43.1 Y0.4
S0
G0 X43.5 Y0.4
S255
G1 X43.5 Y0.4
S255
G1 X43.8 Y0.4
S0
G0 X44.2 Y0.4
S255
G1 X44.2 Y0.4
S255
G1 X44.5 Y0.4
S0
G0 X74.7 Y0.4
S255
G1 X74.7 Y0.4
S255
G1 X79.7 Y0.4
S0
G0 X80.7 Y0.4
S255
G1 X80.7 Y0.4
S255
G1 X82.6 Y0.4
S0
G0 X84.2 Y0.4
S255
G1 X84.2 Y0.4
S255
G1 X92.4 Y0.4
S0
G0 X93.0 Y0.4
S255
G1 X93.0 Y0.4
S255
G1 X99.9 Y0.4
S0
G0 X99.9 Y0.5
S255
G1 X93.4 Y0.5
S0
G0 X93.3 Y0.5
S255
G1 X93.3 Y0.5
S255
G1 X93.0 Y0.5
S0
G0 X92.4 Y0.5
S255
G1 X92.4 Y0.5
S255
G1 X84.2 Y0.5
S0
G0 X82.7 Y0.5
S255
G1 X82.7 Y0.5
S255
G1 X80.6 Y0.5
S0
G0 X79.7 Y0.5
S255
G1 X79.7 Y0.5
S255
G1 X74.6 Y0.5
S0
G0 X44.4 Y0.5
S255
G1 X44.4 Y0.5
S255
G1 X44.3 Y0.5
S0
G0 X43.8 Y0.5
S255
G1 X43.8 Y0.5
S255
G1 X43.4 Y0.5
S0
G0 X42.9 Y0.5
S255
G1 X42.9 Y0.5
S255
G1 X42.6 Y0.5
S0
G0 X42.3 Y0.5
S255
G1 X42.3 Y0.5
S255
G1 X27.2 Y0.5
S0
G0 X27.0 Y0.5
S255
G1 X27.0 Y0.5
S255
G1 X25.7 Y0.5
S0
G0 X25.5 Y0.5
S255
G1 X25.5 Y0.5
S255
G1 X21.1 Y0.5
S0
G0 X20.8 Y0.5
S255
G1 X20.8 Y0.5
S255
G1 X11.7 Y0.5
S0
G0 X6.8 Y0.5
S255
G1 X6.8 Y0.5
S255
G1 X6.1 Y0.5
S0
G0 X3.0 Y0.5
S255
G1 X3.0 Y0.5
S255
G1 X0.0 Y0.5
S0
G0 X0.0 Y0.6
S255
G1 X3.0 Y0.6
S0
G0 X6.1 Y0.6
S255
G1 X6.1 Y0.6
S255
G1 X6.9 Y0.6
S0
G0 X11.7 Y0.6
S255
G1 X11.7 Y0.6
S255
G1 X20.8 Y0.6
S0
G0 X21.1 Y0.6
S255
G1 X21.1 Y0.6
S255
G1 X25.5 Y0.6
S0
G0 X25.7 Y0.6
S255
G1 X25.7 Y0.6
S255
G1 X26.9 Y0.6
S0
G0 X27.1 Y0.6
S255
G1 X27.1 Y0.6
S255
G1 X32.8 Y0.6
S0
G0 X33.2 Y0.6
S255
G1 X33.2 Y0.6
S255
G1 X40.6 Y0.6
S0
G0 X40.7 Y0.6
S255
G1 X40.7 Y0.6
S255
G1 X42.3 Y0.6
S0
G0 X42.4 Y0.6
S255
G1 X42.4 Y0.6
S255
G1 X42.8 Y0.6
S0
G0 X43.1 Y0.6
S255
G1 X43.1 Y0.6
S255
G1 X43.5 Y0.6
S0
G0 X43.7 Y0.6
S255
G1 X43.7 Y0.6
S255
G1 X43.8 Y0.6
S0
G0 X44.9 Y0.6
S255
G1 X44.9 Y0.6
S255
G1 X45.0 Y0.6
S0
G0 X74.6 Y0.6
S255
G1 X74.6 Y0.6
S255
G1 X79.7 Y0.6
S0
G0 X80.4 Y0.6
S255
G1 X80.4 Y0.6
S255
G1 X82.8 Y0.6
S0
G0 X84.3 Y0.6
S255
G1 X84.3 Y0.6
S255
G1 X92.4 Y0.6
S0
G0 X93.2 Y0.6
S255
G1 X93.2 Y0.6
S255
G1 X99.9 Y0.6
S0
G0 X99.9 Y0.7
S255
G1 X93.1 Y0.7
S0
G0 X92.4 Y0.7
S255
G1 X92.4 Y0.7
S255
G1 X84.3 Y0.7
S0
G0 X83.1 Y0.7
S255
G1 X83.1 Y0.7
S255
G1 X80.4 Y0.7
S0
G0 X80.0 Y0.7
S255
G1 X80.0 Y0.7
S255
G1 X74.6 Y0.7
S0
G0 X44.6 Y0.7
S255
G1 X44.6 Y0.7
S255
G1 X44.5 Y0.7
S0
G0 X42.8 Y0.7
S255
G1 X42.8 Y0.7
S255
G1 X41.5 Y0.7
S0
G0 X41.3 Y0.7
S255
G1 X41.3 Y0.7
S255
G1 X40.8 Y0.7
S0
G0 X40.7 Y0.7
S255
G1 X40.7 Y0.7
S255
G1 X33.2 Y0.7
S0
G0 X32.7 Y0.7
S255
G1 X32.7 Y0.7
S255
G1 X27.0 Y0.7
S0
G0 X26.9 Y0.7
S255
G1 X26.9 Y0.7
S255
G1 X25.6 Y0.7
S0
G0 X25.3 Y0.7
S255
G1 X25.3 Y0.7
S255
G1 X21.1 Y0.7
S0
G0 X20.8 Y0.7
S255
G1 X20.8 Y0.7
S255
G1 X11.6 Y0.7
S0
G0 X6.9 Y0.7
S255
G1 X6.9 Y0.7
S255
G1 X6.1 Y0.7
S0
G0 X3.0 Y0.7
S255
G1 X3.0 Y0.7
S255
G1 X0.0 Y0.7
S0
G0 X0.0 Y0.8
S255
G1 X3.0 Y0.8
S0
G0 X6.1 Y0.8
S255
G1 X6.1 Y0.8
S255
G1 X6.9 Y0.8
S0
G0 X11.7 Y0.8
S255
G1 X11.7 Y0.8
S255
G1 X20.9 Y0.8
S0
G0 X21.1 Y0.8
S255
G1 X21.1 Y0.8
S255
G1 X25.1 Y0.8
S0
G0 X25.5 Y0.8
S255
G1 X25.5 Y0.8
S255
G1 X26.9 Y0.8
S0
G0 X27.0 Y0.8
S255
G1 X27.0 Y0.8
S255
G1 X32.6 Y0.8
S0
G0 X33.0 Y0.8
S255
G1 X33.0 Y0.8
S255
G1 X40.7 Y0.8
S0
G0 X40.9 Y0.8
S255
G1 X40.9 Y0.8
S255
G1 X41.4 Y0.8
S0
G0 X41.7 Y0.8
S255
G1 X41.7 Y0.8
S255
G1 X42.9 Y0.8
S0
G0 X44.5 Y0.8
S255
G1 X44.5 Y0.8
S255
G1 X44.7 Y0.8
S0
G0 X74.5 Y0.8
S255
G1 X74.5 Y0.8
S255
G1 X80.0 Y0.8
S0
G0 X80.3 Y0.8
S255
G1 X80.3 Y0.8
S255
G1 X83.4 Y0.8
S0
G0 X84.3 Y0.8
S255
G1 X84.3 Y0.8
S255
G1 X92.4 Y0.8
S0
G0 X93.1 Y0.8
S255
G1 X93.1 Y0.8
S255
G1 X99.9 Y0.8
S0
G0 X99.9 Y0.9
S255
G1 X93.1 Y0.9
S0
G0 X92.5 Y0.9
S255
G1 X92.5 Y0.9
S255
G1 X84.6 Y0.9
S0
G0 X84.5 Y0.9
S255
G1 X84.5 Y0.9
S255
G1 X84.3 Y0.9
S0
G0 X83.6 Y0.9
S255
G1 X83.6 Y0.9
S255
G1 X80.5 Y0.9
S0
G0 X80.4 Y0.9
S255
G1 X80.4 Y0.9
S255
G1 X74.5 Y0.9
S0
G0 X44.6 Y0.9
S255
G1 X44.6 Y0.9
S255
G1 X44.5 Y0.9
S0
G0 X42.9 Y0.9
S255
G1 X42.9 Y0.9
S255
G1 X41.7 Y0.9
S0
G0 X41.4 Y0.9
S255
G1 X41.4 Y0.9
S255
G1 X32.8 Y0.9
S0
G0 X32.6 Y0.9
S255
G1 X32.6 Y0.9
S255
G1 X27.4 Y0.9
S0
G0 X27.3 Y0.9
S255
G1 X27.3 Y0.9
S255
G1 X27.0 Y0.9
S0
G0 X26.9 Y0.9
S255
G1 X26.9 Y0.9
S255
G1 X25.5 Y0.9
S0
G0 X25.0 Y0.9
S255
G1 X25.0 Y0.9
S255
G1 X21.1 Y0.9
S0
G0 X20.9 Y0.9
S255
G1 X20.9 Y0.9
S255
G1 X11.7 Y0.9
S0
G0 X6.9 Y0.9
S255
G1 X6.9 Y0.9
S255
G1 X6.1 Y0.9
S0
G0 X3.0 Y0.9
S255
G1 X3.0 Y0.9
S255
G1 X0.0 Y0.9
S0
G0 X0.0 Y1.0
S255
G1 X2.9 Y1.0
S0
G0 X6.1 Y1.0
S255
G1 X6.1 Y1.0
S255
G1 X6.9 Y1.0
S0
G0 X11.7 Y1.0
S255
G1 X11.7 Y1.0
S255
G1 X21.0 Y1.0
S0
G0 X21.2 Y1.0
S255
G1 X21.2 Y1.0
S255
G1 X25.0 Y1.0
S0
G0 X25.4 Y1.0
S255
G1 X25.4 Y1.0
S255
G1 X27.3 Y1.0
S0
G0 X27.4 Y1.0
S255
G1 X27.4 Y1.0
S255
G1 X32.5 Y1.0
S0
G0 X32.8 Y1.0
S255
G1 X32.8 Y1.0
S255
G1 X41.4 Y1.0
S0
G0 X41.8 Y1.0
S255
G1 X41.8 Y1.0
S255
G1 X41.9 Y1.0
S0
G0 X42.1 Y1.0
S255
G1 X42.1 Y1.0
S255
G1 X42.8 Y1.0
S0
G0 X43.0 Y1.0
S255
G1 X43.0 Y1.0
S255
G1 X43.3 Y1.0
S0
G0 X43.5 Y1.0
S255
G1 X43.5 Y1.0
S255
G1 X43.8 Y1.0
S0
G0 X46.3 Y1.0
S255
G1 X46.3 Y1.0
S255
G1 X46.6 Y1.0
S0
G0 X74.5 Y1.0
S255
G1 X74.5 Y1.0
S255
G1 X80.4 Y1.0
S0
G0 X80.6 Y1.0
S255
G1 X80.6 Y1.0
S255
G1 X83.7 Y1.0
S0
G0 X83.9 Y1.0
S255
G1 X83.9 Y1.0
S255
G1 X84.1 Y1.0
S0
G0 X84.3 Y1.0
S255
G1 X84.3 Y1.0
S255
G1 X84.4 Y1.0
S0
G0 X84.7 Y1.0
S255
G1 X84.7 Y1.0
S255
G1 X92.5 Y1.0
S0
G0 X92.9 Y1.0
S255
G1 X92.9 Y1.0
S255
G1 X93.1 Y1.0
S0
G0 X93.4 Y1.0
S255
G1 X93.4 Y1.0
S255
G1 X99.9 Y1.0
S0
G0 X99.9 Y1.1
S255
G1 X93.3 Y1.1
S0
G0 X93.0 Y1.1
S255
G1 X93.0 Y1.1
S255
G1 X92.9 Y1.1
S0
G0 X92.6 Y1.1
S255
G1 X92.6 Y1.1
S255
G1 X84.7 Y1.1
S0
G0 X84.4 Y1.1
S255
G1 X84.4 Y1.1
S255
G1 X84.2 Y1.1
S0
G0 X84.1 Y1.1
S255
G1 X84.1 Y1.1
S255
G1 X74.5 Y1.1
S0
G0 X46.6 Y1.1
S255
G1 X46.6 Y1.1
S255
G1 X46.4 Y1.1
S0
G0 X43.8 Y1.1
S255
G1 X43.8 Y1.1
S255
G1 X42.9 Y1.1
S0
G0 X42.7 Y1.1
S255
G1 X42.7 Y1.1
S255
G1 X42.0 Y1.1
S0
G0 X41.4 Y1.1
S255
G1 X41.4 Y1.1
S255
G1 X32.7 Y1.1
S0
G0 X32.5 Y1.1
S255
G1 X32.5 Y1.1
S255
G1 X25.4 Y1.1
S0
G0 X25.0 Y1.1
S255
G1 X25.0 Y1.1
S255
G1 X21.2 Y1.1
S0
G0 X21.0 Y1.1
S255
G1 X21.0 Y1.1
S255
G1 X12.1 Y1.1
S0
G0 X12.0 Y1.1
S255
G1 X12.0 Y1.1
S255
G1 X11.9 Y1.1
S0
G0 X6.9 Y1.1
S255
G1 X6.9 Y1.1
S255
G1 X6.1 Y1.1
S0
G0 X2.9 Y1.1
S255
G1 X2.9 Y1.1
S255
G1 X0.0 Y1.1
S0
G0 X0.0 Y1.2
S255
G1 X2.9 Y1.2
S0
G0 X6.0 Y1.2
S255
G1 X6.0 Y1.2
S255
G1 X6.9 Y1.2
S0
G0 X12.2 Y1.2
S255
G1 X12.2 Y1.2
S255
G1 X21.0 Y1.2
S0
G0 X21.2 Y1.2
S255
G1 X21.2 Y1.2
S255
G1 X24.9 Y1.2
S0
G0 X25.3 Y1.2
S255
G1 X25.3 Y1.2
S255
G1 X32.4 Y1.2
S0
G0 X32.5 Y1.2
S255
G1 X32.5 Y1.2
S255
G1 X41.4 Y1.2
S0
G0 X41.9 Y1.2
S255
G1 X41.9 Y1.2
S255
G1 X42.7 Y1.2
S0
G0 X42.9 Y1.2
S255
G1 X42.9 Y1.2
S255
G1 X43.7 Y1.2
S0
G0 X45.0 Y1.2
S255
G1 X45.0 Y1.2
S255
G1 X45.1 Y1.2
S0
G0 X74.5 Y1.2
S255
G1 X74.5 Y1.2
S255
G1 X84.4 Y1.2
S0
G0 X84.6 Y1.2
S255
G1 X84.6 Y1.2
S255
G1 X92.9 Y1.2
S0
G0 X93.1 Y1.2
S255
G1 X93.1 Y1.2
S255
G1 X99.9 Y1.2
S0
G0 X99.9 Y1.3
S255
G1 X84.6 Y1.3
S0
G0 X84.5 Y1.3
S255
G1 X84.5 Y1.3
S255
G1 X74.4 Y1.3
S0
G0 X43.8 Y1.3
S255
G1 X43.8 Y1.3
S255
G1 X41.8 Y1.3
S0
G0 X41.3 Y1.3
S255
G1 X41.3 Y1.3
S255
G1 X25.3 Y1.3
S0
G0 X24.9 Y1.3
S255
G1 X24.9 Y1.3
S255
G1 X21.2 Y1.3
S0
G0 X21.0 Y1.3
S255
G1 X21.0 Y1.3
S255
G1 X12.2 Y1.3
S0
G0 X6.9 Y1.3
S255
G1 X6.9 Y1.3
S255
G1 X6.0 Y1.3
S0
G0 X2.9 Y1.3
S255
G1 X2.9 Y1.3
S255
G1 X0.0 Y1.3
S0
G0 X0.0 Y1.4
S255
G1 X2.9 Y1.4
S0
G0 X6.0 Y1.4
S255
G1 X6.0 Y1.4
S255
G1 X6.8 Y1.4
S0
G0 X11.9 Y1.4
S255
G1 X11.9 Y1.4
S255
G1 X12.0 Y1.4
S0
G0 X12.2 Y1.4
S255
G1 X12.2 Y1.4
S255
G1 X21.0 Y1.4
S0
G0 X21.3 Y1.4
S255
G1 X21.3 Y1.4
S255
G1 X24.8 Y1.4
S0
G0 X25.2 Y1.4
S255
G1 X25.2 Y1.4
S255
G1 X41.3 Y1.4
S0
G0 X41.8 Y1.4
S255
G1 X41.8 Y1.4
S255
G1 X43.8 Y1.4
S0
G0 X74.4 Y1.4
S255
G1 X74.4 Y1.4
S255
G1 X93.4 Y1.4
S0
G0 X93.7 Y1.4
S255
G1 X93.7 Y1.4
S255
G1 X99.9 Y1.4
S0
G0 X99.9 Y1.5
S255
G1 X93.6 Y1.5
S0
G0 X93.5 Y1.5
S255
G1 X93.5 Y1.5
S255
G1 X74.4 Y1.5
S0
G0 X43.8 Y1.5
S255
G1 X43.8 Y1.5
S255
G1 X42.7 Y1.5
S0
G0 X42.5 Y1.5
S255
G1 X42.5 Y1.5
S255
G1 X41.7 Y1.5
S0
G0 X41.3 Y1.5
S255
G1 X41.3 Y1.5
S255
G1 X25.2 Y1.5
S0
G0 X24.7 Y1.5
S255
G1 X24.7 Y1.5
S255
G1 X21.3 Y1.5
S0
G0 X21.0 Y1.5
S255
G1 X21.0 Y1.5
S255
G1 X11.9 Y1.5
S0
G0 X6.9 Y1.5
S255
G1 X6.9 Y1.5
S255
G1 X6.0 Y1.5
S0
G0 X2.9 Y1.5
S255
G1 X2.9 Y1.5
S255
G1 X0.0 Y1.5
S0
G0 X0.0 Y1.6
S255
G1 X3.0 Y1.6
S0
G0 X6.0 Y1.6
S255
G1 X6.0 Y1.6
S255
G1 X6.9 Y1.6
S0
G0 X11.9 Y1.6
S255
G1 X11.9 Y1.6
S255
G1 X21.1 Y1.6
S0
G0 X21.3 Y1.6
S255
G1 X21.3 Y1.6
S255
G1 X24.6 Y1.6
S0
G0 X25.1 Y1.6
S255
G1 X25.1 Y1.6
S255
G1 X41.4 Y1.6
S0
G0 X41.5 Y1.6
S255
G1 X41.5 Y1.6
S255
G1 X42.5 Y1.6
S0
G0 X42.8 Y1.6
S255
G1 X42.8 Y1.6
S255
G1 X43.7 Y1.6
S0
G0 X45.6 Y1.6
S255
G1 X45.6 Y1.6
S255
G1 X45.7 Y1.6
S0
G0 X74.3 Y1.6
S255
G1 X74.3 Y1.6
S255
G1 X99.9 Y1.6
S0
G0 X99.9 Y1.7
S255
G1 X74.3 Y1.7
S0
G0 X43.7 Y1.7
S255
G1 X43.7 Y1.7
S255
G1 X42.7 Y1.7
S0
G0 X42.5 Y1.7
S255
G1 X42.5 Y1.7
S255
G1 X25.1 Y1.7
S0
G0 X24.6 Y1.7
S255
G1 X24.6 Y1.7
S255
G1 X21.4 Y1.7
S0
G0 X21.1 Y1.7
S255
G1 X21.1 Y1.7
S255
G1 X11.9 Y1.7
S0
G0 X6.9 Y1.7
S255
G1 X6.9 Y1.7
S255
G1 X6.0 Y1.7
S0
G0 X3.0 Y1.7
S255
G1 X3.0 Y1.7
S255
G1 X0.0 Y1.7
S0
G0 X0.0 Y1.8
S255
G1 X3.0 Y1.8
S0
G0 X5.9 Y1.8
S255
G1 X5.9 Y1.8
S255
G1 X6.8 Y1.8
S0
G0 X11.8 Y1.8
S255
G1 X11.8 Y1.8
S255
G1 X21.1 Y1.8
S0
G0 X21.4 Y1.8
S255
G1 X21.4 Y1.8
S255
G1 X24.5 Y1.8
S0
G0 X25.1 Y1.8
S255
G1 X25.1 Y1.8
S255
G1 X29.4 Y1.8
S0
G0 X29.6 Y1.8
S255
G1 X29.6 Y1.8
S255
G1 X41.5 Y1.8
S0
G0 X41.7 Y1.8
S255
G1 X41.7 Y1.8
S255
G1 X42.5 Y1.8
S0
G0 X42.7 Y1.8
S255
G1 X42.7 Y1.8
S255
G1 X43.0 Y1.8
S0
G0 X43.2 Y1.8
S255
G1 X43.2 Y1.8
S255
G1 X43.7 Y1.8
S0
G0 X43.9 Y1.8
S255
G1 X43.9 Y1.8
S255
G1 X44.0 Y1.8
S0
G0 X44.2 Y1.8
S255
G1 X44.2 Y1.8
S255
G1 X44.4 Y1.8
S0
G0 X74.3 Y1.8
S255
G1 X74.3 Y1.8
S255
G1 X99.9 Y1.8
S0
G0 X99.9 Y1.9
S255
G1 X74.3 Y1.9
S0
G0 X44.4 Y1.9
S255
G1 X44.4 Y1.9
S255
G1 X44.2 Y1.9
S0
G0 X44.0 Y1.9
S255
G1 X44.0 Y1.9
S255
G1 X43.9 Y1.9
S0
G0 X43.7 Y1.9
S255
G1 X43.7 Y1.9
S255
G1 X43.2 Y1.9
S0
G0 X42.5 Y1.9
S255
G1 X42.5 Y1.9
S255
G1 X29.5 Y1.9
S0
G0 X29.3 Y1.9
S255
G1 X29.3 Y1.9
S255
G1 X25.0 Y1.9
S0
G0 X24.5 Y1.9
S255
G1 X24.5 Y1.9
S255
G1 X21.4 Y1.9
S0
G0 X21.2 Y1.9
S255
G1 X21.2 Y1.9
S255
G1 X11.7 Y1.9
S0
G0 X6.9 Y1.9
S255
G1 X6.9 Y1.9
S255
G1 X5.9 Y1.9
S0
G0 X3.0 Y1.9
S255
G1 X3.0 Y1.9
S255
G1 X0.0 Y1.9
S0
G0 X0.0 Y2.0
S255
G1 X3.0 Y2.0
S0
G0 X5.9 Y2.0
S255
G1 X5.9 Y2.0
S255
G1 X6.9 Y2.0
S0
G0 X11.7 Y2.0
S255
G1 X11.7 Y2.0
S255
G1 X21.2 Y2.0
S0
G0 X21.4 Y2.0
S255
G1 X21.4 Y2.0
S255
G1 X24.5 Y2.0
S0
G0 X25.0 Y2.0
S255
G1 X25.0 Y2.0
S255
G1 X26.9 Y2.0
S0
G0 X27.0 Y2.0
S255
G1 X27.0 Y2.0
S255
G1 X29.2 Y2.0
S0
G0 X29.5 Y2.0
S255
G1 X29.5 Y2.0
S255
G1 X42.3 Y2.0
S0
G0 X43.1 Y2.0
S255
G1 X43.1 Y2.0
S255
G1 X43.7 Y2.0
S0
G0 X44.1 Y2.0
S255
G1 X44.1 Y2.0
S255
G1 X44.2 Y2.0
S0
G0 X74.2 Y2.0
S255
G1 X74.2 Y2.0
S255
G1 X99.9 Y2.0
S0
G0 X99.9 Y2.1
S255
G1 X94.1 Y2.1
S0
G0 X93.8 Y2.1
S255
G1 X93.8 Y2.1
S255
G1 X74.2 Y2.1
S0
G0 X44.2 Y2.1
S255
G1 X44.2 Y2.1
S255
G1 X44.1 Y2.1
S0
G0 X43.7 Y2.1
S255
G1 X43.7 Y2.1
S255
G1 X43.3 Y2.1
S0
G0 X42.3 Y2.1
S255
G1 X42.3 Y2.1
S255
G1 X29.4 Y2.1
S0
G0 X29.2 Y2.1
S255
G1 X29.2 Y2.1
S255
G1 X24.9 Y2.1
S0
G0 X24.4 Y2.1
S255
G1 X24.4 Y2.1
S255
G1 X21.4 Y2.1
S0
G0 X21.2 Y2.1
S255
G1 X21.2 Y2.1
S255
G1 X11.7 Y2.1
S0
G0 X6.9 Y2.1
S255
G1 X6.9 Y2.1
S255
G1 X5.9 Y2.1
S0
G0 X3.0 Y2.1
S255
G1 X3.0 Y2.1
S255
G1 X0.0 Y2.1
S0
G0 X0.0 Y2.2
S255
G1 X3.0 Y2.2
S0
G0 X5.8 Y2.2
S255
G1 X5.8 Y2.2
S255
G1 X6.8 Y2.2
S0
G0 X11.7 Y2.2
S255
G1 X11.7 Y2.2
S255
G1 X24.4 Y2.2
S0
G0 X24.8 Y2.2
S255
G1 X24.8 Y2.2
S255
G1 X29.1 Y2.2
S0
G0 X29.3 Y2.2
S255
G1 X29.3 Y2.2
S255
G1 X42.3 Y2.2
S0
G0 X42.5 Y2.2
S255
G1 X42.5 Y2.2
S255
G1 X42.7 Y2.2
S0
G0 X43.4 Y2.2
S255
G1 X43.4 Y2.2
S255
G1 X43.7 Y2.2
S0
G0 X45.3 Y2.2
S255
G1 X45.3 Y2.2
S255
G1 X45.4 Y2.2
S0
G0 X74.2 Y2.2
S255
G1 X74.2 Y2.2
S255
G1 X93.8 Y2.2
S0
G0 X94.1 Y2.2
S255
G1 X94.1 Y2.2
S255
G1 X99.9 Y2.2
S0
G0 X99.9 Y2.3
S255
G1 X94.1 Y2.3
S0
G0 X93.8 Y2.3
S255
G1 X93.8 Y2.3
S255
G1 X74.2 Y2.3
S0
G0 X45.4 Y2.3
S255
G1 X45.4 Y2.3
S255
G1 X45.2 Y2.3
S0
G0 X43.7 Y2.3
S255
G1 X43.7 Y2.3
S255
G1 X43.4 Y2.3
S0
G0 X42.7 Y2.3
S255
G1 X42.7 Y2.3
S255
G1 X29.2 Y2.3
S0
G0 X29.1 Y2.3
S255
G1 X29.1 Y2.3
S255
G1 X26.9 Y2.3
S0
G0 X26.7 Y2.3
S255
G1 X26.7 Y2.3
S255
G1 X24.8 Y2.3
S0
G0 X24.3 Y2.3
S255
G1 X24.3 Y2.3
S255
G1 X11.8 Y2.3
S0
G0 X6.9 Y2.3
S255
G1 X6.9 Y2.3
S255
G1 X5.8 Y2.3
S0
G0 X3.0 Y2.3
S255
G1 X3.0 Y2.3
S255
G1 X0.0 Y2.3
S0
G0 X0.0 Y2.4
S255
G1 X3.0 Y2.4
S0
G0 X5.7 Y2.4
S255
G1 X5.7 Y2.4
S255
G1 X6.9 Y2.4
S0
G0 X11.9 Y2.4
S255
G1 X11.9 Y2.4
S255
G1 X24.3 Y2.4
S0
G0 X24.7 Y2.4
S255
G1 X24.7 Y2.4
S255
G1 X26.7 Y2.4
S0
G0 X26.9 Y2.4
S255
G1 X26.9 Y2.4
S255
G1 X41.7 Y2.4
S0
G0 X41.9 Y2.4
S255
G1 X41.9 Y2.4
S255
G1 X42.6 Y2.4
S0
G0 X43.4 Y2.4
S255
G1 X43.4 Y2.4
S255
G1 X43.7 Y2.4
S0
G0 X44.1 Y2.4
S255
G1 X44.1 Y2.4
S255
G1 X44.2 Y2.4
S0
G0 X44.4 Y2.4
S255
G1 X44.4 Y2.4
S255
G1 X44.6 Y2.4
S0
G0 X45.2 Y2.4
S255
G1 X45.2 Y2.4
S255
G1 X45.4 Y2.4
S0
G0 X74.1 Y2.4
S255
G1 X74.1 Y2.4
S255
G1 X99.9 Y2.4
S0
G0 X99.9 Y2.5
S255
G1 X74.1 Y2.5
S0
G0 X45.4 Y2.5
S255
G1 X45.4 Y2.5
S255
G1 X45.3 Y2.5
S0
G0 X44.4 Y2.5
S255
G1 X44.4 Y2.5
S255
G1 X44.2 Y2.5
S0
G0 X43.9 Y2.5
S255
G1 X43.9 Y2.5
S255
G1 X43.6 Y2.5
S0
G0 X43.0 Y2.5
S255
G1 X43.0 Y2.5
S255
G1 X42.9 Y2.5
S0
G0 X42.5 Y2.5
S255
G1 X42.5 Y2.5
S255
G1 X42.0 Y2.5
S0
G0 X41.7 Y2.5
S255
G1 X41.7 Y2.5
S255
G1 X26.9 Y2.5
S0
G0 X26.7 Y2.5
S255
G1 X26.7 Y2.5
S255
G1 X24.6 Y2.5
S0
G0 X24.3 Y2.5
S255
G1 X24.3 Y2.5
S255
G1 X12.0 Y2.5
S0
G0 X6.9 Y2.5
S255
G1 X6.9 Y2.5
S255
G1 X5.8 Y2.5
S0
G0 X3.0 Y2.5
S255
G1 X3.0 Y2.5
S255
G1 X0.0 Y2.5
S0
G0 X0.0 Y2.6
S255
G1 X3.0 Y2.6
S0
G0 X5.8 Y2.6
S255
G1 X5.8 Y2.6
S255
G1 X6.8 Y2.6
S0
G0 X12.1 Y2.6
S255
G1 X12.1 Y2.6
S255
G1 X24.3 Y2.6
S0
G0 X24.5 Y2.6
S255
G1 X24.5 Y2.6
S255
G1 X26.7 Y2.6
S0
G0 X26.9 Y2.6
S255
G1 X26.9 Y2.6
S255
G1 X41.7 Y2.6
S0
G0 X42.0 Y2.6
S255
G1 X42.0 Y2.6
S255
G1 X42.4 Y2.6
S0
G0 X42.9 Y2.6
S255
G1 X42.9 Y2.6
S255
G1 X43.2 Y2.6
S0
G0 X43.6 Y2.6
S255
G1 X43.6 Y2.6
S255
G1 X43.9 Y2.6
S0
G0 X44.2 Y2.6
S255
G1 X44.2 Y2.6
S255
G1 X44.4 Y2.6
S0
G0 X44.8 Y2.6
S255
G1 X44.8 Y2.6
S255
G1 X45.0 Y2.6
S0
G0 X45.4 Y2.6
S255
G1 X45.4 Y2.6
S255
G1 X45.6 Y2.6
S0
G0 X74.1 Y2.6
S255
G1 X74.1 Y2.6
S255
G1 X99.9 Y2.6
S0
G0 X99.9 Y2.7
S255
G1 X74.1 Y2.7
S0
G0 X45.6 Y2.7
S255
G1 X45.6 Y2.7
S255
G1 X45.3 Y2.7
S0
G0 X45.0 Y2.7
S255
G1 X45.0 Y2.7
S255
G1 X44.7 Y2.7
S0
G0 X43.1 Y2.7
S255
G1 X43.1 Y2.7
S255
G1 X31.1 Y2.7
S0
G0 X31.0 Y2.7
S255
G1 X31.0 Y2.7
S255
G1 X26.9 Y2.7
S0
G0 X26.7 Y2.7
S255
G1 X26.7 Y2.7
S255
G1 X12.1 Y2.7
S0
G0 X6.9 Y2.7
S255
G1 X6.9 Y2.7
S255
G1 X5.7 Y2.7
S0
G0 X3.0 Y2.7
S255
G1 X3.0 Y2.7
S255
G1 X0.0 Y2.7
S0
G0 X0.0 Y2.8
S255
G1 X3.0 Y2.8
S0
G0 X5.6 Y2.8
S255
G1 X5.6 Y2.8
S255
G1 X6.9 Y2.8
S0
G0 X12.1 Y2.8
S255
G1 X12.1 Y2.8
S255
G1 X26.7 Y2.8
S0
G0 X26.8 Y2.8
S255
G1 X26.8 Y2.8
S255
G1 X31.0 Y2.8
S0
G0 X31.1 Y2.8
S255
G1 X31.1 Y2.8
S255
G1 X43.1 Y2.8
S0
G0 X43.3 Y2.8
S255
G1 X43.3 Y2.8
S255
G1 X43.5 Y2.8
S0
G0 X44.5 Y2.8
S255
G1 X44.5 Y2.8
S255
G1 X44.9 Y2.8
S0
G0 X45.3 Y2.8
S255
G1 X45.3 Y2.8
S255
G1 X45.6 Y2.8
S0
G0 X74.1 Y2.8
S255
G1 X74.1 Y2.8
S255
G1 X99.9 Y2.8
S0
G0 X99.9 Y2.9
S255
G1 X74.0 Y2.9
S0
G0 X45.6 Y2.9
S255
G1 X45.6 Y2.9
S255
G1 X45.2 Y2.9
S0
G0 X44.8 Y2.9
S255
G1 X44.8 Y2.9
S255
G1 X44.4 Y2.9
S0
G0 X43.6 Y2.9
S255
G1 X43.6 Y2.9
S255
G1 X43.5 Y2.9
S0
G0 X43.2 Y2.9
S255
G1 X43.2 Y2.9
S255
G1 X26.8 Y2.9
S0
G0 X26.7 Y2.9
S255
G1 X26.7 Y2.9
S255
G1 X12.2 Y2.9
S0
G0 X6.9 Y2.9
S255
G1 X6.9 Y2.9
S255
G1 X5.7 Y2.9
S0
G0 X3.0 Y2.9
S255
G1 X3.0 Y2.9
S255
G1 X0.0 Y2.9
S0
G0 X0.0 Y3.0
S255
G1 X3.0 Y3.0
S0
G0 X5.7 Y3.0
S255
G1 X5.7 Y3.0
S255
G1 X6.9 Y3.0
S0
G0 X12.2 Y3.0
S255
G1 X12.2 Y3.0
S255
G1 X24.0 Y3.0
S0
G0 X24.1 Y3.0
S255
G1 X24.1 Y3.0
S255
G1 X43.3 Y3.0
S0
G0 X43.5 Y3.0
S255
G1 X43.5 Y3.0
S255
G1 X43.6 Y3.0
S0
G0 X44.4 Y3.0
S255
G1 X44.4 Y3.0
S255
G1 X44.7 Y3.0
S0
G0 X45.3 Y3.0
S255
G1 X45.3 Y3.0
S255
G1 X45.7 Y3.0
S0
G0 X46.0 Y3.0
S255
G1 X46.0 Y3.0
S255
G1 X46.2 Y3.0
S0
G0 X74.0 Y3.0
S255
G1 X74.0 Y3.0
S255
G1 X99.9 Y3.0
S0
G0 X99.9 Y3.1
S255
G1 X74.0 Y3.1
S0
G0 X46.1 Y3.1
S255
G1 X46.1 Y3.1
S255
G1 X46.0 Y3.1
S0
G0 X45.8 Y3.1
S255
G1 X45.8 Y3.1
S255
G1 X45.3 Y3.1
S0
G0 X44.7 Y3.1
S255
G1 X44.7 Y3.1
S255
G1 X44.3 Y3.1
S0
G0 X43.2 Y3.1
S255
G1 X43.2 Y3.1
S255
G1 X24.1 Y3.1
S0
G0 X24.0 Y3.1
S255
G1 X24.0 Y3.1
S255
G1 X12.2 Y3.1
S0
G0 X6.9 Y3.1
S255
G1 X6.9 Y3.1
S255
G1 X5.5 Y3.1
S0
G0 X3.0 Y3.1
S255
G1 X3.0 Y3.1
S255
G1 X0.0 Y3.1
S0
G0 X0.0 Y3.2
S255
G1 X3.0 Y3.2
S0
G0 X5.5 Y3.2
S255
G1 X5.5 Y3.2
S255
G1 X6.9 Y3.2
S0
G0 X12.2 Y3.2
S255
G1 X12.2 Y3.2
S255
G1 X26.5 Y3.2
S0
G0 X26.6 Y3.2
S255
G1 X26.6 Y3.2
S255
G1 X30.1 Y3.2
S0
G0 X30.2 Y3.2
S255
G1 X30.2 Y3.2
S255
G1 X43.1 Y3.2
S0
G0 X43.7 Y3.2
S255
G1 X43.7 Y3.2
S255
G1 X43.9 Y3.2
S0
G0 X44.3 Y3.2
S255
G1 X44.3 Y3.2
S255
G1 X44.6 Y3.2
S0
G0 X45.5 Y3.2
S255
G1 X45.5 Y3.2
S255
G1 X45.8 Y3.2
S0
G0 X73.9 Y3.2
S255
G1 X73.9 Y3.2
S255
G1 X99.9 Y3.2
S0
G0 X99.9 Y3.3
S255
G1 X73.9 Y3.3
S0
G0 X45.9 Y3.3
S255
G1 X45.9 Y3.3
S255
G1 X45.6 Y3.3
S0
G0 X44.6 Y3.3
S255
G1 X44.6 Y3.3
S255
G1 X44.4 Y3.3
S0
G0 X44.0 Y3.3
S255
G1 X44.0 Y3.3
S255
G1 X43.7 Y3.3
S0
G0 X43.5 Y3.3
S255
G1 X43.5 Y3.3
S255
G1 X43.2 Y3.3
S0
G0 X43.1 Y3.3
S255
G1 X43.1 Y3.3
S255
G1 X30.7 Y3.3
S0
G0 X30.6 Y3.3
S255
G1 X30.6 Y3.3
S255
G1 X30.2 Y3.3
S0
G0 X30.1 Y3.3
S255
G1 X30.1 Y3.3
S255
G1 X26.6 Y3.3
S0
G0 X26.5 Y3.3
S255
G1 X26.5 Y3.3
S255
G1 X12.2 Y3.3
S0
G0 X6.9 Y3.3
S255
G1 X6.9 Y3.3
S255
G1 X5.5 Y3.3
S0
G0 X3.0 Y3.3
S255
G1 X3.0 Y3.3
S255
G1 X0.0 Y3.3
S0
G0 X0.0 Y3.4
S255
G1 X2.9 Y3.4
S0
G0 X5.5 Y3.4
S255
G1 X5.5 Y3.4
S255
G1 X6.9 Y3.4
S0
G0 X12.2 Y3.4
S255
G1 X12.2 Y3.4
S255
G1 X30.1 Y3.4
S0
G0 X30.2 Y3.4
S255
G1 X30.2 Y3.4
S255
G1 X30.6 Y3.4
S0
G0 X30.7 Y3.4
S255
G1 X30.7 Y3.4
S255
G1 X31.4 Y3.4
S0
G0 X31.5 Y3.4
S255
G1 X31.5 Y3.4
S255
G1 X43.6 Y3.4
S0
G0 X43.8 Y3.4
S255
G1 X43.8 Y3.4
S255
G1 X44.1 Y3.4
S0
G0 X45.7 Y3.4
S255
G1 X45.7 Y3.4
S255
G1 X45.9 Y3.4
S0
G0 X73.9 Y3.4
S255
G1 X73.9 Y3.4
S255
G1 X99.9 Y3.4
S0
G0 X99.9 Y3.5
S255
G1 X73.9 Y3.5
S0
G0 X46.9 Y3.5
S255
G1 X46.9 Y3.5
S255
G1 X46.8 Y3.5
S0
G0 X45.0 Y3.5
S255
G1 X45.0 Y3.5
S255
G1 X44.8 Y3.5
S0
G0 X44.2 Y3.5
S255
G1 X44.2 Y3.5
S255
G1 X43.8 Y3.5
S0
G0 X43.1 Y3.5
S255
G1 X43.1 Y3.5
S255
G1 X31.5 Y3.5
S0
G0 X31.2 Y3.5
S255
G1 X31.2 Y3.5
S255
G1 X12.2 Y3.5
S0
G0 X6.9 Y3.5
S255
G1 X6.9 Y3.5
S255
G1 X5.5 Y3.5
S0
G0 X2.9 Y3.5
S255
G1 X2.9 Y3.5
S255
G1 X0.0 Y3.5
S0
G0 X0.0 Y3.6
S255
G1 X2.8 Y3.6
S0
G0 X5.5 Y3.6
S255
G1 X5.5 Y3.6
S255
G1 X6.9 Y3.6
S0
G0 X12.2 Y3.6
S255
G1 X12.2 Y3.6
S255
G1 X28.3 Y3.6
S0
G0 X28.5 Y3.6
S255
G1 X28.5 Y3.6
S255
G1 X31.0 Y3.6
S0
G0 X31.5 Y3.6
S255
G1 X31.5 Y3.6
S255
G1 X43.2 Y3.6
S0
G0 X44.1 Y3.6
S255
G1 X44.1 Y3.6
S255
G1 X44.2 Y3.6
S0
G0 X44.8 Y3.6
S255
G1 X44.8 Y3.6
S255
G1 X45.0 Y3.6
S0
G0 X46.8 Y3.6
S255
G1 X46.8 Y3.6
S255
G1 X46.9 Y3.6
S0
G0 X73.8 Y3.6
S255
G1 X73.8 Y3.6
S255
G1 X82.5 Y3.6
S0
G0 X83.1 Y3.6
S255
G1 X83.1 Y3.6
S255
G1 X99.9 Y3.6
S0
G0 X99.9 Y3.7
S255
G1 X83.4 Y3.7
S0
G0 X82.3 Y3.7
S255
G1 X82.3 Y3.7
S255
G1 X73.8 Y3.7
S0
G0 X45.2 Y3.7
S255
G1 X45.2 Y3.7
S255
G1 X44.9 Y3.7
S0
G0 X44.2 Y3.7
S255
G1 X44.2 Y3.7
S255
G1 X44.1 Y3.7
S0
G0 X43.3 Y3.7
S255
G1 X43.3 Y3.7
S255
G1 X43.1 Y3.7
S0
G0 X42.7 Y3.7
S255
G1 X42.7 Y3.7
S255
G1 X42.5 Y3.7
S0
G0 X42.1 Y3.7
S255
G1 X42.1 Y3.7
S255
G1 X31.5 Y3.7
S0
G0 X30.9 Y3.7
S255
G1 X30.9 Y3.7
S255
G1 X28.4 Y3.7
S0
G0 X28.2 Y3.7
S255
G1 X28.2 Y3.7
S255
G1 X12.2 Y3.7
S0
G0 X6.8 Y3.7
S255
G1 X6.8 Y3.7
S255
G1 X5.5 Y3.7
S0
G0 X2.8 Y3.7
S255
G1 X2.8 Y3.7
S255
G1 X0.0 Y3.7
S0
G0 X0.0 Y3.8
S255
G1 X2.8 Y3.8
S0
G0 X5.5 Y3.8
S255
G1 X5.5 Y3.8
S255
G1 X6.8 Y3.8
S0
G0 X12.2 Y3.8
S255
G1 X12.2 Y3.8
S255
G1 X23.6 Y3.8
S0
G0 X23.7 Y3.8
S255
G1 X23.7 Y3.8
S255
G1 X28.1 Y3.8
S0
G0 X28.4 Y3.8
S255
G1 X28.4 Y3.8
S255
G1 X30.8 Y3.8
S0
G0 X31.4 Y3.8
S255
G1 X31.4 Y3.8
S255
G1 X42.2 Y3.8
S0
G0 X42.5 Y3.8
S255
G1 X42.5 Y3.8
S255
G1 X42.7 Y3.8
S0
G0 X43.1 Y3.8
S255
G1 X43.1 Y3.8
S255
G1 X43.5 Y3.8
S0
G0 X44.1 Y3.8
S255
G1 X44.1 Y3.8
S255
G1 X44.4 Y3.8
S0
G0 X45.0 Y3.8
S255
G1 X45.0 Y3.8
S255
G1 X45.2 Y3.8
S0
G0 X73.8 Y3.8
S255
G1 X73.8 Y3.8
S255
G1 X82.2 Y3.8
S0
G0 X83.5 Y3.8
S255
G1 X83.5 Y3.8
S255
G1 X99.9 Y3.8
S0
G0 X99.9 Y3.9
S255
G1 X83.6 Y3.9
S0
G0 X82.2 Y3.9
S255
G1 X82.2 Y3.9
S255
G1 X73.8 Y3.9
S0
G0 X44.9 Y3.9
S255
G1 X44.9 Y3.9
S255
G1 X44.6 Y3.9
S0
G0 X44.4 Y3.9
S255
G1 X44.4 Y3.9
S255
G1 X43.1 Y3.9
S0
G0 X42.9 Y3.9
S255
G1 X42.9 Y3.9
S255
G1 X31.4 Y3.9
S0
G0 X30.8 Y3.9
S255
G1 X30.8 Y3.9
S255
G1 X28.3 Y3.9
S0
G0 X28.1 Y3.9
S255
G1 X28.1 Y3.9
S255
G1 X12.1 Y3.9
S0
G0 X6.8 Y3.9
S255
G1 X6.8 Y3.9
S255
G1 X5.5 Y3.9
S0
G0 X2.8 Y3.9
S255
G1 X2.8 Y3.9
S255
G1 X0.0 Y3.9
S0
G0 X0.0 Y4.0
S255
G1 X2.8 Y4.0
S0
G0 X5.5 Y4.0
S255
G1 X5.5 Y4.0
S255
G1 X6.9 Y4.0
S0
G0 X12.1 Y4.0
S255
G1 X12.1 Y4.0
S255
G1 X28.0 Y4.0
S0
G0 X28.2 Y4.0
S255
G1 X28.2 Y4.0
S255
G1 X30.7 Y4.0
S0
G0 X31.3 Y4.0
S255
G1 X31.3 Y4.0
S255
G1 X42.9 Y4.0
S0
G0 X43.1 Y4.0
S255
G1 X43.1 Y4.0
S255
G1 X44.4 Y4.0
S0
G0 X44.6 Y4.0
S255
G1 X44.6 Y4.0
S255
G1 X44.9 Y4.0
S0
G0 X73.7 Y4.0
S255
G1 X73.7 Y4.0
S255
G1 X82.2 Y4.0
S0
G0 X83.7 Y4.0
S255
G1 X83.7 Y4.0
S255
G1 X99.9 Y4.0
S0
G0 X99.9 Y4.1
S255
G1 X83.9 Y4.1
S0
G0 X82.1 Y4.1
S255
G1 X82.1 Y4.1
S255
G1 X73.7 Y4.1
S0
G0 X44.4 Y4.1
S255
G1 X44.4 Y4.1
S255
G1 X43.1 Y4.1
S0
G0 X42.9 Y4.1
S255
G1 X42.9 Y4.1
S255
G1 X31.3 Y4.1
S0
G0 X30.6 Y4.1
S255
G1 X30.6 Y4.1
S255
G1 X28.2 Y4.1
S0
G0 X27.9 Y4.1
S255
G1 X27.9 Y4.1
S255
G1 X12.1 Y4.1
S0
G0 X6.8 Y4.1
S255
G1 X6.8 Y4.1
S255
G1 X5.5 Y4.1
S0
G0 X2.7 Y4.1
S255
G1 X2.7 Y4.1
S255
G1 X0.0 Y4.1
S0
G0 X0.0 Y4.2
S255
G1 X2.7 Y4.2
S0
G0 X5.5 Y4.2
S255
G1 X5.5 Y4.2
S255
G1 X6.8 Y4.2
S0
G0 X12.1 Y4.2
S255
G1 X12.1 Y4.2
S255
G1 X27.9 Y4.2
S0
G0 X28.1 Y4.2
S255
G1 X28.1 Y4.2
S255
G1 X30.5 Y4.2
S0
G0 X31.2 Y4.2
S255
G1 X31.2 Y4.2
S255
G1 X42.9 Y4.2
S0
G0 X43.0 Y4.2
S255
G1 X43.0 Y4.2
S255
G1 X44.3 Y4.2
S0
G0 X73.7 Y4.2
S255
G1 X73.7 Y4.2
S255
G1 X82.0 Y4.2
S0
G0 X84.0 Y4.2
S255
G1 X84.0 Y4.2
S255
G1 X99.9 Y4.2
S0
G0 X99.9 Y4.3
S255
G1 X84.1 Y4.3
S0
G0 X82.0 Y4.3
S255
G1 X82.0 Y4.3
S255
G1 X73.7 Y4.3
S0
G0 X44.2 Y4.3
S255
G1 X44.2 Y4.3
S255
G1 X31.0 Y4.3
S0
G0 X30.5 Y4.3
S255
G1 X30.5 Y4.3
S255
G1 X28.0 Y4.3
S0
G0 X27.8 Y4.3
S255
G1 X27.8 Y4.3
S255
G1 X12.1 Y4.3
S0
G0 X6.9 Y4.3
S255
G1 X6.9 Y4.3
S255
G1 X5.4 Y4.3
S0
G0 X2.7 Y4.3
S255
G1 X2.7 Y4.3
S255
G1 X0.0 Y4.3
S0
G0 X0.0 Y4.4
S255
G1 X2.7 Y4.4
S0
G0 X5.4 Y4.4
S255
G1 X5.4 Y4.4
S255
G1 X6.9 Y4.4
S0
G0 X12.1 Y4.4
S255
G1 X12.1 Y4.4
S255
G1 X27.8 Y4.4
S0
G0 X28.0 Y4.4
S255
G1 X28.0 Y4.4
S255
G1 X30.5 Y4.4
S0
G0 X30.9 Y4.4
S255
G1 X30.9 Y4.4
S255
G1 X44.2 Y4.4
S0
G0 X73.6 Y4.4
S255
G1 X73.6 Y4.4
S255
G1 X82.0 Y4.4
S0
G0 X84.2 Y4.4
S255
G1 X84.2 Y4.4
S255
G1 X99.9 Y4.4
S0
G0 X99.9 Y4.5
S255
G1 X84.3 Y4.5
S0
G0 X82.0 Y4.5
S255
G1 X82.0 Y4.5
S255
G1 X73.6 Y4.5
S0
G0 X44.6 Y4.5
S255
G1 X44.6 Y4.5
S255
G1 X30.9 Y4.5
S0
G0 X30.4 Y4.5
S255
G1 X30.4 Y4.5
S255
G1 X27.9 Y4.5
S0
G0 X27.8 Y4.5
S255
G1 X27.8 Y4.5
S255
G1 X12.0 Y4.5
S0
G0 X6.8 Y4.5
S255
G1 X6.8 Y4.5
S255
G1 X5.4 Y4.5
S0
G0 X2.7 Y4.5
S255
G1 X2.7 Y4.5
S255
G1 X0.0 Y4.5
S0
G0 X0.0 Y4.6
S255
G1 X2.6 Y4.6
S0
G0 X5.3 Y4.6
S255
G1 X5.3 Y4.6
S255
G1 X6.8 Y4.6
S0
G0 X12.0 Y4.6
S255
G1 X12.0 Y4.6
S255
G1 X30.4 Y4.6
S0
G0 X30.9 Y4.6
S255
G1 X30.9 Y4.6
S255
G1 X44.6 Y4.6
S0
G0 X73.6 Y4.6
S255
G1 X73.6 Y4.6
S255
G1 X81.9 Y4.6
S0
G0 X84.4 Y4.6
S255
G1 X84.4 Y4.6
S255
G1 X99.9 Y4.6
S0
G0 X99.9 Y4.7
S255
G1 X84.5 Y4.7
S0
G0 X81.9 Y4.7
S255
G1 X81.9 Y4.7
S255
G1 X73.5 Y4.7
S0
G0 X44.7 Y4.7
S255
G1 X44.7 Y4.7
S255
G1 X30.9 Y4.7
S0
G0 X30.4 Y4.7
S255
G1 X30.4 Y4.7
S255
G1 X12.0 Y4.7
S0
G0 X6.8 Y4.7
S255
G1 X6.8 Y4.7
S255
G1 X5.3 Y4.7
S0
G0 X2.6 Y4.7
S255
G1 X2.6 Y4.7
S255
G1 X0.0 Y4.7
S0
G0 X0.0 Y4.8
S255
G1 X2.6 Y4.8
S0
G0 X5.4 Y4.8
S255
G1 X5.4 Y4.8
S255
G1 X6.8 Y4.8
S0
G0 X12.0 Y4.8
S255
G1 X12.0 Y4.8
S255
G1 X30.3 Y4.8
S0
G0 X30.9 Y4.8
S255
G1 X30.9 Y4.8
S255
G1 X43.9 Y4.8
S0
G0 X44.0 Y4.8
S255
G1 X44.0 Y4.8
S255
G1 X44.6 Y4.8
S0
G0 X73.5 Y4.8
S255
G1 X73.5 Y4.8
S255
G1 X81.9 Y4.8
S0
G0 X84.6 Y4.8
S255
G1 X84.6 Y4.8
S255
G1 X99.9 Y4.8
S0
G0 X99.9 Y4.9
S255
G1 X84.8 Y4.9
S0
G0 X81.9 Y4.9
S255
G1 X81.9 Y4.9
S255
G1 X73.5 Y4.9
S0
G0 X44.4 Y4.9
S255
G1 X44.4 Y4.9
S255
G1 X30.8 Y4.9
S0
G0 X30.3 Y4.9
S255
G1 X30.3 Y4.9
S255
G1 X12.0 Y4.9
S0
G0 X6.8 Y4.9
S255
G1 X6.8 Y4.9
S255
G1 X5.4 Y4.9
S0
G0 X2.6 Y4.9
S255
G1 X2.6 Y4.9
S255
G1 X0.0 Y4.9
S0
G0 X0.0 Y5.0
S255
G1 X2.3 Y5.0
S0
G0 X5.4 Y5.0
S255
G1 X5.4 Y5.0
S255
G1 X6.8 Y5.0
S0
G0 X12.0 Y5.0
S255
G1 X12.0 Y5.0
S255
G1 X30.2 Y5.0
S0
G0 X30.7 Y5.0
S255
G1 X30.7 Y5.0
S255
G1 X44.3 Y5.0
S0
G0 X73.5 Y5.0
S255
G1 X73.5 Y5.0
S255
G1 X81.9 Y5.0
S0
G0 X84.9 Y5.0
S255
G1 X84.9 Y5.0
S255
G1 X99.9 Y5.0
S0
G0 X99.9 Y5.1
S255
G1 X85.0 Y5.1
S0
G0 X81.9 Y5.1
S255
G1 X81.9 Y5.1
S255
G1 X73.4 Y5.1
S0
G0 X44.7 Y5.1
S255
G1 X44.7 Y5.1
S255
G1 X44.5 Y5.1
S0
G0 X44.2 Y5.1
S255
G1 X44.2 Y5.1
S255
G1 X30.6 Y5.1
S0
G0 X30.2 Y5.1
S255
G1 X30.2 Y5.1
S255
G1 X12.7 Y5.1
S0
G0 X12.6 Y5.1
S255
G1 X12.6 Y5.1
S255
G1 X12.0 Y5.1
S0
G0 X6.8 Y5.1
S255
G1 X6.8 Y5.1
S255
G1 X5.4 Y5.1
S0
G0 X2.3 Y5.1
S255
G1 X2.3 Y5.1
S255
G1 X0.0 Y5.1
S0
G0 X0.0 Y5.2
S255
G1 X2.3 Y5.2
S0
G0 X5.4 Y5.2
S255
G1 X5.4 Y5.2
S255
G1 X6.8 Y5.2
S0
G0 X12.0 Y5.2
S255
G1 X12.0 Y5.2
S255
G1 X12.6 Y5.2
S0
G0 X12.7 Y5.2
S255
G1 X12.7 Y5.2
S255
G1 X30.1 Y5.2
S0
G0 X30.6 Y5.2
S255
G1 X30.6 Y5.2
S255
G1 X44.3 Y5.2
S0
G0 X73.4 Y5.2
S255
G1 X73.4 Y5.2
S255
G1 X82.0 Y5.2
S0
G0 X85.2 Y5.2
S255
G1 X85.2 Y5.2
S255
G1 X99.9 Y5.2
S0
G0 X99.9 Y5.3
S255
G1 X85.4 Y5.3
S0
G0 X82.0 Y5.3
S255
G1 X82.0 Y5.3
S255
G1 X73.4 Y5.3
S0
G0 X45.0 Y5.3
S255
G1 X45.0 Y5.3
S255
G1 X44.8 Y5.3
S0
G0 X44.4 Y5.3
S255
G1 X44.4 Y5.3
S255
G1 X30.5 Y5.3
S0
G0 X30.2 Y5.3
S255
G1 X30.2 Y5.3
S255
G1 X12.0 Y5.3
S0
G0 X6.8 Y5.3
S255
G1 X6.8 Y5.3
S255
G1 X5.4 Y5.3
S0
G0 X2.2 Y5.3
S255
G1 X2.2 Y5.3
S255
G1 X0.0 Y5.3
S0
G0 X0.0 Y5.4
S255
G1 X2.2 Y5.4
S0
G0 X5.4 Y5.4
S255
G1 X5.4 Y5.4
S255
G1 X6.8 Y5.4
S0
G0 X12.0 Y5.4
S255
G1 X12.0 Y5.4
S255
G1 X30.4 Y5.4
S0
G0 X30.5 Y5.4
S255
G1 X30.5 Y5.4
S255
G1 X31.7 Y5.4
S0
G0 X31.9 Y5.4
S255
G1 X31.9 Y5.4
S255
G1 X44.5 Y5.4
S0
G0 X44.7 Y5.4
S255
G1 X44.7 Y5.4
S255
G1 X45.0 Y5.4
S0
G0 X73.4 Y5.4
S255
G1 X73.4 Y5.4
S255
G1 X82.0 Y5.4
S0
G0 X85.5 Y5.4
S255
G1 X85.5 Y5.4
S255
G1 X99.9 Y5.4
S0
G0 X99.9 Y5.5
S255
G1 X85.6 Y5.5
S0
G0 X82.0 Y5.5
S255
G1 X82.0 Y5.5
S255
G1 X73.3 Y5.5
S0
G0 X45.0 Y5.5
S255
G1 X45.0 Y5.5
S255
G1 X32.0 Y5.5
S0
G0 X31.5 Y5.5
S255
G1 X31.5 Y5.5
S255
G1 X30.5 Y5.5
S0
G0 X30.4 Y5.5
S255
G1 X30.4 Y5.5
S255
G1 X12.0 Y5.5
S0
G0 X6.9 Y5.5
S255
G1 X6.9 Y5.5
S255
G1 X5.4 Y5.5
S0
G0 X2.3 Y5.5
S255
G1 X2.3 Y5.5
S255
G1 X0.0 Y5.5
S0
G0 X0.0 Y5.6
S255
G1 X2.3 Y5.6
S0
G0 X5.4 Y5.6
S255
G1 X5.4 Y5.6
S255
G1 X6.8 Y5.6
S0
G0 X12.0 Y5.6
S255
G1 X12.0 Y5.6
S255
G1 X31.4 Y5.6
S0
G0 X32.0 Y5.6
S255
G1 X32.0 Y5.6
S255
G1 X44.7 Y5.6
S0
G0 X44.8 Y5.6
S255
G1 X44.8 Y5.6
S255
G1 X45.0 Y5.6
S0
G0 X73.3 Y5.6
S255
G1 X73.3 Y5.6
S255
G1 X82.0 Y5.6
S0
G0 X85.7 Y5.6
S255
G1 X85.7 Y5.6
S255
G1 X99.9 Y5.6
S0
G0 X99.9 Y5.7
S255
G1 X85.8 Y5.7
S0
G0 X82.0 Y5.7
S255
G1 X82.0 Y5.7
S255
G1 X73.3 Y5.7
S0
G0 X44.6 Y5.7
S255
G1 X44.6 Y5.7
S255
G1 X31.9 Y5.7
S0
G0 X31.3 Y5.7
S255
G1 X31.3 Y5.7
S255
G1 X12.0 Y5.7
S0
G0 X6.8 Y5.7
S255
G1 X6.8 Y5.7
S255
G1 X5.4 Y5.7
S0
G0 X2.3 Y5.7
S255
G1 X2.3 Y5.7
S255
G1 X0.0 Y5.7
S0
G0 X0.0 Y5.8
S255
G1 X2.3 Y5.8
S0
G0 X5.4 Y5.8
S255
G1 X5.4 Y5.8
S255
G1 X6.8 Y5.8
S0
G0 X12.0 Y5.8
S255
G1 X12.0 Y5.8
S255
G1 X31.2 Y5.8
S0
G0 X31.8 Y5.8
S255
G1 X31.8 Y5.8
S255
G1 X44.6 Y5.8
S0
G0 X73.2 Y5.8
S255
G1 X73.2 Y5.8
S255
G1 X82.0 Y5.8
S0
G0 X86.0 Y5.8
S255
G1 X86.0 Y5.8
S255
G1 X99.9 Y5.8
S0
G0 X99.9 Y5.9
S255
G1 X86.1 Y5.9
S0
G0 X82.0 Y5.9
S255
G1 X82.0 Y5.9
S255
G1 X73.2 Y5.9
S0
G0 X45.0 Y5.9
S255
G1 X45.0 Y5.9
S255
G1 X44.8 Y5.9
S0
G0 X44.4 Y5.9
S255
G1 X44.4 Y5.9
S255
G1 X31.4 Y5.9
S0
G0 X31.0 Y5.9
S255
G1 X31.0 Y5.9
S255
G1 X12.0 Y5.9
S0
G0 X6.8 Y5.9
S255
G1 X6.8 Y5.9
S255
G1 X5.4 Y5.9
S0
G0 X2.4 Y5.9
S255
G1 X2.4 Y5.9
S255
G1 X0.0 Y5.9
S0
G0 X0.0 Y6.0
S255
G1 X2.4 Y6.0
S0
G0 X5.4 Y6.0
S255
G1 X5.4 Y6.0
S255
G1 X6.8 Y6.0
S0
G0 X12.0 Y6.0
S255
G1 X12.0 Y6.0
S255
G1 X30.9 Y6.0
S0
G0 X31.3 Y6.0
S255
G1 X31.3 Y6.0
S255
G1 X44.3 Y6.0
S0
G0 X44.5 Y6.0
S255
G1 X44.5 Y6.0
S255
G1 X44.9 Y6.0
S0
G0 X73.2 Y6.0
S255
G1 X73.2 Y6.0
S255
G1 X82.0 Y6.0
S0
G0 X86.2 Y6.0
S255
G1 X86.2 Y6.0
S255
G1 X99.9 Y6.0
S0
G0 X99.9 Y6.1
S255
G1 X86.3 Y6.1
S0
G0 X81.9 Y6.1
S255
G1 X81.9 Y6.1
S255
G1 X73.1 Y6.1
S0
G0 X44.8 Y6.1
S255
G1 X44.8 Y6.1
S255
G1 X31.3 Y6.1
S0
G0 X30.8 Y6.1
S255
G1 X30.8 Y6.1
S255
G1 X11.9 Y6.1
S0
G0 X6.8 Y6.1
S255
G1 X6.8 Y6.1
S255
G1 X5.3 Y6.1
S0
G0 X2.4 Y6.1
S255
G1 X2.4 Y6.1
S255
G1 X0.0 Y6.1
S0
G0 X0.0 Y6.2
S255
G1 X2.5 Y6.2
S0
G0 X5.3 Y6.2
S255
G1 X5.3 Y6.2
S255
G1 X6.8 Y6.2
S0
G0 X12.0 Y6.2
S255
G1 X12.0 Y6.2
S255
G1 X30.3 Y6.2
S0
G0 X31.2 Y6.2
S255
G1 X31.2 Y6.2
S255
G1 X44.9 Y6.2
S0
G0 X73.1 Y6.2
S255
G1 X73.1 Y6.2
S255
G1 X81.9 Y6.2
S0
G0 X86.4 Y6.2
S255
G1 X86.4 Y6.2
S255
G1 X99.9 Y6.2
S0
G0 X99.9 Y6.3
S255
G1 X86.5 Y6.3
S0
G0 X81.9 Y6.3
S255
G1 X81.9 Y6.3
S255
G1 X73.1 Y6.3
S0
G0 X45.0 Y6.3
S255
G1 X45.0 Y6.3
S255
G1 X44.6 Y6.3
S0
G0 X44.5 Y6.3
S255
G1 X44.5 Y6.3
S255
G1 X32.2 Y6.3
S0
G0 X32.0 Y6.3
S255
G1 X32.0 Y6.3
S255
G1 X31.1 Y6.3
S0
G0 X30.1 Y6.3
S255
G1 X30.1 Y6.3
S255
G1 X12.0 Y6.3
S0
G0 X6.8 Y6.3
S255
G1 X6.8 Y6.3
S255
G1 X5.3 Y6.3
S0
G0 X2.6 Y6.3
S255
G1 X2.6 Y6.3
S255
G1 X0.0 Y6.3
S0
G0 X0.0 Y6.4
S255
G1 X2.6 Y6.4
S0
G0 X5.3 Y6.4
S255
G1 X5.3 Y6.4
S255
G1 X6.8 Y6.4
S0
G0 X12.0 Y6.4
S255
G1 X12.0 Y6.4
S255
G1 X12.9 Y6.4
S0
G0 X13.0 Y6.4
S255
G1 X13.0 Y6.4
S255
G1 X30.0 Y6.4
S0
G0 X31.0 Y6.4
S255
G1 X31.0 Y6.4
S255
G1 X32.2 Y6.4
S0
G0 X32.5 Y6.4
S255
G1 X32.5 Y6.4
S255
G1 X44.6 Y6.4
S0
G0 X73.0 Y6.4
S255
G1 X73.0 Y6.4
S255
G1 X81.9 Y6.4
S0
G0 X86.5 Y6.4
S255
G1 X86.5 Y6.4
S255
G1 X99.9 Y6.4
S0
G0 X99.9 Y6.5
S255
G1 X86.6 Y6.5
S0
G0 X81.9 Y6.5
S255
G1 X81.9 Y6.5
S255
G1 X73.0 Y6.5
S0
G0 X44.6 Y6.5
S255
G1 X44.6 Y6.5
S255
G1 X32.6 Y6.5
S0
G0 X32.3 Y6.5
S255
G1 X32.3 Y6.5
S255
G1 X30.9 Y6.5
S0
G0 X30.0 Y6.5
S255
G1 X30.0 Y6.5
S255
G1 X29.8 Y6.5
S0
G0 X29.6 Y6.5
S255
G1 X29.6 Y6.5
S255
G1 X13.0 Y6.5
S0
G0 X12.9 Y6.5
S255
G1 X12.9 Y6.5
S255
G1 X12.0 Y6.5
S0
G0 X6.7 Y6.5
S255
G1 X6.7 Y6.5
S255
G1 X5.3 Y6.5
S0
G0 X2.6 Y6.5
S255
G1 X2.6 Y6.5
S255
G1 X0.0 Y6.5
S0
G0 X0.0 Y6.6
S255
G1 X2.6 Y6.6
S0
G0 X5.2 Y6.6
S255
G1 X5.2 Y6.6
S255
G1 X6.7 Y6.6
S0
G0 X12.0 Y6.6
S255
G1 X12.0 Y6.6
S255
G1 X12.8 Y6.6
S0
G0 X13.1 Y6.6
S255
G1 X13.1 Y6.6
S255
G1 X29.5 Y6.6
S0
G0 X29.6 Y6.6
S255
G1 X29.6 Y6.6
S255
G1 X29.9 Y6.6
S0
G0 X30.8 Y6.6
S255
G1 X30.8 Y6.6
S255
G1 X32.3 Y6.6
S0
G0 X32.6 Y6.6
S255
G1 X32.6 Y6.6
S255
G1 X44.7 Y6.6
S0
G0 X45.4 Y6.6
S255
G1 X45.4 Y6.6
S255
G1 X45.6 Y6.6
S0
G0 X73.0 Y6.6
S255
G1 X73.0 Y6.6
S255
G1 X81.9 Y6.6
S0
G0 X86.7 Y6.6
S255
G1 X86.7 Y6.6
S255
G1 X99.9 Y6.6
S0
G0 X99.9 Y6.7
S255
G1 X86.8 Y6.7
S0
G0 X81.9 Y6.7
S255
G1 X81.9 Y6.7
S255
G1 X73.0 Y6.7
S0
G0 X45.6 Y6.7
S255
G1 X45.6 Y6.7
S255
G1 X45.4 Y6.7
S0
G0 X44.9 Y6.7
S255
G1 X44.9 Y6.7
S255
G1 X30.8 Y6.7
S0
G0 X29.8 Y6.7
S255
G1 X29.8 Y6.7
S255
G1 X29.6 Y6.7
S0
G0 X29.4 Y6.7
S255
G1 X29.4 Y6.7
S255
G1 X13.1 Y6.7
S0
G0 X12.8 Y6.7
S255
G1 X12.8 Y6.7
S255
G1 X12.0 Y6.7
S0
G0 X6.8 Y6.7
S255
G1 X6.8 Y6.7
S255
G1 X5.2 Y6.7
S0
G0 X2.6 Y6.7
S255
G1 X2.6 Y6.7
S255
G1 X0.0 Y6.7
S0
G0 X0.0 Y6.8
S255
G1 X2.6 Y6.8
S0
G0 X5.2 Y6.8
S255
G1 X5.2 Y6.8
S255
G1 X6.8 Y6.8
S0
G0 X12.0 Y6.8
S255
G1 X12.0 Y6.8
S255
G1 X12.8 Y6.8
S0
G0 X13.2 Y6.8
S255
G1 X13.2 Y6.8
S255
G1 X29.3 Y6.8
S0
G0 X29.6 Y6.8
S255
G1 X29.6 Y6.8
S255
G1 X29.8 Y6.8
S0
G0 X30.7 Y6.8
S255
G1 X30.7 Y6.8
S255
G1 X44.9 Y6.8
S0
G0 X45.4 Y6.8
S255
G1 X45.4 Y6.8
S255
G1 X45.6 Y6.8
S0
G0 X72.9 Y6.8
S255
G1 X72.9 Y6.8
S255
G1 X81.9 Y6.8
S0
G0 X86.9 Y6.8
S255
G1 X86.9 Y6.8
S255
G1 X99.9 Y6.8
S0
G0 X99.9 Y6.9
S255
G1 X87.0 Y6.9
S0
G0 X81.9 Y6.9
S255
G1 X81.9 Y6.9
S255
G1 X72.9 Y6.9
S0
G0 X44.9 Y6.9
S255
G1 X44.9 Y6.9
S255
G1 X32.3 Y6.9
S0
G0 X32.2 Y6.9
S255
G1 X32.2 Y6.9
S255
G1 X30.6 Y6.9
S0
G0 X29.8 Y6.9
S255
G1 X29.8 Y6.9
S255
G1 X29.5 Y6.9
S0
G0 X29.2 Y6.9
S255
G1 X29.2 Y6.9
S255
G1 X13.2 Y6.9
S0
G0 X12.9 Y6.9
S255
G1 X12.9 Y6.9
S255
G1 X12.0 Y6.9
S0
G0 X6.8 Y6.9
S255
G1 X6.8 Y6.9
S255
G1 X5.2 Y6.9
S0
G0 X2.6 Y6.9
S255
G1 X2.6 Y6.9
S255
G1 X0.0 Y6.9
S0
G0 X0.0 Y7.0
S255
G1 X2.6 Y7.0
S0
G0 X5.2 Y7.0
S255
G1 X5.2 Y7.0
S255
G1 X6.8 Y7.0
S0
G0 X12.0 Y7.0
S255
G1 X12.0 Y7.0
S255
G1 X12.9 Y7.0
S0
G0 X13.2 Y7.0
S255
G1 X13.2 Y7.0
S255
G1 X29.2 Y7.0
S0
G0 X30.5 Y7.0
S255
G1 X30.5 Y7.0
S255
G1 X32.1 Y7.0
S0
G0 X32.3 Y7.0
S255
G1 X32.3 Y7.0
S255
G1 X44.9 Y7.0
S0
G0 X72.9 Y7.0
S255
G1 X72.9 Y7.0
S255
G1 X81.9 Y7.0
S0
G0 X87.0 Y7.0
S255
G1 X87.0 Y7.0
S255
G1 X99.9 Y7.0
S0
G0 X99.9 Y7.1
S255
G1 X87.1 Y7.1
S0
G0 X81.9 Y7.1
S255
G1 X81.9 Y7.1
S255
G1 X72.8 Y7.1
S0
G0 X45.6 Y7.1
S255
G1 X45.6 Y7.1
S255
G1 X45.5 Y7.1
S0
G0 X45.0 Y7.1
S255
G1 X45.0 Y7.1
S255
G1 X32.3 Y7.1
S0
G0 X31.9 Y7.1
S255
G1 X31.9 Y7.1
S255
G1 X30.5 Y7.1
S0
G0 X29.1 Y7.1
S255
G1 X29.1 Y7.1
S255
G1 X13.2 Y7.1
S0
G0 X12.9 Y7.1
S255
G1 X12.9 Y7.1
S255
G1 X12.1 Y7.1
S0
G0 X6.8 Y7.1
S255
G1 X6.8 Y7.1
S255
G1 X5.1 Y7.1
S0
G0 X2.6 Y7.1
S255
G1 X2.6 Y7.1
S255
G1 X0.0 Y7.1
S0
G0 X0.0 Y7.2
S255
G1 X2.6 Y7.2
S0
G0 X5.1 Y7.2
S255
G1 X5.1 Y7.2
S255
G1 X6.8 Y7.2
S0
G0 X12.1 Y7.2
S255
G1 X12.1 Y7.2
S255
G1 X12.9 Y7.2
S0
G0 X13.2 Y7.2
S255
G1 X13.2 Y7.2
S255
G1 X29.1 Y7.2
S0
G0 X30.0 Y7.2
S255
G1 X30.0 Y7.2
S255
G1 X30.2 Y7.2
S0
G0 X30.6 Y7.2
S255
G1 X30.6 Y7.2
S255
G1 X31.9 Y7.2
S0
G0 X32.2 Y7.2
S255
G1 X32.2 Y7.2
S255
G1 X45.0 Y7.2
S0
G0 X72.8 Y7.2
S255
G1 X72.8 Y7.2
S255
G1 X81.9 Y7.2
S0
G0 X87.2 Y7.2
S255
G1 X87.2 Y7.2
S255
G1 X99.9 Y7.2
S0
G0 X99.9 Y7.3
S255
G1 X87.3 Y7.3
S0
G0 X82.0 Y7.3
S255
G1 X82.0 Y7.3
S255
G1 X72.8 Y7.3
S0
G0 X45.1 Y7.3
S255
G1 X45.1 Y7.3
S255
G1 X42.3 Y7.3
S0
G0 X42.1 Y7.3
S255
G1 X42.1 Y7.3
S255
G1 X30.6 Y7.3
S0
G0 X30.2 Y7.3
S255
G1 X30.2 Y7.3
S255
G1 X29.8 Y7.3
S0
G0 X29.1 Y7.3
S255
G1 X29.1 Y7.3
S255
G1 X13.2 Y7.3
S0
G0 X12.9 Y7.3
S255
G1 X12.9 Y7.3
S255
G1 X12.1 Y7.3
S0
G0 X6.7 Y7.3
S255
G1 X6.7 Y7.3
S255
G1 X5.1 Y7.3
S0
G0 X2.6 Y7.3
S255
G1 X2.6 Y7.3
S255
G1 X0.0 Y7.3
S0
G0 X0.0 Y7.4
S255
G1 X2.6 Y7.4
S0
G0 X5.1 Y7.4
S255
G1 X5.1 Y7.4
S255
G1 X6.7 Y7.4
S0
G0 X12.1 Y7.4
S255
G1 X12.1 Y7.4
S255
G1 X12.9 Y7.4
S0
G0 X13.2 Y7.4
S255
G1 X13.2 Y7.4
S255
G1 X29.0 Y7.4
S0
G0 X29.7 Y7.4
S255
G1 X29.7 Y7.4
S255
G1 X30.2 Y7.4
S0
G0 X30.5 Y7.4
S255
G1 X30.5 Y7.4
S255
G1 X45.1 Y7.4
S0
G0 X72.8 Y7.4
S255
G1 X72.8 Y7.4
S255
G1 X82.0 Y7.4
S0
G0 X87.3 Y7.4
S255
G1 X87.3 Y7.4
S255
G1 X99.9 Y7.4
S0
G0 X99.9 Y7.5
S255
G1 X87.4 Y7.5
S0
G0 X82.1 Y7.5
S255
G1 X82.1 Y7.5
S255
G1 X72.7 Y7.5
S0
G0 X45.4 Y7.5
S255
G1 X45.4 Y7.5
S255
G1 X30.5 Y7.5
S0
G0 X30.2 Y7.5
S255
G1 X30.2 Y7.5
S255
G1 X29.6 Y7.5
S0
G0 X29.0 Y7.5
S255
G1 X29.0 Y7.5
S255
G1 X13.1 Y7.5
S0
G0 X12.9 Y7.5
S255
G1 X12.9 Y7.5
S255
G1 X12.2 Y7.5
S0
G0 X6.7 Y7.5
S255
G1 X6.7 Y7.5
S255
G1 X5.1 Y7.5
S0
G0 X2.5 Y7.5
S255
G1 X2.5 Y7.5
S255
G1 X0.0 Y7.5
S0
G0 X0.0 Y7.6
S255
G1 X2.5 Y7.6
S0
G0 X5.2 Y7.6
S255
G1 X5.2 Y7.6
S255
G1 X6.7 Y7.6
S0
G0 X12.2 Y7.6
S255
G1 X12.2 Y7.6
S255
G1 X13.0 Y7.6
S0
G0 X13.1 Y7.6
S255
G1 X13.1 Y7.6
S255
G1 X28.9 Y7.6
S0
G0 X29.5 Y7.6
S255
G1 X29.5 Y7.6
S255
G1 X30.0 Y7.6
S0
G0 X30.4 Y7.6
S255
G1 X30.4 Y7.6
S255
G1 X45.4 Y7.6
S0
G0 X72.7 Y7.6
S255
G1 X72.7 Y7.6
S255
G1 X82.1 Y7.6
S0
G0 X87.4 Y7.6
S255
G1 X87.4 Y7.6
S255
G1 X99.9 Y7.6
S0
G0 X99.9 Y7.7
S255
G1 X87.4 Y7.7
S0
G0 X82.2 Y7.7
S255
G1 X82.2 Y7.7
S255
G1 X72.7 Y7.7
S0
G0 X45.4 Y7.7
S255
G1 X45.4 Y7.7
S255
G1 X30.3 Y7.7
S0
G0 X29.9 Y7.7
S255
G1 X29.9 Y7.7
S255
G1 X29.4 Y7.7
S0
G0 X28.8 Y7.7
S255
G1 X28.8 Y7.7
S255
G1 X12.2 Y7.7
S0
G0 X6.7 Y7.7
S255
G1 X6.7 Y7.7
S255
G1 X5.2 Y7.7
S0
G0 X2.5 Y7.7
S255
G1 X2.5 Y7.7
S255
G1 X0.0 Y7.7
S0
G0 X0.0 Y7.8
S255
G1 X2.5 Y7.8
S0
G0 X5.1 Y7.8
S255
G1 X5.1 Y7.8
S255
G1 X6.7 Y7.8
S0
G0 X12.2 Y7.8
S255
G1 X12.2 Y7.8
S255
G1 X28.8 Y7.8
S0
G0 X29.3 Y7.8
S255
G1 X29.3 Y7.8
S255
G1 X29.7 Y7.8
S0
G0 X30.2 Y7.8
S255
G1 X30.2 Y7.8
S255
G1 X30.6 Y7.8
S0
G0 X30.7 Y7.8
S255
G1 X30.7 Y7.8
S255
G1 X45.4 Y7.8
S0
G0 X72.6 Y7.8
S255
G1 X72.6 Y7.8
S255
G1 X82.3 Y7.8
S0
G0 X87.5 Y7.8
S255
G1 X87.5 Y7.8
S255
G1 X99.9 Y7.8
S0
G0 X99.9 Y7.9
S255
G1 X87.6 Y7.9
S0
G0 X82.3 Y7.9
S255
G1 X82.3 Y7.9
S255
G1 X72.6 Y7.9
S0
G0 X45.5 Y7.9
S255
G1 X45.5 Y7.9
S255
G1 X30.7 Y7.9
S0
G0 X30.5 Y7.9
S255
G1 X30.5 Y7.9
S255
G1 X30.1 Y7.9
S0
G0 X29.6 Y7.9
S255
G1 X29.6 Y7.9
S255
G1 X29.2 Y7.9
S0
G0 X28.7 Y7.9
S255
G1 X28.7 Y7.9
S255
G1 X12.2 Y7.9
S0
G0 X6.7 Y7.9
S255
G1 X6.7 Y7.9
S255
G1 X5.1 Y7.9
S0
G0 X2.5 Y7.9
S255
G1 X2.5 Y7.9
S255
G1 X0.0 Y7.9
S0
G0 X0.0 Y8.0
S255
G1 X2.5 Y8.0
S0
G0 X5.1 Y8.0
S255
G1 X5.1 Y8.0
S255
G1 X6.7 Y8.0
S0
G0 X12.2 Y8.0
S255
G1 X12.2 Y8.0
S255
G1 X29.4 Y8.0
S0
G0 X30.0 Y8.0
S255
G1 X30.0 Y8.0
S255
G1 X30.5 Y8.0
S0
G0 X30.7 Y8.0
S255
G1 X30.7 Y8.0
S255
G1 X45.6 Y8.0
S0
G0 X72.6 Y8.0
S255
G1 X72.6 Y8.0
S255
G1 X82.3 Y8.0
S0
G0 X87.6 Y8.0
S255
G1 X87.6 Y8.0
S255
G1 X99.9 Y8.0
S0
G0 X99.9 Y8.1
S255
G1 X87.7 Y8.1
S0
G0 X82.3 Y8.1
S255
G1 X82.3 Y8.1
S255
G1 X72.5 Y8.1
S0
G0 X45.6 Y8.1
S255
G1 X45.6 Y8.1
S255
G1 X31.7 Y8.1
S0
G0 X31.6 Y8.1
S255
G1 X31.6 Y8.1
S255
G1 X30.0 Y8.1
S0
G0 X29.1 Y8.1
S255
G1 X29.1 Y8.1
S255
G1 X13.1 Y8.1
S0
G0 X13.0 Y8.1
S255
G1 X13.0 Y8.1
S255
G1 X12.2 Y8.1
S0
G0 X6.7 Y8.1
S255
G1 X6.7 Y8.1
S255
G1 X5.0 Y8.1
S0
G0 X2.5 Y8.1
S255
G1 X2.5 Y8.1
S255
G1 X0.0 Y8.1
S0
G0 X0.0 Y8.2
S255
G1 X2.5 Y8.2
S0
G0 X5.0 Y8.2
S255
G1 X5.0 Y8.2
S255
G1 X6.8 Y8.2
S0
G0 X12.3 Y8.2
S255
G1 X12.3 Y8.2
S255
G1 X13.0 Y8.2
S0
G0 X13.1 Y8.2
S255
G1 X13.1 Y8.2
S255
G1 X28.5 Y8.2
S0
G0 X28.6 Y8.2
S255
G1 X28.6 Y8.2
S255
G1 X29.1 Y8.2
S0
G0 X29.9 Y8.2
S255
G1 X29.9 Y8.2
S255
G1 X31.5 Y8.2
S0
G0 X31.7 Y8.2
S255
G1 X31.7 Y8.2
S255
G1 X45.7 Y8.2
S0
G0 X72.5 Y8.2
S255
G1 X72.5 Y8.2
S255
G1 X82.1 Y8.2
S0
G0 X87.7 Y8.2
S255
G1 X87.7 Y8.2
S255
G1 X99.9 Y8.2
S0
G0 X99.9 Y8.3
S255
G1 X87.8 Y8.3
S0
G0 X81.9 Y8.3
S255
G1 X81.9 Y8.3
S255
G1 X72.5 Y8.3
S0
G0 X45.8 Y8.3
S255
G1 X45.8 Y8.3
S255
G1 X31.7 Y8.3
S0
G0 X31.4 Y8.3
S255
G1 X31.4 Y8.3
S255
G1 X29.8 Y8.3
S0
G0 X29.0 Y8.3
S255
G1 X29.0 Y8.3
S255
G1 X28.6 Y8.3
S0
G0 X28.4 Y8.3
S255
G1 X28.4 Y8.3
S255
G1 X13.1 Y8.3
S0
G0 X13.0 Y8.3
S255
G1 X13.0 Y8.3
S255
G1 X12.3 Y8.3
S0
G0 X6.8 Y8.3
S255
G1 X6.8 Y8.3
S255
G1 X5.0 Y8.3
S0
G0 X2.5 Y8.3
S255
G1 X2.5 Y8.3
S255
G1 X0.0 Y8.3
S0
G0 X0.0 Y8.4
S255
G1 X2.4 Y8.4
S0
G0 X5.1 Y8.4
S255
G1 X5.1 Y8.4
S255
G1 X6.7 Y8.4
S0
G0 X12.4 Y8.4
S255
G1 X12.4 Y8.4
S255
G1 X13.0 Y8.4
S0
G0 X13.1 Y8.4
S255
G1 X13.1 Y8.4
S255
G1 X28.3 Y8.4
S0
G0 X28.5 Y8.4
S255
G1 X28.5 Y8.4
S255
G1 X28.9 Y8.4
S0
G0 X29.4 Y8.4
S255
G1 X29.4 Y8.4
S255
G1 X31.4 Y8.4
S0
G0 X31.6 Y8.4
S255
G1 X31.6 Y8.4
S255
G1 X45.9 Y8.4
S0
G0 X72.5 Y8.4
S255
G1 X72.5 Y8.4
S255
G1 X81.5 Y8.4
S0
G0 X87.8 Y8.4
S255
G1 X87.8 Y8.4
S255
G1 X99.9 Y8.4
S0
G0 X99.9 Y8.5
S255
G1 X87.9 Y8.5
S0
G0 X81.4 Y8.5
S255
G1 X81.4 Y8.5
S255
G1 X72.4 Y8.5
S0
G0 X45.9 Y8.5
S255
G1 X45.9 Y8.5
S255
G1 X29.4 Y8.5
S0
G0 X28.8 Y8.5
S255
G1 X28.8 Y8.5
S255
G1 X28.5 Y8.5
S0
G0 X28.3 Y8.5
S255
G1 X28.3 Y8.5
S255
G1 X13.1 Y8.5
S0
G0 X13.0 Y8.5
S255
G1 X13.0 Y8.5
S255
G1 X12.4 Y8.5
S0
G0 X6.7 Y8.5
S255
G1 X6.7 Y8.5
S255
G1 X5.0 Y8.5
S0
G0 X2.4 Y8.5
S255
G1 X2.4 Y8.5
S255
G1 X0.0 Y8.5
S0
G0 X0.0 Y8.6
S255
G1 X2.5 Y8.6
S0
G0 X5.0 Y8.6
S255
G1 X5.0 Y8.6
S255
G1 X6.7 Y8.6
S0
G0 X12.4 Y8.6
S255
G1 X12.4 Y8.6
S255
G1 X28.3 Y8.6
S0
G0 X28.4 Y8.6
S255
G1 X28.4 Y8.6
S255
G1 X28.8 Y8.6
S0
G0 X29.3 Y8.6
S255
G1 X29.3 Y8.6
S255
G1 X32.3 Y8.6
S0
G0 X32.5 Y8.6
S255
G1 X32.5 Y8.6
S255
G1 X45.9 Y8.6
S0
G0 X72.4 Y8.6
S255
G1 X72.4 Y8.6
S255
G1 X81.3 Y8.6
S0
G0 X87.9 Y8.6
S255
G1 X87.9 Y8.6
S255
G1 X99.9 Y8.6
S0
G0 X99.9 Y8.7
S255
G1 X88.0 Y8.7
S0
G0 X81.1 Y8.7
S255
G1 X81.1 Y8.7
S255
G1 X72.4 Y8.7
S0
G0 X46.0 Y8.7
S255
G1 X46.0 Y8.7
S255
G1 X32.6 Y8.7
S0
G0 X32.3 Y8.7
S255
G1 X32.3 Y8.7
S255
G1 X29.2 Y8.7
S0
G0 X28.7 Y8.7
S255
G1 X28.7 Y8.7
S255
G1 X28.4 Y8.7
S0
G0 X28.3 Y8.7
S255
G1 X28.3 Y8.7
S255
G1 X12.5 Y8.7
S0
G0 X6.7 Y8.7
S255
G1 X6.7 Y8.7
S255
G1 X5.0 Y8.7
S0
G0 X2.5 Y8.7
S255
G1 X2.5 Y8.7
S255
G1 X0.0 Y8.7
S0
G0 X0.0 Y8.8
S255
G1 X2.5 Y8.8
S0
G0 X5.0 Y8.8
S255
G1 X5.0 Y8.8
S255
G1 X6.7 Y8.8
S0
G0 X12.5 Y8.8
S255
G1 X12.5 Y8.8
S255
G1 X28.2 Y8.8
S0
G0 X28.4 Y8.8
S255
G1 X28.4 Y8.8
S255
G1 X28.6 Y8.8
S0
G0 X29.1 Y8.8
S255
G1 X29.1 Y8.8
S255
G1 X32.3 Y8.8
S0
G0 X32.7 Y8.8
S255
G1 X32.7 Y8.8
S255
G1 X46.1 Y8.8
S0
G0 X72.4 Y8.8
S255
G1 X72.4 Y8.8
S255
G1 X81.0 Y8.8
S0
G0 X88.1 Y8.8
S255
G1 X88.1 Y8.8
S255
G1 X99.9 Y8.8
S0
G0 X99.9 Y8.9
S255
G1 X88.2 Y8.9
S0
G0 X80.9 Y8.9
S255
G1 X80.9 Y8.9
S255
G1 X72.3 Y8.9
S0
G0 X46.1 Y8.9
S255
G1 X46.1 Y8.9
S255
G1 X32.7 Y8.9
S0
G0 X32.4 Y8.9
S255
G1 X32.4 Y8.9
S255
G1 X29.0 Y8.9
S0
G0 X28.6 Y8.9
S255
G1 X28.6 Y8.9
S255
G1 X28.4 Y8.9
S0
G0 X28.1 Y8.9
S255
G1 X28.1 Y8.9
S255
G1 X12.5 Y8.9
S0
G0 X6.7 Y8.9
S255
G1 X6.7 Y8.9
S255
G1 X5.0 Y8.9
S0
G0 X2.5 Y8.9
S255
G1 X2.5 Y8.9
S255
G1 X0.0 Y8.9
S0
G0 X0.0 Y9.0
S255
G1 X2.5 Y9.0
S0
G0 X4.9 Y9.0
S255
G1 X4.9 Y9.0
S255
G1 X6.7 Y9.0
S0
G0 X12.5 Y9.0
S255
G1 X12.5 Y9.0
S255
G1 X28.1 Y9.0
S0
G0 X28.9 Y9.0
S255
G1 X28.9 Y9.0
S255
G1 X32.5 Y9.0
S0
G0 X32.7 Y9.0
S255
G1 X32.7 Y9.0
S255
G1 X33.7 Y9.0
S0
G0 X33.8 Y9.0
S255
G1 X33.8 Y9.0
S255
G1 X46.1 Y9.0
S0
G0 X72.3 Y9.0
S255
G1 X72.3 Y9.0
S255
G1 X80.4 Y9.0
S0
G0 X80.6 Y9.0
S255
G1 X80.6 Y9.0
S255
G1 X80.7 Y9.0
S0
G0 X88.2 Y9.0
S255
G1 X88.2 Y9.0
S255
G1 X99.9 Y9.0
S0
G0 X99.9 Y9.1
S255
G1 X88.2 Y9.1
S0
G0 X83.9 Y9.1
S255
G1 X83.9 Y9.1
S255
G1 X83.4 Y9.1
S0
G0 X80.3 Y9.1
S255
G1 X80.3 Y9.1
S255
G1 X72.3 Y9.1
S0
G0 X46.1 Y9.1
S255
G1 X46.1 Y9.1
S255
G1 X33.8 Y9.1
S0
G0 X33.7 Y9.1
S255
G1 X33.7 Y9.1
S255
G1 X32.7 Y9.1
S0
G0 X32.5 Y9.1
S255
G1 X32.5 Y9.1
S255
G1 X28.8 Y9.1
S0
G0 X28.1 Y9.1
S255
G1 X28.1 Y9.1
S255
G1 X12.7 Y9.1
S0
G0 X6.7 Y9.1
S255
G1 X6.7 Y9.1
S255
G1 X4.9 Y9.1
S0
G0 X2.5 Y9.1
S255
G1 X2.5 Y9.1
S255
G1 X0.0 Y9.1
S0
G0 X0.0 Y9.2
S255
G1 X2.5 Y9.2
S0
G0 X4.9 Y9.2
S255
G1 X4.9 Y9.2
S255
G1 X6.7 Y9.2
S0
G0 X12.5 Y9.2
S255
G1 X12.5 Y9.2
S255
G1 X12.6 Y9.2
S0
G0 X12.7 Y9.2
S255
G1 X12.7 Y9.2
S255
G1 X28.0 Y9.2
S0
G0 X28.2 Y9.2
S255
G1 X28.2 Y9.2
S255
G1 X28.4 Y9.2
S0
G0 X28.8 Y9.2
S255
G1 X28.8 Y9.2
S255
G1 X32.6 Y9.2
S0
G0 X32.7 Y9.2
S255
G1 X32.7 Y9.2
S255
G1 X46.1 Y9.2
S0
G0 X72.3 Y9.2
S255
G1 X72.3 Y9.2
S255
G1 X80.3 Y9.2
S0
G0 X83.5 Y9.2
S255
G1 X83.5 Y9.2
S255
G1 X84.1 Y9.2
S0
G0 X88.3 Y9.2
S255
G1 X88.3 Y9.2
S255
G1 X99.9 Y9.2
S0
G0 X99.9 Y9.3
S255
G1 X88.3 Y9.3
S0
G0 X84.2 Y9.3
S255
G1 X84.2 Y9.3
S255
G1 X83.5 Y9.3
S0
G0 X80.1 Y9.3
S255
G1 X80.1 Y9.3
S255
G1 X79.8 Y9.3
S0
G0 X79.6 Y9.3
S255
G1 X79.6 Y9.3
S255
G1 X72.3 Y9.3
S0
G0 X46.1 Y9.3
S255
G1 X46.1 Y9.3
S255
G1 X32.7 Y9.3
S0
G0 X32.6 Y9.3
S255
G1 X32.6 Y9.3
S255
G1 X28.7 Y9.3
S0
G0 X28.4 Y9.3
S255
G1 X28.4 Y9.3
S255
G1 X28.2 Y9.3
S0
G0 X28.0 Y9.3
S255
G1 X28.0 Y9.3
S255
G1 X12.7 Y9.3
S0
G0 X12.6 Y9.3
S255
G1 X12.6 Y9.3
S255
G1 X12.4 Y9.3
S0
G0 X6.7 Y9.3
S255
G1 X6.7 Y9.3
S255
G1 X4.9 Y9.3
S0
G0 X2.5 Y9.3
S255
G1 X2.5 Y9.3
S255
G1 X0.0 Y9.3
S0
G0 X0.0 Y9.4
S255
G1 X2.5 Y9.4
S0
G0 X4.8 Y9.4
S255
G1 X4.8 Y9.4
S255
G1 X6.7 Y9.4
S0
G0 X12.3 Y9.4
S255
G1 X12.3 Y9.4
S255
G1 X12.6 Y9.4
S0
G0 X12.8 Y9.4
S255
G1 X12.8 Y9.4
S255
G1 X28.0 Y9.4
S0
G0 X28.1 Y9.4
S255
G1 X28.1 Y9.4
S255
G1 X28.4 Y9.4
S0
G0 X28.7 Y9.4
S255
G1 X28.7 Y9.4
S255
G1 X33.8 Y9.4
S0
G0 X33.9 Y9.4
S255
G1 X33.9 Y9.4
S255
G1 X46.2 Y9.4
S0
G0 X72.3 Y9.4
S255
G1 X72.3 Y9.4
S255
G1 X78.7 Y9.4
S0
G0 X78.8 Y9.4
S255
G1 X78.8 Y9.4
S255
G1 X79.5 Y9.4
S0
G0 X79.8 Y9.4
S255
G1 X79.8 Y9.4
S255
G1 X80.0 Y9.4
S0
G0 X83.6 Y9.4
S255
G1 X83.6 Y9.4
S255
G1 X83.9 Y9.4
S0
G0 X88.3 Y9.4
S255
G1 X88.3 Y9.4
S255
G1 X99.9 Y9.4
S0
G0 X99.9 Y9.5
S255
G1 X88.4 Y9.5
S0
G0 X78.6 Y9.5
S255
G1 X78.6 Y9.5
S255
G1 X72.3 Y9.5
S0
G0 X46.2 Y9.5
S255
G1 X46.2 Y9.5
S255
G1 X34.0 Y9.5
S0
G0 X33.8 Y9.5
S255
G1 X33.8 Y9.5
S255
G1 X28.6 Y9.5
S0
G0 X28.4 Y9.5
S255
G1 X28.4 Y9.5
S255
G1 X28.1 Y9.5
S0
G0 X28.0 Y9.5
S255
G1 X28.0 Y9.5
S255
G1 X12.9 Y9.5
S0
G0 X12.6 Y9.5
S255
G1 X12.6 Y9.5
S255
G1 X12.3 Y9.5
S0
G0 X6.6 Y9.5
S255
G1 X6.6 Y9.5
S255
G1 X4.8 Y9.5
S0
G0 X2.5 Y9.5
S255
G1 X2.5 Y9.5
S255
G1 X0.0 Y9.5
S0
G0 X0.0 Y9.6
S255
G1 X2.5 Y9.6
S0
G0 X4.8 Y9.6
S255
G1 X4.8 Y9.6
S255
G1 X6.6 Y9.6
S0
G0 X12.3 Y9.6
S255
G1 X12.3 Y9.6
S255
G1 X12.6 Y9.6
S0
G0 X12.9 Y9.6
S255
G1 X12.9 Y9.6
S255
G1 X28.4 Y9.6
S0
G0 X28.6 Y9.6
S255
G1 X28.6 Y9.6
S255
G1 X33.7 Y9.6
S0
G0 X34.0 Y9.6
S255
G1 X34.0 Y9.6
S255
G1 X43.1 Y9.6
S0
G0 X43.3 Y9.6
S255
G1 X43.3 Y9.6
S255
G1 X46.2 Y9.6
S0
G0 X72.3 Y9.6
S255
G1 X72.3 Y9.6
S255
G1 X78.6 Y9.6
S0
G0 X88.4 Y9.6
S255
G1 X88.4 Y9.6
S255
G1 X99.9 Y9.6
S0
G0 X99.9 Y9.7
S255
G1 X88.5 Y9.7
S0
G0 X78.3 Y9.7
S255
G1 X78.3 Y9.7
S255
G1 X72.3 Y9.7
S0
G0 X46.3 Y9.7
S255
G1 X46.3 Y9.7
S255
G1 X34.0 Y9.7
S0
G0 X33.7 Y9.7
S255
G1 X33.7 Y9.7
S255
G1 X28.5 Y9.7
S0
G0 X28.2 Y9.7
S255
G1 X28.2 Y9.7
S255
G1 X13.0 Y9.7
S0
G0 X12.5 Y9.7
S255
G1 X12.5 Y9.7
S255
G1 X12.3 Y9.7
S0
G0 X6.6 Y9.7
S255
G1 X6.6 Y9.7
S255
G1 X4.8 Y9.7
S0
G0 X2.4 Y9.7
S255
G1 X2.4 Y9.7
S255
G1 X0.0 Y9.7
S0
G0 X0.0 Y9.8
S255
G1 X2.4 Y9.8
S0
G0 X4.7 Y9.8
S255
G1 X4.7 Y9.8
S255
G1 X6.6 Y9.8
S0
G0 X13.0 Y9.8
S255
G1 X13.0 Y9.8
S255
G1 X28.2 Y9.8
S0
G0 X28.4 Y9.8
S255
G1 X28.4 Y9.8
S255
G1 X31.1 Y9.8
S0
G0 X31.4 Y9.8
S255
G1 X31.4 Y9.8
S255
G1 X33.7 Y9.8
S0
G0 X34.0 Y9.8
S255
G1 X34.0 Y9.8
S255
G1 X46.3 Y9.8
S0
G0 X72.5 Y9.8
S255
G1 X72.5 Y9.8
S255
G1 X77.6 Y9.8
S0
G0 X88.5 Y9.8
S255
G1 X88.5 Y9.8
S255
G1 X99.9 Y9.8
S0
G0 X99.9 Y9.9
S255
G1 X88.5 Y9.9
S0
G0 X77.1 Y9.9
S255
G1 X77.1 Y9.9
S255
G1 X72.5 Y9.9
S0
G0 X46.5 Y9.9
S255
G1 X46.5 Y9.9
S255
G1 X34.0 Y9.9
S0
G0 X33.7 Y9.9
S255
G1 X33.7 Y9.9
S255
G1 X31.4 Y9.9
S0
G0 X31.0 Y9.9
S255
G1 X31.0 Y9.9
S255
G1 X13.0 Y9.9
S0
G0 X12.4 Y9.9
S255
G1 X12.4 Y9.9
S255
G1 X12.3 Y9.9
S0
G0 X6.7 Y9.9
S255
G1 X6.7 Y9.9
S255
G1 X4.8 Y9.9
S0
G0 X2.3 Y9.9
S255
G1 X2.3 Y9.9
S255
G1 X0.0 Y9.9
S0
G0 X0.0 Y10.0
S255
G1 X2.3 Y10.0
S0
G0 X4.8 Y10.0
S255
G1 X4.8 Y10.0
S255
G1 X6.7 Y10.0
S0
G0 X12.2 Y10.0
S255
G1 X12.2 Y10.0
S255
G1 X12.4 Y10.0
S0
G0 X13.0 Y10.0
S255
G1 X13.0 Y10.0
S255
G1 X31.0 Y10.0
S0
G0 X31.3 Y10.0
S255
G1 X31.3 Y10.0
S255
G1 X33.6 Y10.0
S0
G0 X34.0 Y10.0
S255
G1 X34.0 Y10.0
S255
G1 X43.3 Y10.0
S0
G0 X43.4 Y10.0
S255
G1 X43.4 Y10.0
S255
G1 X46.5 Y10.0
S0
G0 X72.5 Y10.0
S255
G1 X72.5 Y10.0
S255
G1 X76.8 Y10.0
S0
G0 X88.5 Y10.0
S255
G1 X88.5 Y10.0
S255
G1 X99.9 Y10.0
S0
G0 X99.9 Y10.1
S255
G1 X88.5 Y10.1
S0
G0 X76.8 Y10.1
S255
G1 X76.8 Y10.1
S255
G1 X76.6 Y10.1
S0
G0 X76.5 Y10.1
S255
G1 X76.5 Y10.1
S255
G1 X72.6 Y10.1
S0
G0 X46.5 Y10.1
S255
G1 X46.5 Y10.1
S255
G1 X43.5 Y10.1
S0
G0 X43.3 Y10.1
S255
G1 X43.3 Y10.1
S255
G1 X34.1 Y10.1
S0
G0 X33.5 Y10.1
S255
G1 X33.5 Y10.1
S255
G1 X31.3 Y10.1
S0
G0 X30.9 Y10.1
S255
G1 X30.9 Y10.1
S255
G1 X13.0 Y10.1
S0
G0 X12.4 Y10.1
S255
G1 X12.4 Y10.1
S255
G1 X12.3 Y10.1
S0
G0 X6.7 Y10.1
S255
G1 X6.7 Y10.1
S255
G1 X4.8 Y10.1
S0
G0 X2.3 Y10.1
S255
G1 X2.3 Y10.1
S255
G1 X0.0 Y10.1
S0
G0 X0.0 Y10.2
S255
G1 X2.3 Y10.2
S0
G0 X4.8 Y10.2
S255
G1 X4.8 Y10.2
S255
G1 X6.6 Y10.2
S0
G0 X13.0 Y10.2
S255
G1 X13.0 Y10.2
S255
G1 X30.9 Y10.2
S0
G0 X31.3 Y10.2
S255
G1 X31.3 Y10.2
S255
G1 X33.4 Y10.2
S0
G0 X34.2 Y10.2
S255
G1 X34.2 Y10.2
S255
G1 X43.2 Y10.2
S0
G0 X43.6 Y10.2
S255
G1 X43.6 Y10.2
S255
G1 X46.5 Y10.2
S0
G0 X72.7 Y10.2
S255
G1 X72.7 Y10.2
S255
G1 X76.2 Y10.2
S0
G0 X76.7 Y10.2
S255
G1 X76.7 Y10.2
S255
G1 X76.8 Y10.2
S0
G0 X88.6 Y10.2
S255
G1 X88.6 Y10.2
S255
G1 X99.9 Y10.2
S0
G0 X99.9 Y10.3
S255
G1 X88.7 Y10.3
S0
G0 X76.0 Y10.3
S255
G1 X76.0 Y10.3
S255
G1 X72.8 Y10.3
S0
G0 X72.2 Y10.3
S255
G1 X72.2 Y10.3
S255
G1 X72.0 Y10.3
S0
G0 X46.7 Y10.3
S255
G1 X46.7 Y10.3
S255
G1 X43.5 Y10.3
S0
G0 X43.3 Y10.3
S255
G1 X43.3 Y10.3
S255
G1 X34.2 Y10.3
S0
G0 X33.3 Y10.3
S255
G1 X33.3 Y10.3
S255
G1 X31.3 Y10.3
S0
G0 X30.8 Y10.3
S255
G1 X30.8 Y10.3
S255
G1 X13.0 Y10.3
S0
G0 X6.6 Y10.3
S255
G1 X6.6 Y10.3
S255
G1 X4.7 Y10.3
S0
G0 X2.4 Y10.3
S255
G1 X2.4 Y10.3
S255
G1 X0.0 Y10.3
S0
G0 X0.0 Y10.4
S255
G1 X2.4 Y10.4
S0
G0 X4.7 Y10.4
S255
G1 X4.7 Y10.4
S255
G1 X6.6 Y10.4
S0
G0 X13.0 Y10.4
S255
G1 X13.0 Y10.4
S255
G1 X30.7 Y10.4
S0
G0 X31.1 Y10.4
S255
G1 X31.1 Y10.4
S255
G1 X33.0 Y10.4
S0
G0 X33.1 Y10.4
S255
G1 X33.1 Y10.4
S255
G1 X33.2 Y10.4
S0
G0 X34.3 Y10.4
S255
G1 X34.3 Y10.4
S255
G1 X46.7 Y10.4
S0
G0 X72.0 Y10.4
S255
G1 X72.0 Y10.4
S255
G1 X72.1 Y10.4
S0
G0 X72.8 Y10.4
S255
G1 X72.8 Y10.4
S255
G1 X75.4 Y10.4
S0
G0 X75.7 Y10.4
S255
G1 X75.7 Y10.4
S255
G1 X75.9 Y10.4
S0
G0 X88.7 Y10.4
S255
G1 X88.7 Y10.4
S255
G1 X99.9 Y10.4
S0
G0 X99.9 Y10.5
S255
G1 X88.7 Y10.5
S0
G0 X75.9 Y10.5
S255
G1 X75.9 Y10.5
S255
G1 X75.7 Y10.5
S0
G0 X75.3 Y10.5
S255
G1 X75.3 Y10.5
S255
G1 X72.8 Y10.5
S0
G0 X72.1 Y10.5
S255
G1 X72.1 Y10.5
S255
G1 X71.9 Y10.5
S0
G0 X46.8 Y10.5
S255
G1 X46.8 Y10.5
S255
G1 X43.4 Y10.5
S0
G0 X43.3 Y10.5
S255
G1 X43.3 Y10.5
S255
G1 X34.4 Y10.5
S0
G0 X33.2 Y10.5
S255
G1 X33.2 Y10.5
S255
G1 X33.1 Y10.5
S0
G0 X33.0 Y10.5
S255
G1 X33.0 Y10.5
S255
G1 X31.0 Y10.5
S0
G0 X30.6 Y10.5
S255
G1 X30.6 Y10.5
S255
G1 X13.0 Y10.5
S0
G0 X6.6 Y10.5
S255
G1 X6.6 Y10.5
S255
G1 X4.7 Y10.5
S0
G0 X2.4 Y10.5
S255
G1 X2.4 Y10.5
S255
G1 X0.0 Y10.5
S0
G0 X0.0 Y10.6
S255
G1 X2.4 Y10.6
S0
G0 X4.8 Y10.6
S255
G1 X4.8 Y10.6
S255
G1 X6.6 Y10.6
S0
G0 X13.0 Y10.6
S255
G1 X13.0 Y10.6
S255
G1 X30.7 Y10.6
S0
G0 X31.0 Y10.6
S255
G1 X31.0 Y10.6
S255
G1 X32.9 Y10.6
S0
G0 X33.1 Y10.6
S255
G1 X33.1 Y10.6
S255
G1 X33.2 Y10.6
S0
G0 X34.4 Y10.6
S255
G1 X34.4 Y10.6
S255
G1 X43.3 Y10.6
S0
G0 X43.5 Y10.6
S255
G1 X43.5 Y10.6
S255
G1 X46.9 Y10.6
S0
G0 X71.9 Y10.6
S255
G1 X71.9 Y10.6
S255
G1 X72.1 Y10.6
S0
G0 X73.1 Y10.6
S255
G1 X73.1 Y10.6
S255
G1 X75.2 Y10.6
S0
G0 X75.7 Y10.6
S255
G1 X75.7 Y10.6
S255
G1 X75.8 Y10.6
S0
G0 X88.7 Y10.6
S255
G1 X88.7 Y10.6
S255
G1 X99.9 Y10.6
S0
G0 X99.9 Y10.7
S255
G1 X88.8 Y10.7
S0
G0 X74.9 Y10.7
S255
G1 X74.9 Y10.7
S255
G1 X73.1 Y10.7
S0
G0 X72.1 Y10.7
S255
G1 X72.1 Y10.7
S255
G1 X71.8 Y10.7
S0
G0 X46.9 Y10.7
S255
G1 X46.9 Y10.7
S255
G1 X43.5 Y10.7
S0
G0 X43.4 Y10.7
S255
G1 X43.4 Y10.7
S255
G1 X34.5 Y10.7
S0
G0 X33.1 Y10.7
S255
G1 X33.1 Y10.7
S255
G1 X30.9 Y10.7
S0
G0 X30.7 Y10.7
S255
G1 X30.7 Y10.7
S255
G1 X12.9 Y10.7
S0
G0 X6.6 Y10.7
S255
G1 X6.6 Y10.7
S255
G1 X4.8 Y10.7
S0
G0 X2.4 Y10.7
S255
G1 X2.4 Y10.7
S255
G1 X0.0 Y10.7
S0
G0 X0.0 Y10.8
S255
G1 X2.4 Y10.8
S0
G0 X4.8 Y10.8
S255
G1 X4.8 Y10.8
S255
G1 X6.6 Y10.8
S0
G0 X12.9 Y10.8
S255
G1 X12.9 Y10.8
S255
G1 X30.0 Y10.8
S0
G0 X30.2 Y10.8
S255
G1 X30.2 Y10.8
S255
G1 X30.7 Y10.8
S0
G0 X30.9 Y10.8
S255
G1 X30.9 Y10.8
S255
G1 X32.7 Y10.8
S0
G0 X32.8 Y10.8
S255
G1 X32.8 Y10.8
S255
G1 X33.1 Y10.8
S0
G0 X33.6 Y10.8
S255
G1 X33.6 Y10.8
S255
G1 X34.0 Y10.8
S0
G0 X34.5 Y10.8
S255
G1 X34.5 Y10.8
S255
G1 X47.0 Y10.8
S0
G0 X71.8 Y10.8
S255
G1 X71.8 Y10.8
S255
G1 X72.2 Y10.8
S0
G0 X73.2 Y10.8
S255
G1 X73.2 Y10.8
S255
G1 X74.1 Y10.8
S0
G0 X88.8 Y10.8
S255
G1 X88.8 Y10.8
S255
G1 X99.9 Y10.8
S0
G0 X99.9 Y10.9
S255
G1 X88.8 Y10.9
S0
G0 X73.9 Y10.9
S255
G1 X73.9 Y10.9
S255
G1 X73.2 Y10.9
S0
G0 X72.2 Y10.9
S255
G1 X72.2 Y10.9
S255
G1 X71.8 Y10.9
S0
G0 X47.0 Y10.9
S255
G1 X47.0 Y10.9
S255
G1 X34.5 Y10.9
S0
G0 X34.1 Y10.9
S255
G1 X34.1 Y10.9
S255
G1 X33.5 Y10.9
S0
G0 X33.1 Y10.9
S255
G1 X33.1 Y10.9
S255
G1 X32.7 Y10.9
S0
G0 X32.6 Y10.9
S255
G1 X32.6 Y10.9
S255
G1 X30.3 Y10.9
S0
G0 X30.0 Y10.9
S255
G1 X30.0 Y10.9
S255
G1 X29.6 Y10.9
S0
G0 X29.2 Y10.9
S255
G1 X29.2 Y10.9
S255
G1 X12.9 Y10.9
S0
G0 X6.6 Y10.9
S255
G1 X6.6 Y10.9
S255
G1 X4.7 Y10.9
S0
G0 X2.3 Y10.9
S255
G1 X2.3 Y10.9
S255
G1 X0.0 Y10.9
S0
G0 X0.0 Y11.0
S255
G1 X2.3 Y11.0
S0
G0 X4.7 Y11.0
S255
G1 X4.7 Y11.0
S255
G1 X6.6 Y11.0
S0
G0 X12.9 Y11.0
S255
G1 X12.9 Y11.0
S255
G1 X29.0 Y11.0
S0
G0 X29.6 Y11.0
S255
G1 X29.6 Y11.0
S255
G1 X30.0 Y11.0
S0
G0 X30.3 Y11.0
S255
G1 X30.3 Y11.0
S255
G1 X30.6 Y11.0
S0
G0 X30.7 Y11.0
S255
G1 X30.7 Y11.0
S255
G1 X32.6 Y11.0
S0
G0 X32.7 Y11.0
S255
G1 X32.7 Y11.0
S255
G1 X33.0 Y11.0
S0
G0 X33.4 Y11.0
S255
G1 X33.4 Y11.0
S255
G1 X33.7 Y11.0
S0
G0 X33.8 Y11.0
S255
G1 X33.8 Y11.0
S255
G1 X34.2 Y11.0
S0
G0 X34.6 Y11.0
S255
G1 X34.6 Y11.0
S255
G1 X43.3 Y11.0
S0
G0 X43.4 Y11.0
S255
G1 X43.4 Y11.0
S255
G1 X43.9 Y11.0
S0
G0 X44.0 Y11.0
S255
G1 X44.0 Y11.0
S255
G1 X47.0 Y11.0
S0
G0 X71.7 Y11.0
S255
G1 X71.7 Y11.0
S255
G1 X72.2 Y11.0
S0
G0 X73.3 Y11.0
S255
G1 X73.3 Y11.0
S255
G1 X73.7 Y11.0
S0
G0 X88.9 Y11.0
S255
G1 X88.9 Y11.0
S255
G1 X99.9 Y11.0
S0
G0 X99.9 Y11.1
S255
G1 X88.9 Y11.1
S0
G0 X81.1 Y11.1
S255
G1 X81.1 Y11.1
S255
G1 X81.0 Y11.1
S0
G0 X73.6 Y11.1
S255
G1 X73.6 Y11.1
S255
G1 X73.3 Y11.1
S0
G0 X72.2 Y11.1
S255
G1 X72.2 Y11.1
S255
G1 X71.7 Y11.1
S0
G0 X47.0 Y11.1
S255
G1 X47.0 Y11.1
S255
G1 X34.6 Y11.1
S0
G0 X34.3 Y11.1
S255
G1 X34.3 Y11.1
S255
G1 X33.3 Y11.1
S0
G0 X33.0 Y11.1
S255
G1 X33.0 Y11.1
S255
G1 X30.8 Y11.1
S0
G0 X30.6 Y11.1
S255
G1 X30.6 Y11.1
S255
G1 X30.2 Y11.1
S0
G0 X30.0 Y11.1
S255
G1 X30.0 Y11.1
S255
G1 X29.7 Y11.1
S0
G0 X29.0 Y11.1
S255
G1 X29.0 Y11.1
S255
G1 X12.9 Y11.1
S0
G0 X6.6 Y11.1
S255
G1 X6.6 Y11.1
S255
G1 X4.7 Y11.1
S0
G0 X2.3 Y11.1
S255
G1 X2.3 Y11.1
S255
G1 X0.0 Y11.1
S0
G0 X0.0 Y11.2
S255
G1 X2.3 Y11.2
S0
G0 X4.6 Y11.2
S255
G1 X4.6 Y11.2
S255
G1 X6.6 Y11.2
S0
G0 X12.9 Y11.2
S255
G1 X12.9 Y11.2
S255
G1 X28.9 Y11.2
S0
G0 X29.7 Y11.2
S255
G1 X29.7 Y11.2
S255
G1 X30.0 Y11.2
S0
G0 X30.2 Y11.2
S255
G1 X30.2 Y11.2
S255
G1 X30.6 Y11.2
S0
G0 X30.9 Y11.2
S255
G1 X30.9 Y11.2
S255
G1 X32.9 Y11.2
S0
G0 X33.2 Y11.2
S255
G1 X33.2 Y11.2
S255
G1 X47.0 Y11.2
S0
G0 X71.6 Y11.2
S255
G1 X71.6 Y11.2
S255
G1 X72.2 Y11.2
S0
G0 X73.4 Y11.2
S255
G1 X73.4 Y11.2
S255
G1 X73.5 Y11.2
S0
G0 X81.0 Y11.2
S255
G1 X81.0 Y11.2
S255
G1 X81.1 Y11.2
S0
G0 X88.9 Y11.2
S255
G1 X88.9 Y11.2
S255
G1 X99.9 Y11.2
S0
G0 X99.9 Y11.3
S255
G1 X88.9 Y11.3
S0
G0 X72.1 Y11.3
S255
G1 X72.1 Y11.3
S255
G1 X71.6 Y11.3
S0
G0 X47.1 Y11.3
S255
G1 X47.1 Y11.3
S255
G1 X44.3 Y11.3
S0
G0 X44.1 Y11.3
S255
G1 X44.1 Y11.3
S255
G1 X33.2 Y11.3
S0
G0 X32.8 Y11.3
S255
G1 X32.8 Y11.3
S255
G1 X30.9 Y11.3
S0
G0 X30.6 Y11.3
S255
G1 X30.6 Y11.3
S255
G1 X30.3 Y11.3
S0
G0 X30.1 Y11.3
S255
G1 X30.1 Y11.3
S255
G1 X29.7 Y11.3
S0
G0 X29.4 Y11.3
S255
G1 X29.4 Y11.3
S255
G1 X29.0 Y11.3
S0
G0 X28.8 Y11.3
S255
G1 X28.8 Y11.3
S255
G1 X13.0 Y11.3
S0
G0 X6.6 Y11.3
S255
G1 X6.6 Y11.3
S255
G1 X4.6 Y11.3
S0
G0 X2.3 Y11.3
S255
G1 X2.3 Y11.3
S255
G1 X0.0 Y11.3
S0
G0 X0.0 Y11.4
S255
G1 X2.3 Y11.4
S0
G0 X4.6 Y11.4
S255
G1 X4.6 Y11.4
S255
G1 X6.6 Y11.4
S0
G0 X13.0 Y11.4
S255
G1 X13.0 Y11.4
S255
G1 X28.7 Y11.4
S0
G0 X28.9 Y11.4
S255
G1 X28.9 Y11.4
S255
G1 X29.6 Y11.4
S0
G0 X29.7 Y11.4
S255
G1 X29.7 Y11.4
S255
G1 X30.2 Y11.4
S0
G0 X30.9 Y11.4
S255
G1 X30.9 Y11.4
S255
G1 X32.7 Y11.4
S0
G0 X33.1 Y11.4
S255
G1 X33.1 Y11.4
S255
G1 X44.0 Y11.4
S0
G0 X44.7 Y11.4
S255
G1 X44.7 Y11.4
S255
G1 X47.1 Y11.4
S0
G0 X71.6 Y11.4
S255
G1 X71.6 Y11.4
S255
G1 X72.1 Y11.4
S0
G0 X88.9 Y11.4
S255
G1 X88.9 Y11.4
S255
G1 X99.9 Y11.4
S0
G0 X99.9 Y11.5
S255
G1 X89.0 Y11.5
S0
G0 X72.3 Y11.5
S255
G1 X72.3 Y11.5
S255
G1 X71.5 Y11.5
S0
G0 X47.2 Y11.5
S255
G1 X47.2 Y11.5
S255
G1 X44.3 Y11.5
S0
G0 X44.0 Y11.5
S255
G1 X44.0 Y11.5
S255
G1 X43.9 Y11.5
S0
G0 X43.7 Y11.5
S255
G1 X43.7 Y11.5
S255
G1 X33.1 Y11.5
S0
G0 X32.6 Y11.5
S255
G1 X32.6 Y11.5
S255
G1 X30.7 Y11.5
S0
G0 X30.2 Y11.5
S255
G1 X30.2 Y11.5
S255
G1 X28.8 Y11.5
S0
G0 X28.7 Y11.5
S255
G1 X28.7 Y11.5
S255
G1 X12.9 Y11.5
S0
G0 X6.6 Y11.5
S255
G1 X6.6 Y11.5
S255
G1 X4.6 Y11.5
S0
G0 X2.3 Y11.5
S255
G1 X2.3 Y11.5
S255
G1 X0.0 Y11.5
S0
G0 X0.0 Y11.6
S255
G1 X2.3 Y11.6
S0
G0 X4.6 Y11.6
S255
G1 X4.6 Y11.6
S255
G1 X6.6 Y11.6
S0
G0 X12.8 Y11.6
S255
G1 X12.8 Y11.6
S255
G1 X30.2 Y11.6
S0
G0 X30.6 Y11.6
S255
G1 X30.6 Y11.6
S255
G1 X32.3 Y11.6
S0
G0 X33.0 Y11.6
S255
G1 X33.0 Y11.6
S255
G1 X43.7 Y11.6
S0
G0 X44.1 Y11.6
S255
G1 X44.1 Y11.6
S255
G1 X44.2 Y11.6
S0
G0 X44.4 Y11.6
S255
G1 X44.4 Y11.6
S255
G1 X47.2 Y11.6
S0
G0 X71.5 Y11.6
S255
G1 X71.5 Y11.6
S255
G1 X72.3 Y11.6
S0
G0 X89.0 Y11.6
S255
G1 X89.0 Y11.6
S255
G1 X99.9 Y11.6
S0
G0 X99.9 Y11.7
S255
G1 X89.0 Y11.7
S0
G0 X72.3 Y11.7
S255
G1 X72.3 Y11.7
S255
G1 X71.5 Y11.7
S0
G0 X47.1 Y11.7
S255
G1 X47.1 Y11.7
S255
G1 X44.5 Y11.7
S0
G0 X44.2 Y11.7
S255
G1 X44.2 Y11.7
S255
G1 X44.1 Y11.7
S0
G0 X43.8 Y11.7
S255
G1 X43.8 Y11.7
S255
G1 X32.9 Y11.7
S0
G0 X32.2 Y11.7
S255
G1 X32.2 Y11.7
S255
G1 X30.5 Y11.7
S0
G0 X30.2 Y11.7
S255
G1 X30.2 Y11.7
S255
G1 X12.7 Y11.7
S0
G0 X6.6 Y11.7
S255
G1 X6.6 Y11.7
S255
G1 X4.6 Y11.7
S0
G0 X2.3 Y11.7
S255
G1 X2.3 Y11.7
S255
G1 X0.0 Y11.7
S0
G0 X0.0 Y11.8
S255
G1 X2.2 Y11.8
S0
G0 X4.6 Y11.8
S255
G1 X4.6 Y11.8
S255
G1 X6.6 Y11.8
S0
G0 X12.7 Y11.8
S255
G1 X12.7 Y11.8
S255
G1 X30.2 Y11.8
S0
G0 X30.5 Y11.8
S255
G1 X30.5 Y11.8
S255
G1 X32.1 Y11.8
S0
G0 X32.8 Y11.8
S255
G1 X32.8 Y11.8
S255
G1 X43.8 Y11.8
S0
G0 X44.6 Y11.8
S255
G1 X44.6 Y11.8
S255
G1 X47.1 Y11.8
S0
G0 X71.4 Y11.8
S255
G1 X71.4 Y11.8
S255
G1 X72.3 Y11.8
S0
G0 X81.1 Y11.8
S255
G1 X81.1 Y11.8
S255
G1 X81.3 Y11.8
S0
G0 X89.0 Y11.8
S255
G1 X89.0 Y11.8
S255
G1 X99.9 Y11.8
S0
G0 X99.9 Y11.9
S255
G1 X89.0 Y11.9
S0
G0 X81.4 Y11.9
S255
G1 X81.4 Y11.9
S255
G1 X81.1 Y11.9
S0
G0 X72.3 Y11.9
S255
G1 X72.3 Y11.9
S255
G1 X72.2 Y11.9
S0
G0 X72.1 Y11.9
S255
G1 X72.1 Y11.9
S255
G1 X71.4 Y11.9
S0
G0 X47.2 Y11.9
S255
G1 X47.2 Y11.9
S255
G1 X44.8 Y11.9
S0
G0 X44.0 Y11.9
S255
G1 X44.0 Y11.9
S255
G1 X43.4 Y11.9
S0
G0 X43.3 Y11.9
S255
G1 X43.3 Y11.9
S255
G1 X32.8 Y11.9
S0
G0 X32.1 Y11.9
S255
G1 X32.1 Y11.9
S255
G1 X30.4 Y11.9
S0
G0 X30.3 Y11.9
S255
G1 X30.3 Y11.9
S255
G1 X12.7 Y11.9
S0
G0 X6.6 Y11.9
S255
G1 X6.6 Y11.9
S255
G1 X4.6 Y11.9
S0
G0 X2.2 Y11.9
S255
G1 X2.2 Y11.9
S255
G1 X0.0 Y11.9
S0
G0 X0.0 Y12.0
S255
G1 X2.2 Y12.0
S0
G0 X4.6 Y12.0
S255
G1 X4.6 Y12.0
S255
G1 X6.6 Y12.0
S0
G0 X12.7 Y12.0
S255
G1 X12.7 Y12.0
S255
G1 X32.1 Y12.0
S0
G0 X32.7 Y12.0
S255
G1 X32.7 Y12.0
S255
G1 X43.4 Y12.0
S0
G0 X43.5 Y12.0
S255
G1 X43.5 Y12.0
S255
G1 X44.0 Y12.0
S0
G0 X44.9 Y12.0
S255
G1 X44.9 Y12.0
S255
G1 X47.2 Y12.0
S0
G0 X71.4 Y12.0
S255
G1 X71.4 Y12.0
S255
G1 X72.1 Y12.0
S0
G0 X72.2 Y12.0
S255
G1 X72.2 Y12.0
S255
G1 X72.4 Y12.0
S0
G0 X81.1 Y12.0
S255
G1 X81.1 Y12.0
S255
G1 X81.5 Y12.0
S0
G0 X89.0 Y12.0
S255
G1 X89.0 Y12.0
S255
G1 X99.9 Y12.0
S0
G0 X99.9 Y12.1
S255
G1 X89.0 Y12.1
S0
G0 X82.9 Y12.1
S255
G1 X82.9 Y12.1
S255
G1 X82.7 Y12.1
S0
G0 X81.5 Y12.1
S255
G1 X81.5 Y12.1
S255
G1 X81.3 Y12.1
S0
G0 X72.4 Y12.1
S255
G1 X72.4 Y12.1
S255
G1 X72.2 Y12.1
S0
G0 X72.1 Y12.1
S255
G1 X72.1 Y12.1
S255
G1 X71.3 Y12.1
S0
G0 X47.2 Y12.1
S255
G1 X47.2 Y12.1
S255
G1 X44.9 Y12.1
S0
G0 X44.1 Y12.1
S255
G1 X44.1 Y12.1
S255
G1 X43.7 Y12.1
S0
G0 X43.5 Y12.1
S255
G1 X43.5 Y12.1
S255
G1 X32.6 Y12.1
S0
G0 X31.8 Y12.1
S255
G1 X31.8 Y12.1
S255
G1 X12.7 Y12.1
S0
G0 X6.6 Y12.1
S255
G1 X6.6 Y12.1
S255
G1 X4.6 Y12.1
S0
G0 X2.2 Y12.1
S255
G1 X2.2 Y12.1
S255
G1 X0.0 Y12.1
S0
G0 X0.0 Y12.2
S255
G1 X2.2 Y12.2
S0
G0 X4.6 Y12.2
S255
G1 X4.6 Y12.2
S255
G1 X6.6 Y12.2
S0
G0 X12.7 Y12.2
S255
G1 X12.7 Y12.2
S255
G1 X30.9 Y12.2
S0
G0 X31.1 Y12.2
S255
G1 X31.1 Y12.2
S255
G1 X31.8 Y12.2
S0
G0 X32.5 Y12.2
S255
G1 X32.5 Y12.2
S255
G1 X43.6 Y12.2
S0
G0 X43.8 Y12.2
S255
G1 X43.8 Y12.2
S255
G1 X44.2 Y12.2
S0
G0 X45.0 Y12.2
S255
G1 X45.0 Y12.2
S255
G1 X47.2 Y12.2
S0
G0 X71.3 Y12.2
S255
G1 X71.3 Y12.2
S255
G1 X72.1 Y12.2
S0
G0 X72.2 Y12.2
S255
G1 X72.2 Y12.2
S255
G1 X72.4 Y12.2
S0
G0 X81.4 Y12.2
S255
G1 X81.4 Y12.2
S255
G1 X81.6 Y12.2
S0
G0 X82.7 Y12.2
S255
G1 X82.7 Y12.2
S255
G1 X82.9 Y12.2
S0
G0 X89.1 Y12.2
S255
G1 X89.1 Y12.2
S255
G1 X99.9 Y12.2
S0
G0 X99.9 Y12.3
S255
G1 X89.1 Y12.3
S0
G0 X83.0 Y12.3
S255
G1 X83.0 Y12.3
S255
G1 X82.6 Y12.3
S0
G0 X82.3 Y12.3
S255
G1 X82.3 Y12.3
S255
G1 X82.1 Y12.3
S0
G0 X81.9 Y12.3
S255
G1 X81.9 Y12.3
S255
G1 X81.5 Y12.3
S0
G0 X72.5 Y12.3
S255
G1 X72.5 Y12.3
S255
G1 X72.2 Y12.3
S0
G0 X72.1 Y12.3
S255
G1 X72.1 Y12.3
S255
G1 X71.3 Y12.3
S0
G0 X47.3 Y12.3
S255
G1 X47.3 Y12.3
S255
G1 X45.1 Y12.3
S0
G0 X44.2 Y12.3
S255
G1 X44.2 Y12.3
S255
G1 X43.8 Y12.3
S0
G0 X43.7 Y12.3
S255
G1 X43.7 Y12.3
S255
G1 X38.7 Y12.3
S0
G0 X38.6 Y12.3
S255
G1 X38.6 Y12.3
S255
G1 X32.5 Y12.3
S0
G0 X32.3 Y12.3
S255
G1 X32.3 Y12.3
S255
G1 X32.1 Y12.3
S0
G0 X31.7 Y12.3
S255
G1 X31.7 Y12.3
S255
G1 X31.0 Y12.3
S0
G0 X30.8 Y12.3
S255
G1 X30.8 Y12.3
S255
G1 X12.7 Y12.3
S0
G0 X6.5 Y12.3
S255
G1 X6.5 Y12.3
S255
G1 X4.6 Y12.3
S0
G0 X2.2 Y12.3
S255
G1 X2.2 Y12.3
S255
G1 X0.0 Y12.3
S0
G0 X0.0 Y12.4
S255
G1 X2.2 Y12.4
S0
G0 X4.6 Y12.4
S255
G1 X4.6 Y12.4
S255
G1 X6.5 Y12.4
S0
G0 X12.7 Y12.4
S255
G1 X12.7 Y12.4
S255
G1 X30.4 Y12.4
S0
G0 X30.9 Y12.4
S255
G1 X30.9 Y12.4
S255
G1 X31.6 Y12.4
S0
G0 X31.9 Y12.4
S255
G1 X31.9 Y12.4
S255
G1 X32.3 Y12.4
S0
G0 X32.5 Y12.4
S255
G1 X32.5 Y12.4
S255
G1 X43.7 Y12.4
S0
G0 X43.8 Y12.4
S255
G1 X43.8 Y12.4
S255
G1 X44.2 Y12.4
S0
G0 X45.1 Y12.4
S255
G1 X45.1 Y12.4
S255
G1 X47.3 Y12.4
S0
G0 X71.3 Y12.4
S255
G1 X71.3 Y12.4
S255
G1 X72.1 Y12.4
S0
G0 X72.4 Y12.4
S255
G1 X72.4 Y12.4
S255
G1 X72.5 Y12.4
S0
G0 X81.5 Y12.4
S255
G1 X81.5 Y12.4
S255
G1 X82.3 Y12.4
S0
G0 X82.5 Y12.4
S255
G1 X82.5 Y12.4
S255
G1 X82.8 Y12.4
S0
G0 X89.2 Y12.4
S255
G1 X89.2 Y12.4
S255
G1 X99.9 Y12.4
S0
G0 X99.9 Y12.5
S255
G1 X89.2 Y12.5
S0
G0 X82.8 Y12.5
S255
G1 X82.8 Y12.5
S255
G1 X82.5 Y12.5
S0
G0 X82.1 Y12.5
S255
G1 X82.1 Y12.5
S255
G1 X81.5 Y12.5
S0
G0 X72.1 Y12.5
S255
G1 X72.1 Y12.5
S255
G1 X71.2 Y12.5
S0
G0 X47.4 Y12.5
S255
G1 X47.4 Y12.5
S255
G1 X45.1 Y12.5
S0
G0 X44.2 Y12.5
S255
G1 X44.2 Y12.5
S255
G1 X43.8 Y12.5
S0
G0 X43.7 Y12.5
S255
G1 X43.7 Y12.5
S255
G1 X32.4 Y12.5
S0
G0 X32.3 Y12.5
S255
G1 X32.3 Y12.5
S255
G1 X31.9 Y12.5
S0
G0 X31.5 Y12.5
S255
G1 X31.5 Y12.5
S255
G1 X30.8 Y12.5
S0
G0 X30.4 Y12.5
S255
G1 X30.4 Y12.5
S255
G1 X29.8 Y12.5
S0
G0 X29.6 Y12.5
S255
G1 X29.6 Y12.5
S255
G1 X12.7 Y12.5
S0
G0 X6.5 Y12.5
S255
G1 X6.5 Y12.5
S255
G1 X4.6 Y12.5
S0
G0 X2.2 Y12.5
S255
G1 X2.2 Y12.5
S255
G1 X0.0 Y12.5
S0
G0 X0.0 Y12.6
S255
G1 X2.2 Y12.6
S0
G0 X4.6 Y12.6
S255
G1 X4.6 Y12.6
S255
G1 X6.5 Y12.6
S0
G0 X12.7 Y12.6
S255
G1 X12.7 Y12.6
S255
G1 X29.6 Y12.6
S0
G0 X29.8 Y12.6
S255
G1 X29.8 Y12.6
S255
G1 X30.4 Y12.6
S0
G0 X30.8 Y12.6
S255
G1 X30.8 Y12.6
S255
G1 X31.4 Y12.6
S0
G0 X31.8 Y12.6
S255
G1 X31.8 Y12.6
S255
G1 X44.1 Y12.6
S0
G0 X44.8 Y12.6
S255
G1 X44.8 Y12.6
S255
G1 X45.0 Y12.6
S0
G0 X45.1 Y12.6
S255
G1 X45.1 Y12.6
S255
G1 X47.4 Y12.6
S0
G0 X71.2 Y12.6
S255
G1 X71.2 Y12.6
S255
G1 X72.1 Y12.6
S0
G0 X81.2 Y12.6
S255
G1 X81.2 Y12.6
S255
G1 X81.4 Y12.6
S0
G0 X81.5 Y12.6
S255
G1 X81.5 Y12.6
S255
G1 X81.8 Y12.6
S0
G0 X81.9 Y12.6
S255
G1 X81.9 Y12.6
S255
G1 X82.1 Y12.6
S0
G0 X82.5 Y12.6
S255
G1 X82.5 Y12.6
S255
G1 X82.8 Y12.6
S0
G0 X89.3 Y12.6
S255
G1 X89.3 Y12.6
S255
G1 X99.9 Y12.6
S0
G0 X99.9 Y12.7
S255
G1 X89.3 Y12.7
S0
G0 X82.9 Y12.7
S255
G1 X82.9 Y12.7
S255
G1 X82.6 Y12.7
S0
G0 X82.3 Y12.7
S255
G1 X82.3 Y12.7
S255
G1 X82.1 Y12.7
S0
G0 X81.4 Y12.7
S255
G1 X81.4 Y12.7
S255
G1 X81.2 Y12.7
S0
G0 X72.1 Y12.7
S255
G1 X72.1 Y12.7
S255
G1 X71.2 Y12.7
S0
G0 X48.1 Y12.7
S255
G1 X48.1 Y12.7
S255
G1 X48.0 Y12.7
S0
G0 X47.4 Y12.7
S255
G1 X47.4 Y12.7
S255
G1 X45.1 Y12.7
S0
G0 X44.6 Y12.7
S255
G1 X44.6 Y12.7
S255
G1 X44.5 Y12.7
S0
G0 X43.9 Y12.7
S255
G1 X43.9 Y12.7
S255
G1 X37.6 Y12.7
S0
G0 X37.2 Y12.7
S255
G1 X37.2 Y12.7
S255
G1 X31.7 Y12.7
S0
G0 X31.4 Y12.7
S255
G1 X31.4 Y12.7
S255
G1 X30.8 Y12.7
S0
G0 X30.4 Y12.7
S255
G1 X30.4 Y12.7
S255
G1 X29.8 Y12.7
S0
G0 X29.5 Y12.7
S255
G1 X29.5 Y12.7
S255
G1 X12.7 Y12.7
S0
G0 X6.5 Y12.7
S255
G1 X6.5 Y12.7
S255
G1 X4.6 Y12.7
S0
G0 X2.1 Y12.7
S255
G1 X2.1 Y12.7
S255
G1 X0.0 Y12.7
S0
G0 X0.0 Y12.8
S255
G1 X2.1 Y12.8
S0
G0 X4.6 Y12.8
S255
G1 X4.6 Y12.8
S255
G1 X6.5 Y12.8
S0
G0 X12.7 Y12.8
S255
G1 X12.7 Y12.8
S255
G1 X29.5 Y12.8
S0
G0 X29.9 Y12.8
S255
G1 X29.9 Y12.8
S255
G1 X30.4 Y12.8
S0
G0 X30.8 Y12.8
S255
G1 X30.8 Y12.8
S255
G1 X31.3 Y12.8
S0
G0 X31.7 Y12.8
S255
G1 X31.7 Y12.8
S255
G1 X37.1 Y12.8
S0
G0 X37.8 Y12.8
S255
G1 X37.8 Y12.8
S255
G1 X44.0 Y12.8
S0
G0 X44.4 Y12.8
S255
G1 X44.4 Y12.8
S255
G1 X44.6 Y12.8
S0
G0 X45.0 Y12.8
S255
G1 X45.0 Y12.8
S255
G1 X47.4 Y12.8
S0
G0 X71.2 Y12.8
S255
G1 X71.2 Y12.8
S255
G1 X72.1 Y12.8
S0
G0 X81.2 Y12.8
S255
G1 X81.2 Y12.8
S255
G1 X81.5 Y12.8
S0
G0 X82.1 Y12.8
S255
G1 X82.1 Y12.8
S255
G1 X82.4 Y12.8
S0
G0 X82.6 Y12.8
S255
G1 X82.6 Y12.8
S255
G1 X83.1 Y12.8
S0
G0 X89.4 Y12.8
S255
G1 X89.4 Y12.8
S255
G1 X99.9 Y12.8
S0
G0 X99.9 Y12.9
S255
G1 X89.4 Y12.9
S0
G0 X83.2 Y12.9
S255
G1 X83.2 Y12.9
S255
G1 X81.3 Y12.9
S0
G0 X81.1 Y12.9
S255
G1 X81.1 Y12.9
S255
G1 X81.0 Y12.9
S0
G0 X72.2 Y12.9
S255
G1 X72.2 Y12.9
S255
G1 X71.1 Y12.9
S0
G0 X47.5 Y12.9
S255
G1 X47.5 Y12.9
S255
G1 X44.9 Y12.9
S0
G0 X44.6 Y12.9
S255
G1 X44.6 Y12.9
S255
G1 X44.4 Y12.9
S0
G0 X44.2 Y12.9
S255
G1 X44.2 Y12.9
S255
G1 X43.5 Y12.9
S0
G0 X43.4 Y12.9
S255
G1 X43.4 Y12.9
S255
G1 X37.9 Y12.9
S0
G0 X37.0 Y12.9
S255
G1 X37.0 Y12.9
S255
G1 X31.6 Y12.9
S0
G0 X31.3 Y12.9
S255
G1 X31.3 Y12.9
S255
G1 X30.9 Y12.9
S0
G0 X30.4 Y12.9
S255
G1 X30.4 Y12.9
S255
G1 X30.0 Y12.9
S0
G0 X29.5 Y12.9
S255
G1 X29.5 Y12.9
S255
G1 X12.8 Y12.9
S0
G0 X6.6 Y12.9
S255
G1 X6.6 Y12.9
S255
G1 X4.6 Y12.9
S0
G0 X2.1 Y12.9
S255
G1 X2.1 Y12.9
S255
G1 X0.0 Y12.9
S0
G0 X0.0 Y13.0
S255
G1 X2.1 Y13.0
S0
G0 X4.6 Y13.0
S255
G1 X4.6 Y13.0
S255
G1 X6.6 Y13.0
S0
G0 X13.0 Y13.0
S255
G1 X13.0 Y13.0
S255
G1 X29.5 Y13.0
S0
G0 X30.1 Y13.0
S255
G1 X30.1 Y13.0
S255
G1 X30.4 Y13.0
S0
G0 X30.9 Y13.0
S255
G1 X30.9 Y13.0
S255
G1 X31.3 Y13.0
S0
G0 X31.5 Y13.0
S255
G1 X31.5 Y13.0
S255
G1 X36.0 Y13.0
S0
G0 X36.7 Y13.0
S255
G1 X36.7 Y13.0
S255
G1 X37.0 Y13.0
S0
G0 X37.6 Y13.0
S255
G1 X37.6 Y13.0
S255
G1 X43.4 Y13.0
S0
G0 X43.6 Y13.0
S255
G1 X43.6 Y13.0
S255
G1 X44.3 Y13.0
S0
G0 X44.4 Y13.0
S255
G1 X44.4 Y13.0
S255
G1 X44.6 Y13.0
S0
G0 X44.9 Y13.0
S255
G1 X44.9 Y13.0
S255
G1 X47.7 Y13.0
S0
G0 X71.1 Y13.0
S255
G1 X71.1 Y13.0
S255
G1 X72.2 Y13.0
S0
G0 X81.0 Y13.0
S255
G1 X81.0 Y13.0
S255
G1 X81.2 Y13.0
S0
G0 X81.3 Y13.0
S255
G1 X81.3 Y13.0
S255
G1 X83.0 Y13.0
S0
G0 X83.1 Y13.0
S255
G1 X83.1 Y13.0
S255
G1 X83.2 Y13.0
S0
G0 X89.4 Y13.0
S255
G1 X89.4 Y13.0
S255
G1 X99.9 Y13.0
S0
G0 X99.9 Y13.1
S255
G1 X89.5 Y13.1
S0
G0 X82.8 Y13.1
S255
G1 X82.8 Y13.1
S255
G1 X82.6 Y13.1
S0
G0 X82.4 Y13.1
S255
G1 X82.4 Y13.1
S255
G1 X81.5 Y13.1
S0
G0 X81.4 Y13.1
S255
G1 X81.4 Y13.1
S255
G1 X81.1 Y13.1
S0
G0 X72.2 Y13.1
S255
G1 X72.2 Y13.1
S255
G1 X71.1 Y13.1
S0
G0 X48.2 Y13.1
S255
G1 X48.2 Y13.1
S255
G1 X48.0 Y13.1
S0
G0 X47.8 Y13.1
S255
G1 X47.8 Y13.1
S255
G1 X44.8 Y13.1
S0
G0 X44.6 Y13.1
S255
G1 X44.6 Y13.1
S255
G1 X44.5 Y13.1
S0
G0 X44.2 Y13.1
S255
G1 X44.2 Y13.1
S255
G1 X43.6 Y13.1
S0
G0 X43.5 Y13.1
S255
G1 X43.5 Y13.1
S255
G1 X36.6 Y13.1
S0
G0 X35.5 Y13.1
S255
G1 X35.5 Y13.1
S255
G1 X35.2 Y13.1
S0
G0 X35.0 Y13.1
S255
G1 X35.0 Y13.1
S255
G1 X31.5 Y13.1
S0
G0 X31.3 Y13.1
S255
G1 X31.3 Y13.1
S255
G1 X31.1 Y13.1
S0
G0 X30.7 Y13.1
S255
G1 X30.7 Y13.1
S255
G1 X30.6 Y13.1
S0
G0 X30.4 Y13.1
S255
G1 X30.4 Y13.1
S255
G1 X30.1 Y13.1
S0
G0 X29.5 Y13.1
S255
G1 X29.5 Y13.1
S255
G1 X13.0 Y13.1
S0
G0 X6.6 Y13.1
S255
G1 X6.6 Y13.1
S255
G1 X4.6 Y13.1
S0
G0 X2.1 Y13.1
S255
G1 X2.1 Y13.1
S255
G1 X0.0 Y13.1
S0
G0 X0.0 Y13.2
S255
G1 X2.1 Y13.2
S0
G0 X4.6 Y13.2
S255
G1 X4.6 Y13.2
S255
G1 X6.6 Y13.2
S0
G0 X13.0 Y13.2
S255
G1 X13.0 Y13.2
S255
G1 X29.5 Y13.2
S0
G0 X30.2 Y13.2
S255
G1 X30.2 Y13.2
S255
G1 X30.4 Y13.2
S0
G0 X30.5 Y13.2
S255
G1 X30.5 Y13.2
S255
G1 X30.8 Y13.2
S0
G0 X31.2 Y13.2
S255
G1 X31.2 Y13.2
S255
G1 X31.4 Y13.2
S0
G0 X31.5 Y13.2
S255
G1 X31.5 Y13.2
S255
G1 X34.9 Y13.2
S0
G0 X36.4 Y13.2
S255
G1 X36.4 Y13.2
S255
G1 X43.5 Y13.2
S0
G0 X43.6 Y13.2
S255
G1 X43.6 Y13.2
S255
G1 X44.3 Y13.2
S0
G0 X44.5 Y13.2
S255
G1 X44.5 Y13.2
S255
G1 X44.6 Y13.2
S0
G0 X44.7 Y13.2
S255
G1 X44.7 Y13.2
S255
G1 X48.2 Y13.2
S0
G0 X71.1 Y13.2
S255
G1 X71.1 Y13.2
S255
G1 X72.2 Y13.2
S0
G0 X81.1 Y13.2
S255
G1 X81.1 Y13.2
S255
G1 X81.4 Y13.2
S0
G0 X81.5 Y13.2
S255
G1 X81.5 Y13.2
S255
G1 X82.8 Y13.2
S0
G0 X89.5 Y13.2
S255
G1 X89.5 Y13.2
S255
G1 X99.9 Y13.2
S0
G0 X99.9 Y13.3
S255
G1 X89.6 Y13.3
S0
G0 X82.9 Y13.3
S255
G1 X82.9 Y13.3
S255
G1 X81.5 Y13.3
S0
G0 X81.4 Y13.3
S255
G1 X81.4 Y13.3
S255
G1 X81.2 Y13.3
S0
G0 X72.3 Y13.3
S255
G1 X72.3 Y13.3
S255
G1 X71.0 Y13.3
S0
G0 X48.3 Y13.3
S255
G1 X48.3 Y13.3
S255
G1 X45.0 Y13.3
S0
G0 X44.8 Y13.3
S255
G1 X44.8 Y13.3
S255
G1 X43.6 Y13.3
S0
G0 X43.4 Y13.3
S255
G1 X43.4 Y13.3
S255
G1 X35.6 Y13.3
S0
G0 X34.1 Y13.3
S255
G1 X34.1 Y13.3
S255
G1 X31.5 Y13.3
S0
G0 X31.3 Y13.3
S255
G1 X31.3 Y13.3
S255
G1 X31.2 Y13.3
S0
G0 X30.8 Y13.3
S255
G1 X30.8 Y13.3
S255
G1 X30.2 Y13.3
S0
G0 X29.5 Y13.3
S255
G1 X29.5 Y13.3
S255
G1 X13.1 Y13.3
S0
G0 X6.6 Y13.3
S255
G1 X6.6 Y13.3
S255
G1 X4.6 Y13.3
S0
G0 X2.0 Y13.3
S255
G1 X2.0 Y13.3
S255
G1 X0.0 Y13.3
S0
G0 X0.0 Y13.4
S255
G1 X2.0 Y13.4
S0
G0 X4.5 Y13.4
S255
G1 X4.5 Y13.4
S255
G1 X6.5 Y13.4
S0
G0 X12.6 Y13.4
S255
G1 X12.6 Y13.4
S255
G1 X12.7 Y13.4
S0
G0 X13.1 Y13.4
S255
G1 X13.1 Y13.4
S255
G1 X29.5 Y13.4
S0
G0 X30.2 Y13.4
S255
G1 X30.2 Y13.4
S255
G1 X30.8 Y13.4
S0
G0 X31.2 Y13.4
S255
G1 X31.2 Y13.4
S255
G1 X31.4 Y13.4
S0
G0 X31.5 Y13.4
S255
G1 X31.5 Y13.4
S255
G1 X33.8 Y13.4
S0
G0 X35.6 Y13.4
S255
G1 X35.6 Y13.4
S255
G1 X44.3 Y13.4
S0
G0 X44.4 Y13.4
S255
G1 X44.4 Y13.4
S255
G1 X44.9 Y13.4
S0
G0 X45.0 Y13.4
S255
G1 X45.0 Y13.4
S255
G1 X48.2 Y13.4
S0
G0 X71.0 Y13.4
S255
G1 X71.0 Y13.4
S255
G1 X72.3 Y13.4
S0
G0 X81.7 Y13.4
S255
G1 X81.7 Y13.4
S255
G1 X83.1 Y13.4
S0
G0 X89.6 Y13.4
S255
G1 X89.6 Y13.4
S255
G1 X99.9 Y13.4
S0
G0 X99.9 Y13.5
S255
G1 X89.6 Y13.5
S0
G0 X83.1 Y13.5
S255
G1 X83.1 Y13.5
S255
G1 X81.8 Y13.5
S0
G0 X81.2 Y13.5
S255
G1 X81.2 Y13.5
S255
G1 X80.9 Y13.5
S0
G0 X72.2 Y13.5
S255
G1 X72.2 Y13.5
S255
G1 X71.0 Y13.5
S0
G0 X48.1 Y13.5
S255
G1 X48.1 Y13.5
S255
G1 X44.5 Y13.5
S0
G0 X44.2 Y13.5
S255
G1 X44.2 Y13.5
S255
G1 X44.0 Y13.5
S0
G0 X43.8 Y13.5
S255
G1 X43.8 Y13.5
S255
G1 X35.5 Y13.5
S0
G0 X35.2 Y13.5
S255
G1 X35.2 Y13.5
S255
G1 X34.9 Y13.5
S0
G0 X33.7 Y13.5
S255
G1 X33.7 Y13.5
S255
G1 X33.5 Y13.5
S0
G0 X32.9 Y13.5
S255
G1 X32.9 Y13.5
S255
G1 X31.2 Y13.5
S0
G0 X30.8 Y13.5
S255
G1 X30.8 Y13.5
S255
G1 X30.5 Y13.5
S0
G0 X29.5 Y13.5
S255
G1 X29.5 Y13.5
S255
G1 X13.0 Y13.5
S0
G0 X12.8 Y13.5
S255
G1 X12.8 Y13.5
S255
G1 X12.6 Y13.5
S0
G0 X6.5 Y13.5
S255
G1 X6.5 Y13.5
S255
G1 X4.5 Y13.5
S0
G0 X2.0 Y13.5
S255
G1 X2.0 Y13.5
S255
G1 X0.0 Y13.5
S0
G0 X0.0 Y13.6
S255
G1 X2.0 Y13.6
S0
G0 X4.5 Y13.6
S255
G1 X4.5 Y13.6
S255
G1 X6.5 Y13.6
S0
G0 X12.5 Y13.6
S255
G1 X12.5 Y13.6
S255
G1 X29.5 Y13.6
S0
G0 X30.1 Y13.6
S255
G1 X30.1 Y13.6
S255
G1 X30.2 Y13.6
S0
G0 X30.5 Y13.6
S255
G1 X30.5 Y13.6
S255
G1 X30.8 Y13.6
S0
G0 X31.2 Y13.6
S255
G1 X31.2 Y13.6
S255
G1 X32.9 Y13.6
S0
G0 X34.8 Y13.6
S255
G1 X34.8 Y13.6
S255
G1 X43.8 Y13.6
S0
G0 X44.0 Y13.6
S255
G1 X44.0 Y13.6
S255
G1 X44.2 Y13.6
S0
G0 X44.4 Y13.6
S255
G1 X44.4 Y13.6
S255
G1 X47.9 Y13.6
S0
G0 X70.9 Y13.6
S255
G1 X70.9 Y13.6
S255
G1 X72.2 Y13.6
S0
G0 X81.0 Y13.6
S255
G1 X81.0 Y13.6
S255
G1 X81.2 Y13.6
S0
G0 X81.7 Y13.6
S255
G1 X81.7 Y13.6
S255
G1 X83.1 Y13.6
S0
G0 X89.7 Y13.6
S255
G1 X89.7 Y13.6
S255
G1 X99.9 Y13.6
S0
G0 X99.9 Y13.7
S255
G1 X89.8 Y13.7
S0
G0 X83.0 Y13.7
S255
G1 X83.0 Y13.7
S255
G1 X82.2 Y13.7
S0
G0 X81.9 Y13.7
S255
G1 X81.9 Y13.7
S255
G1 X81.6 Y13.7
S0
G0 X72.2 Y13.7
S255
G1 X72.2 Y13.7
S255
G1 X70.9 Y13.7
S0
G0 X47.9 Y13.7
S255
G1 X47.9 Y13.7
S255
G1 X45.2 Y13.7
S0
G0 X45.1 Y13.7
S255
G1 X45.1 Y13.7
S255
G1 X44.4 Y13.7
S0
G0 X44.3 Y13.7
S255
G1 X44.3 Y13.7
S255
G1 X44.0 Y13.7
S0
G0 X43.9 Y13.7
S255
G1 X43.9 Y13.7
S255
G1 X34.6 Y13.7
S0
G0 X32.9 Y13.7
S255
G1 X32.9 Y13.7
S255
G1 X32.6 Y13.7
S0
G0 X32.5 Y13.7
S255
G1 X32.5 Y13.7
S255
G1 X31.2 Y13.7
S0
G0 X30.3 Y13.7
S255
G1 X30.3 Y13.7
S255
G1 X30.0 Y13.7
S0
G0 X29.5 Y13.7
S255
G1 X29.5 Y13.7
S255
G1 X12.5 Y13.7
S0
G0 X6.5 Y13.7
S255
G1 X6.5 Y13.7
S255
G1 X4.5 Y13.7
S0
G0 X2.0 Y13.7
S255
G1 X2.0 Y13.7
S255
G1 X0.0 Y13.7
S0
G0 X0.0 Y13.8
S255
G1 X2.0 Y13.8
S0
G0 X4.5 Y13.8
S255
G1 X4.5 Y13.8
S255
G1 X6.5 Y13.8
S0
G0 X12.5 Y13.8
S255
G1 X12.5 Y13.8
S255
G1 X20.0 Y13.8
S0
G0 X20.1 Y13.8
S255
G1 X20.1 Y13.8
S255
G1 X29.5 Y13.8
S0
G0 X29.9 Y13.8
S255
G1 X29.9 Y13.8
S255
G1 X30.2 Y13.8
S0
G0 X31.3 Y13.8
S255
G1 X31.3 Y13.8
S255
G1 X32.4 Y13.8
S0
G0 X32.6 Y13.8
S255
G1 X32.6 Y13.8
S255
G1 X32.9 Y13.8
S0
G0 X34.4 Y13.8
S255
G1 X34.4 Y13.8
S255
G1 X43.9 Y13.8
S0
G0 X44.0 Y13.8
S255
G1 X44.0 Y13.8
S255
G1 X47.8 Y13.8
S0
G0 X70.9 Y13.8
S255
G1 X70.9 Y13.8
S255
G1 X72.3 Y13.8
S0
G0 X81.6 Y13.8
S255
G1 X81.6 Y13.8
S255
G1 X81.9 Y13.8
S0
G0 X82.2 Y13.8
S255
G1 X82.2 Y13.8
S255
G1 X83.1 Y13.8
S0
G0 X89.9 Y13.8
S255
G1 X89.9 Y13.8
S255
G1 X99.9 Y13.8
S0
G0 X99.9 Y13.9
S255
G1 X89.9 Y13.9
S0
G0 X83.2 Y13.9
S255
G1 X83.2 Y13.9
S255
G1 X82.2 Y13.9
S0
G0 X82.0 Y13.9
S255
G1 X82.0 Y13.9
S255
G1 X81.5 Y13.9
S0
G0 X72.3 Y13.9
S255
G1 X72.3 Y13.9
S255
G1 X70.9 Y13.9
S0
G0 X47.8 Y13.9
S255
G1 X47.8 Y13.9
S255
G1 X44.0 Y13.9
S0
G0 X43.9 Y13.9
S255
G1 X43.9 Y13.9
S255
G1 X34.1 Y13.9
S0
G0 X32.7 Y13.9
S255
G1 X32.7 Y13.9
S255
G1 X32.5 Y13.9
S0
G0 X32.2 Y13.9
S255
G1 X32.2 Y13.9
S255
G1 X31.3 Y13.9
S0
G0 X30.2 Y13.9
S255
G1 X30.2 Y13.9
S255
G1 X29.8 Y13.9
S0
G0 X29.6 Y13.9
S255
G1 X29.6 Y13.9
S255
G1 X29.4 Y13.9
S0
G0 X29.2 Y13.9
S255
G1 X29.2 Y13.9
S255
G1 X20.2 Y13.9
S0
G0 X20.0 Y13.9
S255
G1 X20.0 Y13.9
S255
G1 X12.4 Y13.9
S0
G0 X6.5 Y13.9
S255
G1 X6.5 Y13.9
S255
G1 X4.5 Y13.9
S0
G0 X2.0 Y13.9
S255
G1 X2.0 Y13.9
S255
G1 X0.0 Y13.9
S0
G0 X0.0 Y14.0
S255
G1 X2.0 Y14.0
S0
G0 X4.5 Y14.0
S255
G1 X4.5 Y14.0
S255
G1 X6.5 Y14.0
S0
G0 X12.4 Y14.0
S255
G1 X12.4 Y14.0
S255
G1 X20.0 Y14.0
S0
G0 X20.2 Y14.0
S255
G1 X20.2 Y14.0
S255
G1 X30.2 Y14.0
S0
G0 X31.4 Y14.0
S255
G1 X31.4 Y14.0
S255
G1 X32.2 Y14.0
S0
G0 X34.1 Y14.0
S255
G1 X34.1 Y14.0
S255
G1 X43.9 Y14.0
S0
G0 X44.0 Y14.0
S255
G1 X44.0 Y14.0
S255
G1 X47.8 Y14.0
S0
G0 X70.8 Y14.0
S255
G1 X70.8 Y14.0
S255
G1 X72.3 Y14.0
S0
G0 X81.5 Y14.0
S255
G1 X81.5 Y14.0
S255
G1 X83.4 Y14.0
S0
G0 X90.0 Y14.0
S255
G1 X90.0 Y14.0
S255
G1 X99.9 Y14.0
S0
G0 X99.9 Y14.1
S255
G1 X90.0 Y14.1
S0
G0 X83.4 Y14.1
S255
G1 X83.4 Y14.1
S255
G1 X81.5 Y14.1
S0
G0 X72.3 Y14.1
S255
G1 X72.3 Y14.1
S255
G1 X70.8 Y14.1
S0
G0 X48.1 Y14.1
S255
G1 X48.1 Y14.1
S255
G1 X43.9 Y14.1
S0
G0 X43.7 Y14.1
S255
G1 X43.7 Y14.1
S255
G1 X34.1 Y14.1
S0
G0 X32.1 Y14.1
S255
G1 X32.1 Y14.1
S255
G1 X31.4 Y14.1
S0
G0 X30.2 Y14.1
S255
G1 X30.2 Y14.1
S255
G1 X20.2 Y14.1
S0
G0 X20.1 Y14.1
S255
G1 X20.1 Y14.1
S255
G1 X18.9 Y14.1
S0
G0 X18.8 Y14.1
S255
G1 X18.8 Y14.1
S255
G1 X12.4 Y14.1
S0
G0 X6.5 Y14.1
S255
G1 X6.5 Y14.1
S255
G1 X4.5 Y14.1
S0
G0 X2.0 Y14.1
S255
G1 X2.0 Y14.1
S255
G1 X0.0 Y14.1
S0
G0 X0.0 Y14.2
S255
G1 X2.0 Y14.2
S0
G0 X4.5 Y14.2
S255
G1 X4.5 Y14.2
S255
G1 X6.5 Y14.2
S0
G0 X12.4 Y14.2
S255
G1 X12.4 Y14.2
S255
G1 X12.6 Y14.2
S0
G0 X12.7 Y14.2
S255
G1 X12.7 Y14.2
S255
G1 X18.8 Y14.2
S0
G0 X19.0 Y14.2
S255
G1 X19.0 Y14.2
S255
G1 X20.1 Y14.2
S0
G0 X20.2 Y14.2
S255
G1 X20.2 Y14.2
S255
G1 X30.2 Y14.2
S0
G0 X31.5 Y14.2
S255
G1 X31.5 Y14.2
S255
G1 X32.0 Y14.2
S0
G0 X34.1 Y14.2
S255
G1 X34.1 Y14.2
S255
G1 X48.3 Y14.2
S0
G0 X70.8 Y14.2
S255
G1 X70.8 Y14.2
S255
G1 X72.3 Y14.2
S0
G0 X81.4 Y14.2
S255
G1 X81.4 Y14.2
S255
G1 X83.4 Y14.2
S0
G0 X90.0 Y14.2
S255
G1 X90.0 Y14.2
S255
G1 X99.9 Y14.2
S0
G0 X99.9 Y14.3
S255
G1 X90.0 Y14.3
S0
G0 X83.4 Y14.3
S255
G1 X83.4 Y14.3
S255
G1 X81.8 Y14.3
S0
G0 X81.6 Y14.3
S255
G1 X81.6 Y14.3
S255
G1 X81.3 Y14.3
S0
G0 X72.3 Y14.3
S255
G1 X72.3 Y14.3
S255
G1 X70.8 Y14.3
S0
G0 X48.4 Y14.3
S255
G1 X48.4 Y14.3
S255
G1 X34.2 Y14.3
S0
G0 X31.9 Y14.3
S255
G1 X31.9 Y14.3
S255
G1 X31.7 Y14.3
S0
G0 X30.2 Y14.3
S255
G1 X30.2 Y14.3
S255
G1 X19.1 Y14.3
S0
G0 X18.9 Y14.3
S255
G1 X18.9 Y14.3
S255
G1 X12.8 Y14.3
S0
G0 X12.5 Y14.3
S255
G1 X12.5 Y14.3
S255
G1 X12.4 Y14.3
S0
G0 X6.5 Y14.3
S255
G1 X6.5 Y14.3
S255
G1 X4.4 Y14.3
S0
G0 X2.0 Y14.3
S255
G1 X2.0 Y14.3
S255
G1 X0.0 Y14.3
S0
G0 X0.0 Y14.4
S255
G1 X2.0 Y14.4
S0
G0 X4.4 Y14.4
S255
G1 X4.4 Y14.4
S255
G1 X6.5 Y14.4
S0
G0 X12.4 Y14.4
S255
G1 X12.4 Y14.4
S255
G1 X12.5 Y14.4
S0
G0 X12.9 Y14.4
S255
G1 X12.9 Y14.4
S255
G1 X30.2 Y14.4
S0
G0 X32.5 Y14.4
S255
G1 X32.5 Y14.4
S255
G1 X32.8 Y14.4
S0
G0 X33.1 Y14.4
S255
G1 X33.1 Y14.4
S255
G1 X33.4 Y14.4
S0
G0 X34.2 Y14.4
S255
G1 X34.2 Y14.4
S255
G1 X44.1 Y14.4
S0
G0 X44.2 Y14.4
S255
G1 X44.2 Y14.4
S255
G1 X48.4 Y14.4
S0
G0 X70.7 Y14.4
S255
G1 X70.7 Y14.4
S255
G1 X72.3 Y14.4
S0
G0 X81.3 Y14.4
S255
G1 X81.3 Y14.4
S255
G1 X81.5 Y14.4
S0
G0 X81.8 Y14.4
S255
G1 X81.8 Y14.4
S255
G1 X83.4 Y14.4
S0
G0 X90.0 Y14.4
S255
G1 X90.0 Y14.4
S255
G1 X99.9 Y14.4
S0
G0 X99.9 Y14.5
S255
G1 X90.1 Y14.5
S0
G0 X83.5 Y14.5
S255
G1 X83.5 Y14.5
S255
G1 X81.8 Y14.5
S0
G0 X81.6 Y14.5
S255
G1 X81.6 Y14.5
S255
G1 X81.4 Y14.5
S0
G0 X72.4 Y14.5
S255
G1 X72.4 Y14.5
S255
G1 X70.7 Y14.5
S0
G0 X48.5 Y14.5
S255
G1 X48.5 Y14.5
S255
G1 X34.3 Y14.5
S0
G0 X33.5 Y14.5
S255
G1 X33.5 Y14.5
S255
G1 X33.1 Y14.5
S0
G0 X32.8 Y14.5
S255
G1 X32.8 Y14.5
S255
G1 X32.4 Y14.5
S0
G0 X30.2 Y14.5
S255
G1 X30.2 Y14.5
S255
G1 X19.3 Y14.5
S0
G0 X19.2 Y14.5
S255
G1 X19.2 Y14.5
S255
G1 X12.9 Y14.5
S0
G0 X6.5 Y14.5
S255
G1 X6.5 Y14.5
S255
G1 X4.5 Y14.5
S0
G0 X2.0 Y14.5
S255
G1 X2.0 Y14.5
S255
G1 X0.0 Y14.5
S0
G0 X0.0 Y14.6
S255
G1 X2.0 Y14.6
S0
G0 X4.5 Y14.6
S255
G1 X4.5 Y14.6
S255
G1 X6.4 Y14.6
S0
G0 X12.4 Y14.6
S255
G1 X12.4 Y14.6
S255
G1 X12.5 Y14.6
S0
G0 X12.9 Y14.6
S255
G1 X12.9 Y14.6
S255
G1 X19.3 Y14.6
S0
G0 X19.6 Y14.6
S255
G1 X19.6 Y14.6
S255
G1 X28.3 Y14.6
S0
G0 X28.6 Y14.6
S255
G1 X28.6 Y14.6
S255
G1 X30.2 Y14.6
S0
G0 X32.2 Y14.6
S255
G1 X32.2 Y14.6
S255
G1 X32.8 Y14.6
S0
G0 X33.0 Y14.6
S255
G1 X33.0 Y14.6
S255
G1 X33.6 Y14.6
S0
G0 X34.4 Y14.6
S255
G1 X34.4 Y14.6
S255
G1 X34.8 Y14.6
S0
G0 X35.1 Y14.6
S255
G1 X35.1 Y14.6
S255
G1 X48.3 Y14.6
S0
G0 X70.6 Y14.6
S255
G1 X70.6 Y14.6
S255
G1 X72.4 Y14.6
S0
G0 X81.4 Y14.6
S255
G1 X81.4 Y14.6
S255
G1 X83.5 Y14.6
S0
G0 X90.1 Y14.6
S255
G1 X90.1 Y14.6
S255
G1 X99.9 Y14.6
S0
G0 X99.9 Y14.7
S255
G1 X90.1 Y14.7
S0
G0 X83.6 Y14.7
S255
G1 X83.6 Y14.7
S255
G1 X81.7 Y14.7
S0
G0 X81.6 Y14.7
S255
G1 X81.6 Y14.7
S255
G1 X81.4 Y14.7
S0
G0 X72.4 Y14.7
S255
G1 X72.4 Y14.7
S255
G1 X70.6 Y14.7
S0
G0 X48.2 Y14.7
S255
G1 X48.2 Y14.7
S255
G1 X44.8 Y14.7
S0
G0 X44.6 Y14.7
S255
G1 X44.6 Y14.7
S255
G1 X35.3 Y14.7
S0
G0 X33.7 Y14.7
S255
G1 X33.7 Y14.7
S255
G1 X33.0 Y14.7
S0
G0 X32.7 Y14.7
S255
G1 X32.7 Y14.7
S255
G1 X32.2 Y14.7
S0
G0 X30.2 Y14.7
S255
G1 X30.2 Y14.7
S255
G1 X28.6 Y14.7
S0
G0 X28.2 Y14.7
S255
G1 X28.2 Y14.7
S255
G1 X19.7 Y14.7
S0
G0 X19.3 Y14.7
S255
G1 X19.3 Y14.7
S255
G1 X12.9 Y14.7
S0
G0 X12.5 Y14.7
S255
G1 X12.5 Y14.7
S255
G1 X12.4 Y14.7
S0
G0 X6.4 Y14.7
S255
G1 X6.4 Y14.7
S255
G1 X4.4 Y14.7
S0
G0 X2.0 Y14.7
S255
G1 X2.0 Y14.7
S255
G1 X0.0 Y14.7
S0
G0 X0.0 Y14.8
S255
G1 X2.0 Y14.8
S0
G0 X4.4 Y14.8
S255
G1 X4.4 Y14.8
S255
G1 X6.4 Y14.8
S0
G0 X12.9 Y14.8
S255
G1 X12.9 Y14.8
S255
G1 X19.4 Y14.8
S0
G0 X19.8 Y14.8
S255
G1 X19.8 Y14.8
S255
G1 X20.2 Y14.8
S0
G0 X20.3 Y14.8
S255
G1 X20.3 Y14.8
S255
G1 X28.2 Y14.8
S0
G0 X28.6 Y14.8
S255
G1 X28.6 Y14.8
S255
G1 X30.2 Y14.8
S0
G0 X32.1 Y14.8
S255
G1 X32.1 Y14.8
S255
G1 X32.7 Y14.8
S0
G0 X33.0 Y14.8
S255
G1 X33.0 Y14.8
S255
G1 X33.6 Y14.8
S0
G0 X35.4 Y14.8
S255
G1 X35.4 Y14.8
S255
G1 X48.1 Y14.8
S0
G0 X70.6 Y14.8
S255
G1 X70.6 Y14.8
S255
G1 X72.4 Y14.8
S0
G0 X81.7 Y14.8
S255
G1 X81.7 Y14.8
S255
G1 X83.6 Y14.8
S0
G0 X90.2 Y14.8
S255
G1 X90.2 Y14.8
S255
G1 X99.9 Y14.8
S0
G0 X99.9 Y14.9
S255
G1 X90.2 Y14.9
S0
G0 X83.6 Y14.9
S255
G1 X83.6 Y14.9
S255
G1 X82.2 Y14.9
S0
G0 X82.0 Y14.9
S255
G1 X82.0 Y14.9
S255
G1 X81.7 Y14.9
S0
G0 X81.3 Y14.9
S255
G1 X81.3 Y14.9
S255
G1 X81.2 Y14.9
S0
G0 X72.4 Y14.9
S255
G1 X72.4 Y14.9
S255
G1 X70.6 Y14.9
S0
G0 X48.0 Y14.9
S255
G1 X48.0 Y14.9
S255
G1 X35.4 Y14.9
S0
G0 X33.6 Y14.9
S255
G1 X33.6 Y14.9
S255
G1 X33.0 Y14.9
S0
G0 X32.6 Y14.9
S255
G1 X32.6 Y14.9
S255
G1 X32.0 Y14.9
S0
G0 X30.2 Y14.9
S255
G1 X30.2 Y14.9
S255
G1 X28.5 Y14.9
S0
G0 X28.1 Y14.9
S255
G1 X28.1 Y14.9
S255
G1 X20.4 Y14.9
S0
G0 X20.2 Y14.9
S255
G1 X20.2 Y14.9
S255
G1 X19.8 Y14.9
S0
G0 X19.5 Y14.9
S255
G1 X19.5 Y14.9
S255
G1 X12.9 Y14.9
S0
G0 X6.4 Y14.9
S255
G1 X6.4 Y14.9
S255
G1 X4.4 Y14.9
S0
G0 X1.9 Y14.9
S255
G1 X1.9 Y14.9
S255
G1 X0.0 Y14.9
S0
G0 X0.0 Y15.0
S255
G1 X1.9 Y15.0
S0
G0 X4.4 Y15.0
S255
G1 X4.4 Y15.0
S255
G1 X6.4 Y15.0
S0
G0 X12.9 Y15.0
S255
G1 X12.9 Y15.0
S255
G1 X19.5 Y15.0
S0
G0 X19.9 Y15.0
S255
G1 X19.9 Y15.0
S255
G1 X20.2 Y15.0
S0
G0 X20.4 Y15.0
S255
G1 X20.4 Y15.0
S255
G1 X28.1 Y15.0
S0
G0 X28.3 Y15.0
S255
G1 X28.3 Y15.0
S255
G1 X30.2 Y15.0
S0
G0 X32.0 Y15.0
S255
G1 X32.0 Y15.0
S255
G1 X32.6 Y15.0
S0
G0 X33.0 Y15.0
S255
G1 X33.0 Y15.0
S255
G1 X33.7 Y15.0
S0
G0 X34.5 Y15.0
S255
G1 X34.5 Y15.0
S255
G1 X34.8 Y15.0
S0
G0 X35.4 Y15.0
S255
G1 X35.4 Y15.0
S255
G1 X44.8 Y15.0
S0
G0 X45.0 Y15.0
S255
G1 X45.0 Y15.0
S255
G1 X48.0 Y15.0
S0
G0 X70.5 Y15.0
S255
G1 X70.5 Y15.0
S255
G1 X72.4 Y15.0
S0
G0 X81.2 Y15.0
S255
G1 X81.2 Y15.0
S255
G1 X81.4 Y15.0
S0
G0 X81.7 Y15.0
S255
G1 X81.7 Y15.0
S255
G1 X81.9 Y15.0
S0
G0 X82.3 Y15.0
S255
G1 X82.3 Y15.0
S255
G1 X83.6 Y15.0
S0
G0 X90.3 Y15.0
S255
G1 X90.3 Y15.0
S255
G1 X99.9 Y15.0
S0
G0 X99.9 Y15.1
S255
G1 X90.3 Y15.1
S0
G0 X83.6 Y15.1
S255
G1 X83.6 Y15.1
S255
G1 X82.3 Y15.1
S0
G0 X81.9 Y15.1
S255
G1 X81.9 Y15.1
S255
G1 X81.2 Y15.1
S0
G0 X72.4 Y15.1
S255
G1 X72.4 Y15.1
S255
G1 X70.5 Y15.1
S0
G0 X48.0 Y15.1
S255
G1 X48.0 Y15.1
S255
G1 X45.0 Y15.1
S0
G0 X44.7 Y15.1
S255
G1 X44.7 Y15.1
S255
G1 X35.4 Y15.1
S0
G0 X34.9 Y15.1
S255
G1 X34.9 Y15.1
S255
G1 X34.5 Y15.1
S0
G0 X33.8 Y15.1
S255
G1 X33.8 Y15.1
S255
G1 X33.1 Y15.1
S0
G0 X32.6 Y15.1
S255
G1 X32.6 Y15.1
S255
G1 X31.9 Y15.1
S0
G0 X30.3 Y15.1
S255
G1 X30.3 Y15.1
S255
G1 X28.2 Y15.1
S0
G0 X28.0 Y15.1
S255
G1 X28.0 Y15.1
S255
G1 X20.4 Y15.1
S0
G0 X20.2 Y15.1
S255
G1 X20.2 Y15.1
S255
G1 X20.0 Y15.1
S0
G0 X19.6 Y15.1
S255
G1 X19.6 Y15.1
S255
G1 X12.9 Y15.1
S0
G0 X6.5 Y15.1
S255
G1 X6.5 Y15.1
S255
G1 X4.4 Y15.1
S0
G0 X1.9 Y15.1
S255
G1 X1.9 Y15.1
S255
G1 X0.0 Y15.1
S0
G0 X0.0 Y15.2
S255
G1 X1.9 Y15.2
S0
G0 X4.4 Y15.2
S255
G1 X4.4 Y15.2
S255
G1 X6.5 Y15.2
S0
G0 X12.9 Y15.2
S255
G1 X12.9 Y15.2
S255
G1 X19.6 Y15.2
S0
G0 X20.0 Y15.2
S255
G1 X20.0 Y15.2
S255
G1 X20.1 Y15.2
S0
G0 X20.4 Y15.2
S255
G1 X20.4 Y15.2
S255
G1 X28.1 Y15.2
S0
G0 X28.2 Y15.2
S255
G1 X28.2 Y15.2
S255
G1 X30.3 Y15.2
S0
G0 X32.0 Y15.2
S255
G1 X32.0 Y15.2
S255
G1 X32.5 Y15.2
S0
G0 X33.0 Y15.2
S255
G1 X33.0 Y15.2
S255
G1 X33.9 Y15.2
S0
G0 X34.5 Y15.2
S255
G1 X34.5 Y15.2
S255
G1 X34.9 Y15.2
S0
G0 X35.4 Y15.2
S255
G1 X35.4 Y15.2
S255
G1 X44.7 Y15.2
S0
G0 X45.0 Y15.2
S255
G1 X45.0 Y15.2
S255
G1 X48.0 Y15.2
S0
G0 X70.4 Y15.2
S255
G1 X70.4 Y15.2
S255
G1 X72.4 Y15.2
S0
G0 X81.0 Y15.2
S255
G1 X81.0 Y15.2
S255
G1 X81.2 Y15.2
S0
G0 X81.3 Y15.2
S255
G1 X81.3 Y15.2
S255
G1 X81.9 Y15.2
S0
G0 X82.2 Y15.2
S255
G1 X82.2 Y15.2
S255
G1 X82.6 Y15.2
S0
G0 X82.9 Y15.2
S255
G1 X82.9 Y15.2
S255
G1 X83.6 Y15.2
S0
G0 X90.4 Y15.2
S255
G1 X90.4 Y15.2
S255
G1 X99.9 Y15.2
S0
G0 X99.9 Y15.3
S255
G1 X90.4 Y15.3
S0
G0 X83.6 Y15.3
S255
G1 X83.6 Y15.3
S255
G1 X82.9 Y15.3
S0
G0 X82.5 Y15.3
S255
G1 X82.5 Y15.3
S255
G1 X82.2 Y15.3
S0
G0 X81.8 Y15.3
S255
G1 X81.8 Y15.3
S255
G1 X81.4 Y15.3
S0
G0 X81.2 Y15.3
S255
G1 X81.2 Y15.3
S255
G1 X80.9 Y15.3
S0
G0 X72.4 Y15.3
S255
G1 X72.4 Y15.3
S255
G1 X70.4 Y15.3
S0
G0 X48.1 Y15.3
S255
G1 X48.1 Y15.3
S255
G1 X44.8 Y15.3
S0
G0 X44.7 Y15.3
S255
G1 X44.7 Y15.3
S255
G1 X35.4 Y15.3
S0
G0 X35.0 Y15.3
S255
G1 X35.0 Y15.3
S255
G1 X34.6 Y15.3
S0
G0 X34.0 Y15.3
S255
G1 X34.0 Y15.3
S255
G1 X32.9 Y15.3
S0
G0 X32.5 Y15.3
S255
G1 X32.5 Y15.3
S255
G1 X32.0 Y15.3
S0
G0 X31.3 Y15.3
S255
G1 X31.3 Y15.3
S255
G1 X31.2 Y15.3
S0
G0 X30.3 Y15.3
S255
G1 X30.3 Y15.3
S255
G1 X20.4 Y15.3
S0
G0 X19.7 Y15.3
S255
G1 X19.7 Y15.3
S255
G1 X12.9 Y15.3
S0
G0 X6.5 Y15.3
S255
G1 X6.5 Y15.3
S255
G1 X4.4 Y15.3
S0
G0 X1.9 Y15.3
S255
G1 X1.9 Y15.3
S255
G1 X0.0 Y15.3
S0
G0 X0.0 Y15.4
S255
G1 X1.9 Y15.4
S0
G0 X4.4 Y15.4
S255
G1 X4.4 Y15.4
S255
G1 X6.5 Y15.4
S0
G0 X12.9 Y15.4
S255
G1 X12.9 Y15.4
S255
G1 X19.9 Y15.4
S0
G0 X20.4 Y15.4
S255
G1 X20.4 Y15.4
S255
G1 X30.3 Y15.4
S0
G0 X30.9 Y15.4
S255
G1 X30.9 Y15.4
S255
G1 X31.4 Y15.4
S0
G0 X32.1 Y15.4
S255
G1 X32.1 Y15.4
S255
G1 X32.4 Y15.4
S0
G0 X32.9 Y15.4
S255
G1 X32.9 Y15.4
S255
G1 X34.0 Y15.4
S0
G0 X34.6 Y15.4
S255
G1 X34.6 Y15.4
S255
G1 X35.1 Y15.4
S0
G0 X35.3 Y15.4
S255
G1 X35.3 Y15.4
S255
G1 X48.0 Y15.4
S0
G0 X70.4 Y15.4
S255
G1 X70.4 Y15.4
S255
G1 X72.4 Y15.4
S0
G0 X81.2 Y15.4
S255
G1 X81.2 Y15.4
S255
G1 X81.4 Y15.4
S0
G0 X81.5 Y15.4
S255
G1 X81.5 Y15.4
S255
G1 X81.7 Y15.4
S0
G0 X82.2 Y15.4
S255
G1 X82.2 Y15.4
S255
G1 X82.5 Y15.4
S0
G0 X82.9 Y15.4
S255
G1 X82.9 Y15.4
S255
G1 X83.6 Y15.4
S0
G0 X90.5 Y15.4
S255
G1 X90.5 Y15.4
S255
G1 X99.9 Y15.4
S0
G0 X99.9 Y15.5
S255
G1 X90.5 Y15.5
S0
G0 X83.7 Y15.5
S255
G1 X83.7 Y15.5
S255
G1 X82.9 Y15.5
S0
G0 X82.7 Y15.5
S255
G1 X82.7 Y15.5
S255
G1 X82.5 Y15.5
S0
G0 X81.4 Y15.5
S255
G1 X81.4 Y15.5
S255
G1 X81.2 Y15.5
S0
G0 X72.4 Y15.5
S255
G1 X72.4 Y15.5
S255
G1 X70.4 Y15.5
S0
G0 X48.0 Y15.5
S255
G1 X48.0 Y15.5
S255
G1 X34.7 Y15.5
S0
G0 X34.0 Y15.5
S255
G1 X34.0 Y15.5
S255
G1 X32.8 Y15.5
S0
G0 X32.4 Y15.5
S255
G1 X32.4 Y15.5
S255
G1 X32.3 Y15.5
S0
G0 X31.5 Y15.5
S255
G1 X31.5 Y15.5
S255
G1 X30.9 Y15.5
S0
G0 X30.3 Y15.5
S255
G1 X30.3 Y15.5
S255
G1 X20.4 Y15.5
S0
G0 X19.9 Y15.5
S255
G1 X19.9 Y15.5
S255
G1 X12.8 Y15.5
S0
G0 X6.5 Y15.5
S255
G1 X6.5 Y15.5
S255
G1 X4.4 Y15.5
S0
G0 X1.9 Y15.5
S255
G1 X1.9 Y15.5
S255
G1 X0.0 Y15.5
S0
G0 X0.0 Y15.6
S255
G1 X1.8 Y15.6
S0
G0 X4.4 Y15.6
S255
G1 X4.4 Y15.6
S255
G1 X6.5 Y15.6
S0
G0 X12.9 Y15.6
S255
G1 X12.9 Y15.6
S255
G1 X19.9 Y15.6
S0
G0 X20.4 Y15.6
S255
G1 X20.4 Y15.6
S255
G1 X30.3 Y15.6
S0
G0 X31.0 Y15.6
S255
G1 X31.0 Y15.6
S255
G1 X31.4 Y15.6
S0
G0 X32.2 Y15.6
S255
G1 X32.2 Y15.6
S255
G1 X32.5 Y15.6
S0
G0 X32.7 Y15.6
S255
G1 X32.7 Y15.6
S255
G1 X34.1 Y15.6
S0
G0 X34.7 Y15.6
S255
G1 X34.7 Y15.6
S255
G1 X48.0 Y15.6
S0
G0 X70.3 Y15.6
S255
G1 X70.3 Y15.6
S255
G1 X72.4 Y15.6
S0
G0 X82.3 Y15.6
S255
G1 X82.3 Y15.6
S255
G1 X83.8 Y15.6
S0
G0 X90.5 Y15.6
S255
G1 X90.5 Y15.6
S255
G1 X99.9 Y15.6
S0
G0 X99.9 Y15.7
S255
G1 X90.6 Y15.7
S0
G0 X83.8 Y15.7
S255
G1 X83.8 Y15.7
S255
G1 X82.3 Y15.7
S0
G0 X72.4 Y15.7
S255
G1 X72.4 Y15.7
S255
G1 X70.3 Y15.7
S0
G0 X48.0 Y15.7
S255
G1 X48.0 Y15.7
S255
G1 X34.7 Y15.7
S0
G0 X34.1 Y15.7
S255
G1 X34.1 Y15.7
S255
G1 X32.1 Y15.7
S0
G0 X31.4 Y15.7
S255
G1 X31.4 Y15.7
S255
G1 X31.1 Y15.7
S0
G0 X30.3 Y15.7
S255
G1 X30.3 Y15.7
S255
G1 X20.4 Y15.7
S0
G0 X19.9 Y15.7
S255
G1 X19.9 Y15.7
S255
G1 X12.9 Y15.7
S0
G0 X6.4 Y15.7
S255
G1 X6.4 Y15.7
S255
G1 X4.3 Y15.7
S0
G0 X1.8 Y15.7
S255
G1 X1.8 Y15.7
S255
G1 X0.0 Y15.7
S0
G0 X0.0 Y15.8
S255
G1 X1.8 Y15.8
S0
G0 X4.3 Y15.8
S255
G1 X4.3 Y15.8
S255
G1 X6.4 Y15.8
S0
G0 X12.9 Y15.8
S255
G1 X12.9 Y15.8
S255
G1 X20.0 Y15.8
S0
G0 X20.5 Y15.8
S255
G1 X20.5 Y15.8
S255
G1 X30.4 Y15.8
S0
G0 X31.1 Y15.8
S255
G1 X31.1 Y15.8
S255
G1 X31.5 Y15.8
S0
G0 X32.1 Y15.8
S255
G1 X32.1 Y15.8
S255
G1 X34.1 Y15.8
S0
G0 X34.8 Y15.8
S255
G1 X34.8 Y15.8
S255
G1 X47.9 Y15.8
S0
G0 X70.2 Y15.8
S255
G1 X70.2 Y15.8
S255
G1 X72.5 Y15.8
S0
G0 X81.8 Y15.8
S255
G1 X81.8 Y15.8
S255
G1 X82.0 Y15.8
S0
G0 X82.3 Y15.8
S255
G1 X82.3 Y15.8
S255
G1 X83.8 Y15.8
S0
G0 X90.6 Y15.8
S255
G1 X90.6 Y15.8
S255
G1 X99.9 Y15.8
S0
G0 X99.9 Y15.9
S255
G1 X90.7 Y15.9
S0
G0 X83.8 Y15.9
S255
G1 X83.8 Y15.9
S255
G1 X82.1 Y15.9
S0
G0 X81.9 Y15.9
S255
G1 X81.9 Y15.9
S255
G1 X81.8 Y15.9
S0
G0 X72.5 Y15.9
S255
G1 X72.5 Y15.9
S255
G1 X70.2 Y15.9
S0
G0 X48.3 Y15.9
S255
G1 X48.3 Y15.9
S255
G1 X48.2 Y15.9
S0
G0 X47.9 Y15.9
S255
G1 X47.9 Y15.9
S255
G1 X34.9 Y15.9
S0
G0 X34.1 Y15.9
S255
G1 X34.1 Y15.9
S255
G1 X32.1 Y15.9
S0
G0 X31.6 Y15.9
S255
G1 X31.6 Y15.9
S255
G1 X31.1 Y15.9
S0
G0 X30.4 Y15.9
S255
G1 X30.4 Y15.9
S255
G1 X20.5 Y15.9
S0
G0 X20.0 Y15.9
S255
G1 X20.0 Y15.9
S255
G1 X12.9 Y15.9
S0
G0 X6.4 Y15.9
S255
G1 X6.4 Y15.9
S255
G1 X4.3 Y15.9
S0
G0 X1.8 Y15.9
S255
G1 X1.8 Y15.9
S255
G1 X0.0 Y15.9
S0
G0 X0.0 Y16.0
S255
G1 X1.8 Y16.0
S0
G0 X4.3 Y16.0
S255
G1 X4.3 Y16.0
S255
G1 X6.5 Y16.0
S0
G0 X12.9 Y16.0
S255
G1 X12.9 Y16.0
S255
G1 X13.1 Y16.0
S0
G0 X13.3 Y16.0
S255
G1 X13.3 Y16.0
S255
G1 X20.0 Y16.0
S0
G0 X20.5 Y16.0
S255
G1 X20.5 Y16.0
S255
G1 X30.4 Y16.0
S0
G0 X31.2 Y16.0
S255
G1 X31.2 Y16.0
S255
G1 X31.7 Y16.0
S0
G0 X32.2 Y16.0
S255
G1 X32.2 Y16.0
S255
G1 X34.1 Y16.0
S0
G0 X34.9 Y16.0
S255
G1 X34.9 Y16.0
S255
G1 X48.2 Y16.0
S0
G0 X49.3 Y16.0
S255
G1 X49.3 Y16.0
S255
G1 X49.6 Y16.0
S0
G0 X70.2 Y16.0
S255
G1 X70.2 Y16.0
S255
G1 X72.5 Y16.0
S0
G0 X82.2 Y16.0
S255
G1 X82.2 Y16.0
S255
G1 X83.8 Y16.0
S0
G0 X90.7 Y16.0
S255
G1 X90.7 Y16.0
S255
G1 X99.9 Y16.0
S0
G0 X99.9 Y16.1
S255
G1 X90.7 Y16.1
S0
G0 X83.9 Y16.1
S255
G1 X83.9 Y16.1
S255
G1 X82.3 Y16.1
S0
G0 X72.5 Y16.1
S255
G1 X72.5 Y16.1
S255
G1 X70.1 Y16.1
S0
G0 X49.6 Y16.1
S255
G1 X49.6 Y16.1
S255
G1 X49.4 Y16.1
S0
G0 X49.1 Y16.1
S255
G1 X49.1 Y16.1
S255
G1 X49.0 Y16.1
S0
G0 X48.2 Y16.1
S255
G1 X48.2 Y16.1
S255
G1 X34.9 Y16.1
S0
G0 X34.1 Y16.1
S255
G1 X34.1 Y16.1
S255
G1 X32.3 Y16.1
S0
G0 X31.7 Y16.1
S255
G1 X31.7 Y16.1
S255
G1 X31.3 Y16.1
S0
G0 X30.4 Y16.1
S255
G1 X30.4 Y16.1
S255
G1 X20.5 Y16.1
S0
G0 X20.1 Y16.1
S255
G1 X20.1 Y16.1
S255
G1 X13.4 Y16.1
S0
G0 X13.1 Y16.1
S255
G1 X13.1 Y16.1
S255
G1 X12.8 Y16.1
S0
G0 X6.5 Y16.1
S255
G1 X6.5 Y16.1
S255
G1 X4.3 Y16.1
S0
G0 X1.8 Y16.1
S255
G1 X1.8 Y16.1
S255
G1 X0.0 Y16.1
S0
G0 X0.0 Y16.2
S255
G1 X1.8 Y16.2
S0
G0 X4.3 Y16.2
S255
G1 X4.3 Y16.2
S255
G1 X6.4 Y16.2
S0
G0 X12.4 Y16.2
S255
G1 X12.4 Y16.2
S255
G1 X13.1 Y16.2
S0
G0 X13.4 Y16.2
S255
G1 X13.4 Y16.2
S255
G1 X20.1 Y16.2
S0
G0 X20.6 Y16.2
S255
G1 X20.6 Y16.2
S255
G1 X30.3 Y16.2
S0
G0 X31.5 Y16.2
S255
G1 X31.5 Y16.2
S255
G1 X31.7 Y16.2
S0
G0 X32.3 Y16.2
S255
G1 X32.3 Y16.2
S255
G1 X34.0 Y16.2
S0
G0 X35.0 Y16.2
S255
G1 X35.0 Y16.2
S255
G1 X48.1 Y16.2
S0
G0 X70.0 Y16.2
S255
G1 X70.0 Y16.2
S255
G1 X72.6 Y16.2
S0
G0 X82.5 Y16.2
S255
G1 X82.5 Y16.2
S255
G1 X84.0 Y16.2
S0
G0 X90.8 Y16.2
S255
G1 X90.8 Y16.2
S255
G1 X99.9 Y16.2
S0
G0 X99.9 Y16.3
S255
G1 X90.8 Y16.3
S0
G0 X84.0 Y16.3
S255
G1 X84.0 Y16.3
S255
G1 X83.1 Y16.3
S0
G0 X83.0 Y16.3
S255
G1 X83.0 Y16.3
S255
G1 X82.5 Y16.3
S0
G0 X72.6 Y16.3
S255
G1 X72.6 Y16.3
S255
G1 X70.0 Y16.3
S0
G0 X48.1 Y16.3
S255
G1 X48.1 Y16.3
S255
G1 X35.0 Y16.3
S0
G0 X34.0 Y16.3
S255
G1 X34.0 Y16.3
S255
G1 X32.3 Y16.3
S0
G0 X31.7 Y16.3
S255
G1 X31.7 Y16.3
S255
G1 X31.6 Y16.3
S0
G0 X30.3 Y16.3
S255
G1 X30.3 Y16.3
S255
G1 X20.6 Y16.3
S0
G0 X20.1 Y16.3
S255
G1 X20.1 Y16.3
S255
G1 X13.4 Y16.3
S0
G0 X13.1 Y16.3
S255
G1 X13.1 Y16.3
S255
G1 X12.3 Y16.3
S0
G0 X6.4 Y16.3
S255
G1 X6.4 Y16.3
S255
G1 X4.4 Y16.3
S0
G0 X1.8 Y16.3
S255
G1 X1.8 Y16.3
S255
G1 X0.0 Y16.3
S0
G0 X0.0 Y16.4
S255
G1 X1.8 Y16.4
S0
G0 X4.4 Y16.4
S255
G1 X4.4 Y16.4
S255
G1 X6.4 Y16.4
S0
G0 X12.3 Y16.4
S255
G1 X12.3 Y16.4
S255
G1 X13.1 Y16.4
S0
G0 X13.5 Y16.4
S255
G1 X13.5 Y16.4
S255
G1 X20.2 Y16.4
S0
G0 X20.6 Y16.4
S255
G1 X20.6 Y16.4
S255
G1 X30.3 Y16.4
S0
G0 X32.3 Y16.4
S255
G1 X32.3 Y16.4
S255
G1 X34.0 Y16.4
S0
G0 X35.0 Y16.4
S255
G1 X35.0 Y16.4
S255
G1 X48.2 Y16.4
S0
G0 X49.2 Y16.4
S255
G1 X49.2 Y16.4
S255
G1 X49.3 Y16.4
S0
G0 X70.0 Y16.4
S255
G1 X70.0 Y16.4
S255
G1 X72.6 Y16.4
S0
G0 X82.4 Y16.4
S255
G1 X82.4 Y16.4
S255
G1 X83.1 Y16.4
S0
G0 X83.3 Y16.4
S255
G1 X83.3 Y16.4
S255
G1 X84.1 Y16.4
S0
G0 X90.9 Y16.4
S255
G1 X90.9 Y16.4
S255
G1 X99.9 Y16.4
S0
G0 X99.9 Y16.5
S255
G1 X90.9 Y16.5
S0
G0 X84.2 Y16.5
S255
G1 X84.2 Y16.5
S255
G1 X83.3 Y16.5
S0
G0 X83.2 Y16.5
S255
G1 X83.2 Y16.5
S255
G1 X82.4 Y16.5
S0
G0 X72.6 Y16.5
S255
G1 X72.6 Y16.5
S255
G1 X69.9 Y16.5
S0
G0 X49.7 Y16.5
S255
G1 X49.7 Y16.5
S255
G1 X49.1 Y16.5
S0
G0 X48.3 Y16.5
S255
G1 X48.3 Y16.5
S255
G1 X35.0 Y16.5
S0
G0 X34.0 Y16.5
S255
G1 X34.0 Y16.5
S255
G1 X32.3 Y16.5
S0
G0 X30.3 Y16.5
S255
G1 X30.3 Y16.5
S255
G1 X20.6 Y16.5
S0
G0 X20.2 Y16.5
S255
G1 X20.2 Y16.5
S255
G1 X13.5 Y16.5
S0
G0 X13.2 Y16.5
S255
G1 X13.2 Y16.5
S255
G1 X12.3 Y16.5
S0
G0 X6.4 Y16.5
S255
G1 X6.4 Y16.5
S255
G1 X4.5 Y16.5
S0
G0 X1.8 Y16.5
S255
G1 X1.8 Y16.5
S255
G1 X0.0 Y16.5
S0
G0 X0.0 Y16.6
S255
G1 X1.8 Y16.6
S0
G0 X4.4 Y16.6
S255
G1 X4.4 Y16.6
S255
G1 X6.4 Y16.6
S0
G0 X12.3 Y16.6
S255
G1 X12.3 Y16.6
S255
G1 X13.3 Y16.6
S0
G0 X13.5 Y16.6
S255
G1 X13.5 Y16.6
S255
G1 X20.3 Y16.6
S0
G0 X20.6 Y16.6
S255
G1 X20.6 Y16.6
S255
G1 X30.3 Y16.6
S0
G0 X32.2 Y16.6
S255
G1 X32.2 Y16.6
S255
G1 X34.0 Y16.6
S0
G0 X35.0 Y16.6
S255
G1 X35.0 Y16.6
S255
G1 X48.3 Y16.6
S0
G0 X49.2 Y16.6
S255
G1 X49.2 Y16.6
S255
G1 X49.7 Y16.6
S0
G0 X69.9 Y16.6
S255
G1 X69.9 Y16.6
S255
G1 X72.6 Y16.6
S0
G0 X82.7 Y16.6
S255
G1 X82.7 Y16.6
S255
G1 X84.3 Y16.6
S0
G0 X91.0 Y16.6
S255
G1 X91.0 Y16.6
S255
G1 X99.9 Y16.6
S0
G0 X99.9 Y16.7
S255
G1 X91.0 Y16.7
S0
G0 X84.4 Y16.7
S255
G1 X84.4 Y16.7
S255
G1 X82.8 Y16.7
S0
G0 X72.6 Y16.7
S255
G1 X72.6 Y16.7
S255
G1 X69.8 Y16.7
S0
G0 X49.7 Y16.7
S255
G1 X49.7 Y16.7
S255
G1 X49.2 Y16.7
S0
G0 X48.8 Y16.7
S255
G1 X48.8 Y16.7
S255
G1 X48.6 Y16.7
S0
G0 X48.3 Y16.7
S255
G1 X48.3 Y16.7
S255
G1 X35.0 Y16.7
S0
G0 X34.0 Y16.7
S255
G1 X34.0 Y16.7
S255
G1 X32.2 Y16.7
S0
G0 X30.3 Y16.7
S255
G1 X30.3 Y16.7
S255
G1 X20.6 Y16.7
S0
G0 X20.3 Y16.7
S255
G1 X20.3 Y16.7
S255
G1 X13.0 Y16.7
S0
G0 X12.8 Y16.7
S255
G1 X12.8 Y16.7
S255
G1 X12.2 Y16.7
S0
G0 X6.4 Y16.7
S255
G1 X6.4 Y16.7
S255
G1 X4.4 Y16.7
S0
G0 X1.7 Y16.7
S255
G1 X1.7 Y16.7
S255
G1 X0.0 Y16.7
S0
G0 X0.0 Y16.8
S255
G1 X1.6 Y16.8
S0
G0 X4.4 Y16.8
S255
G1 X4.4 Y16.8
S255
G1 X6.4 Y16.8
S0
G0 X12.3 Y16.8
S255
G1 X12.3 Y16.8
S255
G1 X12.8 Y16.8
S0
G0 X13.1 Y16.8
S255
G1 X13.1 Y16.8
S255
G1 X20.4 Y16.8
S0
G0 X20.7 Y16.8
S255
G1 X20.7 Y16.8
S255
G1 X30.3 Y16.8
S0
G0 X31.4 Y16.8
S255
G1 X31.4 Y16.8
S255
G1 X31.5 Y16.8
S0
G0 X32.1 Y16.8
S255
G1 X32.1 Y16.8
S255
G1 X34.0 Y16.8
S0
G0 X35.0 Y16.8
S255
G1 X35.0 Y16.8
S255
G1 X48.4 Y16.8
S0
G0 X48.6 Y16.8
S255
G1 X48.6 Y16.8
S255
G1 X48.8 Y16.8
S0
G0 X49.2 Y16.8
S255
G1 X49.2 Y16.8
S255
G1 X49.6 Y16.8
S0
G0 X69.8 Y16.8
S255
G1 X69.8 Y16.8
S255
G1 X72.6 Y16.8
S0
G0 X82.5 Y16.8
S255
G1 X82.5 Y16.8
S255
G1 X82.8 Y16.8
S0
G0 X83.0 Y16.8
S255
G1 X83.0 Y16.8
S255
G1 X83.5 Y16.8
S0
G0 X83.7 Y16.8
S255
G1 X83.7 Y16.8
S255
G1 X84.4 Y16.8
S0
G0 X91.1 Y16.8
S255
G1 X91.1 Y16.8
S255
G1 X99.9 Y16.8
S0
G0 X99.9 Y16.9
S255
G1 X91.1 Y16.9
S0
G0 X84.5 Y16.9
S255
G1 X84.5 Y16.9
S255
G1 X83.7 Y16.9
S0
G0 X83.5 Y16.9
S255
G1 X83.5 Y16.9
S255
G1 X82.9 Y16.9
S0
G0 X82.8 Y16.9
S255
G1 X82.8 Y16.9
S255
G1 X82.5 Y16.9
S0
G0 X72.6 Y16.9
S255
G1 X72.6 Y16.9
S255
G1 X69.8 Y16.9
S0
G0 X49.6 Y16.9
S255
G1 X49.6 Y16.9
S255
G1 X49.2 Y16.9
S0
G0 X48.7 Y16.9
S255
G1 X48.7 Y16.9
S255
G1 X48.6 Y16.9
S0
G0 X48.4 Y16.9
S255
G1 X48.4 Y16.9
S255
G1 X35.1 Y16.9
S0
G0 X34.0 Y16.9
S255
G1 X34.0 Y16.9
S255
G1 X32.1 Y16.9
S0
G0 X31.5 Y16.9
S255
G1 X31.5 Y16.9
S255
G1 X31.3 Y16.9
S0
G0 X30.2 Y16.9
S255
G1 X30.2 Y16.9
S255
G1 X20.6 Y16.9
S0
G0 X20.4 Y16.9
S255
G1 X20.4 Y16.9
S255
G1 X13.1 Y16.9
S0
G0 X12.7 Y16.9
S255
G1 X12.7 Y16.9
S255
G1 X12.3 Y16.9
S0
G0 X6.4 Y16.9
S255
G1 X6.4 Y16.9
S255
G1 X4.4 Y16.9
S0
G0 X1.6 Y16.9
S255
G1 X1.6 Y16.9
S255
G1 X0.0 Y16.9
S0
G0 X0.0 Y17.0
S255
G1 X1.7 Y17.0
S0
G0 X4.3 Y17.0
S255
G1 X4.3 Y17.0
S255
G1 X6.4 Y17.0
S0
G0 X12.3 Y17.0
S255
G1 X12.3 Y17.0
S255
G1 X12.7 Y17.0
S0
G0 X13.1 Y17.0
S255
G1 X13.1 Y17.0
S255
G1 X20.4 Y17.0
S0
G0 X20.6 Y17.0
S255
G1 X20.6 Y17.0
S255
G1 X30.2 Y17.0
S0
G0 X30.7 Y17.0
S255
G1 X30.7 Y17.0
S255
G1 X30.9 Y17.0
S0
G0 X31.4 Y17.0
S255
G1 X31.4 Y17.0
S255
G1 X31.5 Y17.0
S0
G0 X32.1 Y17.0
S255
G1 X32.1 Y17.0
S255
G1 X34.0 Y17.0
S0
G0 X35.1 Y17.0
S255
G1 X35.1 Y17.0
S255
G1 X48.4 Y17.0
S0
G0 X49.3 Y17.0
S255
G1 X49.3 Y17.0
S255
G1 X49.6 Y17.0
S0
G0 X69.7 Y17.0
S255
G1 X69.7 Y17.0
S255
G1 X72.6 Y17.0
S0
G0 X82.6 Y17.0
S255
G1 X82.6 Y17.0
S255
G1 X83.2 Y17.0
S0
G0 X83.3 Y17.0
S255
G1 X83.3 Y17.0
S255
G1 X84.6 Y17.0
S0
G0 X91.1 Y17.0
S255
G1 X91.1 Y17.0
S255
G1 X99.9 Y17.0
S0
G0 X99.9 Y17.1
S255
G1 X91.2 Y17.1
S0
G0 X84.7 Y17.1
S255
G1 X84.7 Y17.1
S255
G1 X83.4 Y17.1
S0
G0 X83.1 Y17.1
S255
G1 X83.1 Y17.1
S255
G1 X82.8 Y17.1
S0
G0 X82.7 Y17.1
S255
G1 X82.7 Y17.1
S255
G1 X82.6 Y17.1
S0
G0 X72.6 Y17.1
S255
G1 X72.6 Y17.1
S255
G1 X69.6 Y17.1
S0
G0 X49.4 Y17.1
S255
G1 X49.4 Y17.1
S255
G1 X49.3 Y17.1
S0
G0 X48.2 Y17.1
S255
G1 X48.2 Y17.1
S255
G1 X35.1 Y17.1
S0
G0 X34.4 Y17.1
S255
G1 X34.4 Y17.1
S255
G1 X34.3 Y17.1
S0
G0 X33.9 Y17.1
S255
G1 X33.9 Y17.1
S255
G1 X32.1 Y17.1
S0
G0 X31.5 Y17.1
S255
G1 X31.5 Y17.1
S255
G1 X31.4 Y17.1
S0
G0 X31.0 Y17.1
S255
G1 X31.0 Y17.1
S255
G1 X30.7 Y17.1
S0
G0 X30.2 Y17.1
S255
G1 X30.2 Y17.1
S255
G1 X20.6 Y17.1
S0
G0 X20.4 Y17.1
S255
G1 X20.4 Y17.1
S255
G1 X13.1 Y17.1
S0
G0 X12.7 Y17.1
S255
G1 X12.7 Y17.1
S255
G1 X12.3 Y17.1
S0
G0 X6.4 Y17.1
S255
G1 X6.4 Y17.1
S255
G1 X4.3 Y17.1
S0
G0 X1.7 Y17.1
S255
G1 X1.7 Y17.1
S255
G1 X0.0 Y17.1
S0
G0 X0.0 Y17.2
S255
G1 X1.7 Y17.2
S0
G0 X4.4 Y17.2
S255
G1 X4.4 Y17.2
S255
G1 X6.4 Y17.2
S0
G0 X12.3 Y17.2
S255
G1 X12.3 Y17.2
S255
G1 X12.7 Y17.2
S0
G0 X13.2 Y17.2
S255
G1 X13.2 Y17.2
S255
G1 X20.4 Y17.2
S0
G0 X20.6 Y17.2
S255
G1 X20.6 Y17.2
S255
G1 X30.2 Y17.2
S0
G0 X30.7 Y17.2
S255
G1 X30.7 Y17.2
S255
G1 X31.1 Y17.2
S0
G0 X32.2 Y17.2
S255
G1 X32.2 Y17.2
S255
G1 X33.9 Y17.2
S0
G0 X34.3 Y17.2
S255
G1 X34.3 Y17.2
S255
G1 X34.5 Y17.2
S0
G0 X35.1 Y17.2
S255
G1 X35.1 Y17.2
S255
G1 X48.2 Y17.2
S0
G0 X49.1 Y17.2
S255
G1 X49.1 Y17.2
S255
G1 X49.4 Y17.2
S0
G0 X69.6 Y17.2
S255
G1 X69.6 Y17.2
S255
G1 X72.6 Y17.2
S0
G0 X82.6 Y17.2
S255
G1 X82.6 Y17.2
S255
G1 X82.7 Y17.2
S0
G0 X83.3 Y17.2
S255
G1 X83.3 Y17.2
S255
G1 X84.8 Y17.2
S0
G0 X91.2 Y17.2
S255
G1 X91.2 Y17.2
S255
G1 X99.9 Y17.2
S0
G0 X99.9 Y17.3
S255
G1 X91.2 Y17.3
S0
G0 X84.7 Y17.3
S255
G1 X84.7 Y17.3
S255
G1 X83.2 Y17.3
S0
G0 X72.7 Y17.3
S255
G1 X72.7 Y17.3
S255
G1 X69.6 Y17.3
S0
G0 X49.3 Y17.3
S255
G1 X49.3 Y17.3
S255
G1 X49.2 Y17.3
S0
G0 X48.3 Y17.3
S255
G1 X48.3 Y17.3
S255
G1 X35.1 Y17.3
S0
G0 X34.5 Y17.3
S255
G1 X34.5 Y17.3
S255
G1 X34.2 Y17.3
S0
