( imgcode generated code )
( developed by M. "Vidmo" Widomski )
(  github.com/vidmo91 )
(  hackaday.io/vidmo91 )
 
H5 S0 
F100
G0 Z0 ( for some grbl senders compatibility )
 
G0 X0.0 Y0.0
M3 S191
G1 X0.0 Y0.0
M3 S128
G1 X0.2 Y0.0
M3 S64
G1 X0.4 Y0.0
M3 S128
G1 X0.6 Y0.0
M3 S64
G1 X1.0 Y0.0
M3 S191
G1 X3.4 Y0.0
M3 S128
G1 X6.2 Y0.0
M3 S64
G1 X7.2 Y0.0
M3 S128
G1 X7.4 Y0.0
M3 S191
G1 X7.6 Y0.0
M3 S128
G1 X8.4 Y0.0
M3 S191
G1 X9.0 Y0.0
M3 S128
G1 X9.2 Y0.0
M3 S191
G1 X9.8 Y0.0
M5 S0
G0 X9.8 Y0.2
M3 S191
G1 X9.4 Y0.2
M3 S128
G1 X9.2 Y0.2
M3 S191
G1 X8.2 Y0.2
M3 S128
G1 X7.2 Y0.2
M3 S64
G1 X6.2 Y0.2
M3 S128
G1 X3.8 Y0.2
M3 S191
G1 X3.0 Y0.2
M3 S128
G1 X2.8 Y0.2
M3 S191
G1 X1.0 Y0.2
M3 S64
G1 X0.6 Y0.2
M3 S128
G1 X0.4 Y0.2
M3 S64
G1 X0.2 Y0.2
M3 S128
G1 X0.0 Y0.2
M5 S0
G0 X0.0 Y0.4
M3 S191
G1 X0.0 Y0.4
M3 S128
G1 X0.6 Y0.4
M3 S64
G1 X1.0 Y0.4
M3 S191
G1 X2.8 Y0.4
M3 S128
G1 X3.0 Y0.4
M3 S191
G1 X4.0 Y0.4
M3 S128
G1 X6.2 Y0.4
M3 S64
G1 X7.2 Y0.4
M3 S191
G1 X7.4 Y0.4
M3 S128
G1 X7.6 Y0.4
M3 S191
G1 X8.0 Y0.4
M3 S64
G1 X8.2 Y0.4
M3 S128
G1 X8.4 Y0.4
M3 S191
G1 X9.2 Y0.4
M3 S128
G1 X9.4 Y0.4
M3 S191
G1 X9.8 Y0.4
M5 S0
G0 X9.8 Y0.6
M3 S191
G1 X9.6 Y0.6
M3 S128
G1 X9.4 Y0.6
M3 S191
G1 X8.6 Y0.6
M3 S128
G1 X8.4 Y0.6
M3 S64
G1 X8.0 Y0.6
M3 S191
G1 X7.4 Y0.6
M3 S128
G1 X7.0 Y0.6
M3 S64
G1 X6.0 Y0.6
M3 S128
G1 X4.2 Y0.6
M3 S191
G1 X4.0 Y0.6
M3 S128
G1 X3.8 Y0.6
M3 S191
G1 X3.0 Y0.6
M3 S128
G1 X2.8 Y0.6
M3 S191
G1 X1.2 Y0.6
M3 S128
G1 X1.0 Y0.6
M3 S64
G1 X0.6 Y0.6
M3 S128
G1 X0.0 Y0.6
M5 S0
G0 X0.0 Y0.8
M3 S191
G1 X0.0 Y0.8
M3 S128
G1 X0.6 Y0.8
M3 S64
G1 X1.0 Y0.8
M3 S128
G1 X1.2 Y0.8
M3 S191
G1 X2.6 Y0.8
M3 S128
G1 X2.8 Y0.8
M3 S191
G1 X3.8 Y0.8
M3 S128
G1 X4.2 Y0.8
M3 S191
G1 X4.4 Y0.8
M3 S128
G1 X6.0 Y0.8
M3 S64
G1 X7.0 Y0.8
M3 S128
G1 X7.2 Y0.8
M3 S191
G1 X7.6 Y0.8
M3 S128
G1 X8.2 Y0.8
M3 S64
G1 X8.6 Y0.8
M3 S128
G1 X8.8 Y0.8
M3 S191
G1 X9.4 Y0.8
M3 S128
G1 X9.8 Y0.8
M5 S0
G0 X9.8 Y1.0
M3 S191
G1 X9.4 Y1.0
M3 S128
G1 X9.2 Y1.0
M3 S191
G1 X9.0 Y1.0
M3 S128
G1 X8.6 Y1.0
M3 S64
G1 X8.2 Y1.0
M3 S128
G1 X7.0 Y1.0
M3 S64
G1 X5.8 Y1.0
M3 S128
G1 X4.0 Y1.0
M3 S191
G1 X3.2 Y1.0
M3 S128
G1 X3.0 Y1.0
M3 S191
G1 X1.2 Y1.0
M3 S128
G1 X1.0 Y1.0
M3 S64
G1 X0.6 Y1.0
M3 S128
G1 X0.0 Y1.0
M5 S0
G0 X0.0 Y1.2
M3 S191
G1 X0.0 Y1.2
M3 S128
G1 X0.6 Y1.2
M3 S64
G1 X1.0 Y1.2
M3 S128
G1 X1.2 Y1.2
M3 S191
G1 X2.8 Y1.2
M3 S128
G1 X3.0 Y1.2
M3 S191
G1 X4.0 Y1.2
M3 S128
G1 X5.8 Y1.2
M3 S64
G1 X6.8 Y1.2
M3 S128
G1 X8.2 Y1.2
M3 S64
G1 X8.8 Y1.2
M3 S128
G1 X9.8 Y1.2
M5 S0
G0 X9.8 Y1.4
M3 S128
G1 X8.8 Y1.4
M3 S64
G1 X8.2 Y1.4
M3 S128
G1 X7.0 Y1.4
M3 S191
G1 X6.8 Y1.4
M3 S64
G1 X5.8 Y1.4
M3 S128
G1 X4.6 Y1.4
M3 S191
G1 X4.4 Y1.4
M3 S128
G1 X4.2 Y1.4
M3 S191
G1 X3.4 Y1.4
M3 S128
G1 X2.8 Y1.4
M3 S191
G1 X1.2 Y1.4
M3 S128
G1 X1.0 Y1.4
M3 S64
G1 X0.6 Y1.4
M3 S128
G1 X0.4 Y1.4
M3 S191
G1 X0.2 Y1.4
M3 S64
G1 X0.0 Y1.4
M5 S0
G0 X0.0 Y1.6
M3 S191
G1 X0.0 Y1.6
M3 S64
G1 X0.2 Y1.6
M3 S191
G1 X0.4 Y1.6
M3 S128
G1 X0.6 Y1.6
M3 S64
G1 X1.0 Y1.6
M3 S128
G1 X1.2 Y1.6
M3 S191
G1 X2.8 Y1.6
M3 S128
G1 X3.0 Y1.6
M3 S191
G1 X3.2 Y1.6
M3 S128
G1 X3.4 Y1.6
M3 S191
G1 X4.2 Y1.6
M3 S128
G1 X4.4 Y1.6
M3 S191
G1 X4.6 Y1.6
M3 S128
G1 X5.6 Y1.6
M3 S64
G1 X6.8 Y1.6
M3 S191
G1 X7.0 Y1.6
M3 S128
G1 X8.4 Y1.6
M3 S64
G1 X8.8 Y1.6
M3 S128
G1 X9.0 Y1.6
M3 S191
G1 X9.2 Y1.6
M3 S128
G1 X9.8 Y1.6
M5 S0
G0 X9.8 Y1.8
M3 S128
G1 X9.4 Y1.8
M3 S191
G1 X9.0 Y1.8
M3 S64
G1 X8.6 Y1.8
M3 S128
G1 X7.0 Y1.8
M3 S191
G1 X6.8 Y1.8
M3 S128
G1 X6.6 Y1.8
M3 S64
G1 X5.6 Y1.8
M3 S128
G1 X4.6 Y1.8
M3 S191
G1 X3.2 Y1.8
M3 S128
G1 X2.6 Y1.8
M3 S191
G1 X1.2 Y1.8
M3 S128
G1 X1.0 Y1.8
M3 S64
G1 X0.6 Y1.8
M3 S128
G1 X0.4 Y1.8
M3 S191
G1 X0.2 Y1.8
M3 S128
G1 X0.0 Y1.8
M5 S0
G0 X0.0 Y2.0
M3 S128
G1 X0.0 Y2.0
M3 S191
G1 X0.4 Y2.0
M3 S128
G1 X0.6 Y2.0
M3 S64
G1 X1.0 Y2.0
M3 S128
G1 X1.2 Y2.0
M3 S191
G1 X2.2 Y2.0
M3 S128
G1 X2.4 Y2.0
M3 S191
G1 X2.6 Y2.0
M3 S128
G1 X3.0 Y2.0
M3 S191
G1 X4.6 Y2.0
M3 S128
G1 X5.6 Y2.0
M3 S64
G1 X6.4 Y2.0
M3 S128
G1 X6.6 Y2.0
M3 S191
G1 X7.0 Y2.0
M3 S128
G1 X8.6 Y2.0
M3 S64
G1 X9.0 Y2.0
M3 S128
G1 X9.2 Y2.0
M3 S191
G1 X9.8 Y2.0
M5 S0
G0 X9.8 Y2.2
M3 S191
G1 X9.4 Y2.2
M3 S128
G1 X9.2 Y2.2
M3 S64
G1 X8.6 Y2.2
M3 S128
G1 X7.0 Y2.2
M3 S191
G1 X6.2 Y2.2
M3 S128
G1 X6.0 Y2.2
M3 S64
G1 X5.6 Y2.2
M3 S128
G1 X4.6 Y2.2
M3 S191
G1 X3.0 Y2.2
M3 S128
G1 X2.0 Y2.2
M3 S191
G1 X1.2 Y2.2
M3 S128
G1 X1.0 Y2.2
M3 S64
G1 X0.6 Y2.2
M3 S128
G1 X0.4 Y2.2
M3 S191
G1 X0.0 Y2.2
M5 S0
G0 X0.0 Y2.4
M3 S191
G1 X0.2 Y2.4
M3 S128
G1 X0.6 Y2.4
M3 S64
G1 X1.0 Y2.4
M3 S128
G1 X1.2 Y2.4
M3 S191
G1 X2.0 Y2.4
M3 S128
G1 X2.2 Y2.4
M3 S191
G1 X2.4 Y2.4
M3 S128
G1 X2.8 Y2.4
M3 S191
G1 X4.8 Y2.4
M3 S128
G1 X5.4 Y2.4
M3 S64
G1 X5.6 Y2.4
M3 S128
G1 X5.8 Y2.4
M3 S191
G1 X7.0 Y2.4
M3 S128
G1 X8.6 Y2.4
M3 S64
G1 X9.4 Y2.4
M3 S128
G1 X9.8 Y2.4
M5 S0
G0 X9.8 Y2.6
M3 S64
G1 X8.6 Y2.6
M3 S128
G1 X7.2 Y2.6
M3 S191
G1 X6.0 Y2.6
M3 S128
G1 X5.8 Y2.6
M3 S64
G1 X5.4 Y2.6
M3 S128
G1 X4.6 Y2.6
M3 S191
G1 X3.0 Y2.6
M3 S128
G1 X2.0 Y2.6
M3 S191
G1 X1.0 Y2.6
M3 S64
G1 X0.6 Y2.6
M3 S128
G1 X0.2 Y2.6
M3 S191
G1 X0.0 Y2.6
M5 S0
G0 X0.0 Y2.8
M3 S191
G1 X0.2 Y2.8
M3 S128
G1 X0.6 Y2.8
M3 S64
G1 X1.0 Y2.8
M3 S128
G1 X1.4 Y2.8
M3 S191
G1 X2.0 Y2.8
M3 S128
G1 X2.8 Y2.8
M3 S64
G1 X3.0 Y2.8
M3 S191
G1 X4.4 Y2.8
M3 S128
G1 X6.0 Y2.8
M3 S191
G1 X7.2 Y2.8
M3 S128
G1 X8.6 Y2.8
M3 S64
G1 X9.8 Y2.8
M5 S0
G0 X9.8 Y3.0
M3 S64
G1 X8.6 Y3.0
M3 S128
G1 X7.2 Y3.0
M3 S191
G1 X6.2 Y3.0
M3 S128
G1 X4.2 Y3.0
M3 S191
G1 X3.2 Y3.0
M3 S128
G1 X3.0 Y3.0
M3 S64
G1 X2.8 Y3.0
M3 S128
G1 X2.6 Y3.0
M3 S191
G1 X2.2 Y3.0
M3 S128
G1 X2.0 Y3.0
M3 S191
G1 X1.4 Y3.0
M3 S128
G1 X1.0 Y3.0
M3 S64
G1 X0.4 Y3.0
M3 S128
G1 X0.2 Y3.0
M3 S191
G1 X0.0 Y3.0
M5 S0
G0 X0.0 Y3.2
M3 S191
G1 X0.4 Y3.2
M3 S64
G1 X1.0 Y3.2
M3 S128
G1 X1.6 Y3.2
M3 S191
G1 X2.4 Y3.2
M3 S128
G1 X2.6 Y3.2
M3 S191
G1 X2.8 Y3.2
M3 S128
G1 X3.4 Y3.2
M3 S191
G1 X4.2 Y3.2
M3 S128
G1 X5.6 Y3.2
M3 S64
G1 X6.0 Y3.2
M3 S128
G1 X6.2 Y3.2
M3 S191
G1 X7.2 Y3.2
M3 S128
G1 X8.6 Y3.2
M3 S64
G1 X9.8 Y3.2
M5 S0
G0 X9.8 Y3.4
M3 S64
G1 X8.6 Y3.4
M3 S128
G1 X7.0 Y3.4
M3 S191
G1 X6.4 Y3.4
M3 S128
G1 X6.0 Y3.4
M3 S64
G1 X5.6 Y3.4
M3 S128
G1 X4.0 Y3.4
M3 S191
G1 X3.6 Y3.4
M3 S128
G1 X3.0 Y3.4
M3 S191
G1 X2.4 Y3.4
M3 S128
G1 X2.2 Y3.4
M3 S191
G1 X1.6 Y3.4
M3 S128
G1 X1.0 Y3.4
M3 S64
G1 X0.4 Y3.4
M3 S191
G1 X0.0 Y3.4
M5 S0
G0 X0.0 Y3.6
M3 S191
G1 X0.4 Y3.6
M3 S128
G1 X0.6 Y3.6
M3 S64
G1 X1.0 Y3.6
M3 S128
G1 X1.6 Y3.6
M3 S191
G1 X2.2 Y3.6
M3 S128
G1 X2.4 Y3.6
M3 S191
G1 X3.4 Y3.6
M3 S64
G1 X3.6 Y3.6
M3 S191
G1 X4.2 Y3.6
M3 S128
G1 X5.8 Y3.6
M3 S64
G1 X6.2 Y3.6
M3 S128
G1 X6.4 Y3.6
M3 S191
G1 X7.0 Y3.6
M3 S128
G1 X7.2 Y3.6
M3 S191
G1 X7.4 Y3.6
M3 S128
G1 X8.8 Y3.6
M3 S64
G1 X9.8 Y3.6
M5 S0
G0 X9.8 Y3.8
M3 S64
G1 X8.8 Y3.8
M3 S128
G1 X7.4 Y3.8
M3 S191
G1 X7.2 Y3.8
M3 S128
G1 X7.0 Y3.8
M3 S191
G1 X6.4 Y3.8
M3 S128
G1 X6.2 Y3.8
M3 S64
G1 X5.8 Y3.8
M3 S128
G1 X5.2 Y3.8
M3 S64
G1 X4.8 Y3.8
M3 S128
G1 X4.2 Y3.8
M3 S191
G1 X3.8 Y3.8
M3 S128
G1 X3.6 Y3.8
M3 S191
G1 X3.2 Y3.8
M3 S128
G1 X3.0 Y3.8
M3 S191
G1 X2.4 Y3.8
M3 S128
G1 X2.2 Y3.8
M3 S191
G1 X1.6 Y3.8
M3 S128
G1 X1.2 Y3.8
M3 S191
G1 X1.0 Y3.8
M3 S64
G1 X0.6 Y3.8
M3 S128
G1 X0.4 Y3.8
M3 S191
G1 X0.0 Y3.8
M5 S0
G0 X0.0 Y4.0
M3 S191
G1 X0.4 Y4.0
M3 S128
G1 X0.6 Y4.0
M3 S64
G1 X1.0 Y4.0
M3 S128
G1 X1.8 Y4.0
M3 S191
G1 X3.6 Y4.0
M3 S128
G1 X4.0 Y4.0
M3 S191
G1 X4.2 Y4.0
M3 S128
G1 X4.8 Y4.0
M3 S64
G1 X5.2 Y4.0
M3 S128
G1 X5.8 Y4.0
M3 S64
G1 X6.2 Y4.0
M3 S128
G1 X6.6 Y4.0
M3 S191
G1 X7.0 Y4.0
M3 S128
G1 X7.2 Y4.0
M3 S191
G1 X7.4 Y4.0
M3 S128
G1 X9.0 Y4.0
M3 S64
G1 X9.8 Y4.0
M5 S0
G0 X9.8 Y4.2
M3 S64
G1 X9.0 Y4.2
M3 S128
G1 X7.6 Y4.2
M3 S191
G1 X7.2 Y4.2
M3 S128
G1 X7.0 Y4.2
M3 S191
G1 X6.6 Y4.2
M3 S128
G1 X6.2 Y4.2
M3 S64
G1 X5.8 Y4.2
M3 S128
G1 X5.4 Y4.2
M3 S64
G1 X4.6 Y4.2
M3 S128
G1 X4.0 Y4.2
M3 S64
G1 X3.8 Y4.2
M3 S128
G1 X3.6 Y4.2
M3 S191
G1 X2.4 Y4.2
M3 S128
G1 X2.2 Y4.2
M3 S191
G1 X1.8 Y4.2
M3 S128
G1 X1.0 Y4.2
M3 S64
G1 X0.6 Y4.2
M3 S128
G1 X0.4 Y4.2
M3 S191
G1 X0.0 Y4.2
M5 S0
G0 X0.0 Y4.4
M3 S128
G1 X0.0 Y4.4
M3 S191
G1 X0.4 Y4.4
M3 S128
G1 X0.6 Y4.4
M3 S64
G1 X1.0 Y4.4
M3 S128
G1 X2.0 Y4.4
M3 S191
G1 X2.8 Y4.4
M3 S128
G1 X3.2 Y4.4
M3 S191
G1 X3.8 Y4.4
M3 S128
G1 X4.0 Y4.4
M3 S64
G1 X4.2 Y4.4
M3 S128
G1 X5.8 Y4.4
M3 S64
G1 X6.0 Y4.4
M3 S128
G1 X6.4 Y4.4
M3 S191
G1 X7.0 Y4.4
M3 S128
G1 X7.2 Y4.4
M3 S191
G1 X7.6 Y4.4
M3 S128
G1 X9.2 Y4.4
M3 S64
G1 X9.8 Y4.4
M5 S0
G0 X9.8 Y4.6
M3 S128
G1 X7.6 Y4.6
M3 S191
G1 X7.2 Y4.6
M3 S128
G1 X7.0 Y4.6
M3 S191
G1 X6.4 Y4.6
M3 S128
G1 X6.0 Y4.6
M3 S64
G1 X5.8 Y4.6
M3 S128
G1 X5.0 Y4.6
M3 S191
G1 X4.6 Y4.6
M3 S128
G1 X4.4 Y4.6
M3 S64
G1 X4.0 Y4.6
M3 S191
G1 X2.2 Y4.6
M3 S128
G1 X1.8 Y4.6
M3 S191
G1 X1.6 Y4.6
M3 S128
G1 X1.2 Y4.6
M3 S191
G1 X1.0 Y4.6
M3 S64
G1 X0.6 Y4.6
M3 S128
G1 X0.4 Y4.6
M3 S191
G1 X0.0 Y4.6
M5 S0
G0 X0.0 Y4.8
M3 S128
G1 X0.0 Y4.8
M3 S191
G1 X0.4 Y4.8
M3 S128
G1 X0.6 Y4.8
M3 S64
G1 X1.0 Y4.8
M3 S191
G1 X1.4 Y4.8
M3 S128
G1 X1.6 Y4.8
M3 S191
G1 X1.8 Y4.8
M3 S128
G1 X2.4 Y4.8
M3 S191
G1 X4.0 Y4.8
M3 S128
G1 X4.2 Y4.8
M3 S64
G1 X4.6 Y4.8
M3 S191
G1 X5.4 Y4.8
M3 S128
G1 X5.8 Y4.8
M3 S64
G1 X6.0 Y4.8
M3 S128
G1 X6.2 Y4.8
M3 S191
G1 X7.0 Y4.8
M3 S128
G1 X7.2 Y4.8
M3 S191
G1 X7.8 Y4.8
M3 S128
G1 X9.8 Y4.8
M5 S0
G0 X9.8 Y5.0
M3 S128
G1 X7.8 Y5.0
M3 S191
G1 X6.6 Y5.0
M3 S128
G1 X6.2 Y5.0
M3 S64
G1 X5.6 Y5.0
M3 S128
G1 X4.8 Y5.0
M3 S64
G1 X4.4 Y5.0
M3 S128
G1 X4.2 Y5.0
M3 S191
G1 X2.8 Y5.0
M3 S128
G1 X2.6 Y5.0
M3 S191
G1 X2.4 Y5.0
M3 S128
G1 X1.4 Y5.0
M3 S191
G1 X1.0 Y5.0
M3 S64
G1 X0.6 Y5.0
M3 S128
G1 X0.0 Y5.0
M5 S0
G0 X0.0 Y5.2
M3 S128
G1 X0.6 Y5.2
M3 S64
G1 X0.8 Y5.2
M3 S128
G1 X1.0 Y5.2
M3 S191
G1 X1.4 Y5.2
M3 S128
G1 X2.8 Y5.2
M3 S191
G1 X4.4 Y5.2
M3 S64
G1 X5.0 Y5.2
M3 S128
G1 X5.4 Y5.2
M3 S64
G1 X6.6 Y5.2
M3 S191
G1 X6.8 Y5.2
M3 S128
G1 X7.0 Y5.2
M3 S191
G1 X7.8 Y5.2
M3 S128
G1 X8.2 Y5.2
M3 S64
G1 X8.8 Y5.2
M3 S128
G1 X9.8 Y5.2
M5 S0
G0 X9.8 Y5.4
M3 S128
G1 X8.4 Y5.4
M3 S64
G1 X8.2 Y5.4
M3 S128
G1 X8.0 Y5.4
M3 S191
G1 X7.0 Y5.4
M3 S128
G1 X6.8 Y5.4
M3 S191
G1 X6.6 Y5.4
M3 S128
G1 X6.4 Y5.4
M3 S64
G1 X4.6 Y5.4
M3 S128
G1 X4.4 Y5.4
M3 S191
G1 X3.0 Y5.4
M3 S128
G1 X1.4 Y5.4
M3 S191
G1 X1.0 Y5.4
M3 S128
G1 X0.8 Y5.4
M3 S64
G1 X0.6 Y5.4
M3 S128
G1 X0.0 Y5.4
M5 S0
G0 X0.0 Y5.6
M3 S128
G1 X0.6 Y5.6
M3 S64
G1 X0.8 Y5.6
M3 S128
G1 X1.0 Y5.6
M3 S191
G1 X1.4 Y5.6
M3 S128
G1 X2.4 Y5.6
M3 S64
G1 X2.6 Y5.6
M3 S128
G1 X3.2 Y5.6
M3 S191
G1 X4.6 Y5.6
M3 S128
G1 X5.0 Y5.6
M3 S64
G1 X6.4 Y5.6
M3 S128
G1 X6.6 Y5.6
M3 S191
G1 X6.8 Y5.6
M3 S128
G1 X7.0 Y5.6
M3 S191
G1 X8.0 Y5.6
M3 S128
G1 X8.4 Y5.6
M3 S64
G1 X9.4 Y5.6
M3 S128
G1 X9.8 Y5.6
M5 S0
G0 X9.8 Y5.8
M3 S128
G1 X9.2 Y5.8
M3 S64
G1 X8.4 Y5.8
M3 S128
G1 X8.2 Y5.8
M3 S191
G1 X7.0 Y5.8
M3 S128
G1 X6.6 Y5.8
M3 S191
G1 X6.4 Y5.8
M3 S64
G1 X5.0 Y5.8
M3 S128
G1 X4.8 Y5.8
M3 S191
G1 X3.4 Y5.8
M3 S128
G1 X2.6 Y5.8
M3 S64
G1 X2.4 Y5.8
M3 S128
G1 X1.4 Y5.8
M3 S191
G1 X1.0 Y5.8
M3 S128
G1 X0.8 Y5.8
M3 S64
G1 X0.4 Y5.8
M3 S128
G1 X0.0 Y5.8
M5 S0
G0 X0.0 Y6.0
M3 S128
G1 X0.4 Y6.0
M3 S64
G1 X0.8 Y6.0
M3 S128
G1 X1.0 Y6.0
M3 S191
G1 X1.4 Y6.0
M3 S128
G1 X2.2 Y6.0
M3 S64
G1 X2.6 Y6.0
M3 S128
G1 X3.8 Y6.0
M3 S191
G1 X5.0 Y6.0
M3 S128
G1 X5.2 Y6.0
M3 S64
G1 X6.4 Y6.0
M3 S128
G1 X7.0 Y6.0
M3 S64
G1 X7.2 Y6.0
M3 S128
G1 X7.4 Y6.0
M3 S191
G1 X8.2 Y6.0
M3 S128
G1 X8.4 Y6.0
M3 S64
G1 X9.0 Y6.0
M3 S128
G1 X9.8 Y6.0
M5 S0
G0 X9.8 Y6.2
M3 S128
G1 X9.0 Y6.2
M3 S64
G1 X8.6 Y6.2
M3 S128
G1 X8.2 Y6.2
M3 S191
G1 X7.6 Y6.2
M3 S128
G1 X7.4 Y6.2
M3 S64
G1 X7.2 Y6.2
M3 S128
G1 X6.6 Y6.2
M3 S64
G1 X5.4 Y6.2
M3 S128
G1 X5.2 Y6.2
M3 S191
G1 X4.0 Y6.2
M3 S128
G1 X2.4 Y6.2
M3 S64
G1 X2.2 Y6.2
M3 S128
G1 X2.0 Y6.2
M3 S191
G1 X1.8 Y6.2
M3 S128
G1 X1.4 Y6.2
M3 S191
G1 X1.0 Y6.2
M3 S128
G1 X0.8 Y6.2
M3 S64
G1 X0.4 Y6.2
M3 S128
G1 X0.0 Y6.2
M5 S0
G0 X0.0 Y6.4
M3 S128
G1 X0.4 Y6.4
M3 S64
G1 X0.8 Y6.4
M3 S128
G1 X1.0 Y6.4
M3 S191
G1 X1.4 Y6.4
M3 S128
G1 X1.8 Y6.4
M3 S191
G1 X2.0 Y6.4
M3 S128
G1 X2.2 Y6.4
M3 S64
G1 X2.4 Y6.4
M3 S128
G1 X5.0 Y6.4
M3 S191
G1 X5.4 Y6.4
M3 S128
G1 X5.6 Y6.4
M3 S64
G1 X7.0 Y6.4
M3 S128
G1 X7.8 Y6.4
M3 S191
G1 X8.4 Y6.4
M3 S128
G1 X8.8 Y6.4
M3 S64
G1 X9.0 Y6.4
M3 S128
G1 X9.8 Y6.4
M5 S0
G0 X9.8 Y6.6
M3 S128
G1 X8.4 Y6.6
M3 S191
G1 X7.8 Y6.6
M3 S128
G1 X7.4 Y6.6
M3 S64
G1 X5.6 Y6.6
M3 S128
G1 X5.2 Y6.6
M3 S64
G1 X5.0 Y6.6
M3 S128
G1 X2.4 Y6.6
M3 S64
G1 X2.2 Y6.6
M3 S128
G1 X2.0 Y6.6
M3 S191
G1 X1.8 Y6.6
M3 S128
G1 X1.4 Y6.6
M3 S191
G1 X1.0 Y6.6
M3 S128
G1 X0.8 Y6.6
M3 S64
G1 X0.4 Y6.6
M3 S128
G1 X0.2 Y6.6
M3 S191
G1 X0.0 Y6.6
M5 S0
G0 X0.0 Y6.8
M3 S128
G1 X0.0 Y6.8
M3 S191
G1 X0.2 Y6.8
M3 S128
G1 X0.4 Y6.8
M3 S64
G1 X0.8 Y6.8
M3 S128
G1 X1.0 Y6.8
M3 S191
G1 X1.4 Y6.8
M3 S128
G1 X2.2 Y6.8
M3 S64
G1 X2.4 Y6.8
M3 S128
G1 X4.2 Y6.8
M3 S64
G1 X7.8 Y6.8
M3 S191
G1 X8.6 Y6.8
M3 S128
G1 X9.0 Y6.8
M3 S64
G1 X9.2 Y6.8
M3 S128
G1 X9.8 Y6.8
M5 S0
G0 X9.8 Y7.0
M3 S128
G1 X9.2 Y7.0
M3 S64
G1 X9.0 Y7.0
M3 S128
G1 X8.6 Y7.0
M3 S191
G1 X8.0 Y7.0
M3 S128
G1 X7.8 Y7.0
M3 S64
G1 X4.0 Y7.0
M3 S128
G1 X2.4 Y7.0
M3 S64
G1 X2.2 Y7.0
M3 S128
G1 X1.4 Y7.0
M3 S191
G1 X1.0 Y7.0
M3 S128
G1 X0.8 Y7.0
M3 S64
G1 X0.6 Y7.0
M3 S128
G1 X0.0 Y7.0
M5 S0
G0 X0.0 Y7.2
M3 S128
G1 X0.6 Y7.2
M3 S64
G1 X0.8 Y7.2
M3 S128
G1 X1.0 Y7.2
M3 S191
G1 X1.4 Y7.2
M3 S128
G1 X4.0 Y7.2
M3 S64
G1 X6.6 Y7.2
M3 S128
G1 X6.8 Y7.2
M3 S64
G1 X8.0 Y7.2
M3 S191
G1 X8.8 Y7.2
M3 S128
G1 X9.8 Y7.2
M5 S0
G0 X9.8 Y7.4
M3 S128
G1 X9.0 Y7.4
M3 S191
G1 X8.0 Y7.4
M3 S64
G1 X7.2 Y7.4
M3 S128
G1 X6.4 Y7.4
M3 S64
G1 X3.8 Y7.4
M3 S128
G1 X1.4 Y7.4
M3 S191
G1 X1.0 Y7.4
M3 S128
G1 X0.8 Y7.4
M3 S64
G1 X0.6 Y7.4
M3 S128
G1 X0.2 Y7.4
M3 S191
G1 X0.0 Y7.4
M5 S0
G0 X0.0 Y7.6
M3 S191
G1 X0.2 Y7.6
M3 S128
G1 X0.6 Y7.6
M3 S64
G1 X0.8 Y7.6
M3 S128
G1 X1.0 Y7.6
M3 S191
G1 X1.4 Y7.6
M3 S128
G1 X4.0 Y7.6
M3 S64
G1 X6.2 Y7.6
M3 S128
G1 X7.0 Y7.6
M3 S191
G1 X7.4 Y7.6
M3 S64
G1 X8.0 Y7.6
M3 S191
G1 X9.0 Y7.6
M3 S128
G1 X9.4 Y7.6
M3 S64
G1 X9.8 Y7.6
M5 S0
G0 X9.8 Y7.8
M3 S64
G1 X9.6 Y7.8
M3 S128
G1 X9.2 Y7.8
M3 S191
G1 X8.0 Y7.8
M3 S128
G1 X7.4 Y7.8
M3 S191
G1 X7.0 Y7.8
M3 S128
G1 X6.0 Y7.8
M3 S64
G1 X4.2 Y7.8
M3 S128
G1 X1.4 Y7.8
M3 S191
G1 X1.0 Y7.8
M3 S128
G1 X0.8 Y7.8
M3 S64
G1 X0.6 Y7.8
M3 S128
G1 X0.2 Y7.8
M3 S191
G1 X0.0 Y7.8
M5 S0
G0 X0.0 Y8.0
M3 S191
G1 X0.2 Y8.0
M3 S128
G1 X0.6 Y8.0
M3 S64
G1 X0.8 Y8.0
M3 S128
G1 X1.0 Y8.0
M3 S191
G1 X1.4 Y8.0
M3 S128
G1 X4.4 Y8.0
M3 S64
G1 X5.8 Y8.0
M3 S128
G1 X6.0 Y8.0
M3 S191
G1 X6.2 Y8.0
M3 S128
G1 X7.0 Y8.0
M3 S191
G1 X7.2 Y8.0
M3 S128
G1 X8.2 Y8.0
M3 S191
G1 X9.4 Y8.0
M3 S128
G1 X9.8 Y8.0
M5 S0
G0 X9.8 Y8.2
M3 S128
G1 X9.6 Y8.2
M3 S191
G1 X8.2 Y8.2
M3 S128
G1 X7.2 Y8.2
M3 S191
G1 X7.0 Y8.2
M3 S128
G1 X6.2 Y8.2
M3 S191
G1 X5.8 Y8.2
M3 S64
G1 X4.2 Y8.2
M3 S128
G1 X1.4 Y8.2
M3 S191
G1 X1.0 Y8.2
M3 S128
G1 X0.8 Y8.2
M3 S64
G1 X0.4 Y8.2
M3 S128
G1 X0.2 Y8.2
M3 S191
G1 X0.0 Y8.2
M5 S0
G0 X0.0 Y8.4
M3 S128
G1 X0.4 Y8.4
M3 S64
G1 X0.8 Y8.4
M3 S128
G1 X1.0 Y8.4
M3 S191
G1 X1.4 Y8.4
M3 S128
G1 X4.2 Y8.4
M3 S64
G1 X5.6 Y8.4
M3 S128
G1 X8.4 Y8.4
M3 S191
G1 X9.8 Y8.4
M5 S0
G0 X9.8 Y8.6
M3 S191
G1 X8.6 Y8.6
M3 S64
G1 X8.4 Y8.6
M3 S128
G1 X5.2 Y8.6
M3 S64
G1 X4.2 Y8.6
M3 S128
G1 X1.4 Y8.6
M3 S191
G1 X1.0 Y8.6
M3 S128
G1 X0.8 Y8.6
M3 S64
G1 X0.4 Y8.6
M3 S128
G1 X0.0 Y8.6
M5 S0
G0 X0.0 Y8.8
M3 S64
G1 X0.2 Y8.8
M3 S128
G1 X0.6 Y8.8
M3 S64
G1 X0.8 Y8.8
M3 S128
G1 X1.0 Y8.8
M3 S191
G1 X1.4 Y8.8
M3 S128
G1 X4.0 Y8.8
M3 S64
G1 X5.0 Y8.8
M3 S128
G1 X8.2 Y8.8
M3 S64
G1 X8.4 Y8.8
M3 S0
G0 X8.6 Y8.8
M3 S128
G1 X8.6 Y8.8
M3 S128
G1 X8.8 Y8.8
M3 S191
G1 X9.8 Y8.8
M5 S0
G0 X9.8 Y9.0
M3 S191
G1 X8.8 Y9.0
M3 S128
G1 X8.6 Y9.0
M3 S64
G1 X8.4 Y9.0
M3 S0
G0 X8.2 Y9.0
M3 S64
G1 X8.2 Y9.0
M3 S64
G1 X8.0 Y9.0
M3 S128
G1 X1.2 Y9.0
M3 S191
G1 X1.0 Y9.0
M3 S128
G1 X0.8 Y9.0
M3 S64
G1 X0.6 Y9.0
M3 S128
G1 X0.2 Y9.0
M3 S64
G1 X0.0 Y9.0
M5 S0
G0 X0.0 Y9.2
M3 S128
G1 X0.0 Y9.2
M3 S64
G1 X0.8 Y9.2
M3 S128
G1 X1.0 Y9.2
M3 S191
G1 X1.2 Y9.2
M3 S128
G1 X8.0 Y9.2
M3 S64
G1 X8.4 Y9.2
M3 S128
G1 X9.0 Y9.2
M3 S191
G1 X9.8 Y9.2
M5 S0
G0 X9.8 Y9.4
M3 S191
G1 X9.2 Y9.4
M3 S128
G1 X8.2 Y9.4
M3 S64
G1 X7.8 Y9.4
M3 S128
G1 X7.0 Y9.4
M3 S64
G1 X6.6 Y9.4
M3 S128
G1 X0.8 Y9.4
M3 S64
G1 X0.2 Y9.4
M3 S128
G1 X0.0 Y9.4
M5 S0
G0 X0.0 Y9.6
M3 S128
G1 X0.4 Y9.6
M3 S64
G1 X0.8 Y9.6
M3 S128
G1 X6.6 Y9.6
M3 S64
G1 X7.0 Y9.6
M3 S128
G1 X7.8 Y9.6
M3 S64
G1 X8.2 Y9.6
M3 S128
G1 X9.4 Y9.6
M3 S191
G1 X9.8 Y9.6
M5 S0
G0 X9.8 Y9.8
M3 S128
G1 X8.0 Y9.8
M3 S64
G1 X7.6 Y9.8
M3 S128
G1 X0.8 Y9.8
M3 S64
G1 X0.6 Y9.8
M3 S128
G1 X0.0 Y9.8
M5 S0
